;start
;Print id is
;107
; User Name:jjfs85
;          :John Scimone
;User Phone:(203) 123-4567
;
;
;
;
; generated by Slic3r 1.2.9 on 2017-07-22 at 04:33:46

; external perimeters extrusion width = 0.50mm
; perimeters extrusion width = 0.58mm
; infill extrusion width = 0.58mm
; solid infill extrusion width = 0.58mm
; top infill extrusion width = 0.58mm
; support material extrusion width = 0.50mm

M107
M104 S205 ; set temperature

M109 S205 ; wait for temperature to be reached
G21 ; set units to millimeters
G90 ; use absolute coordinates
M82 ; use absolute distances for extrusion
G92 E0
G1 Z0.400 F12000.000
G1 E-0.50000 F2400.00000
G92 E0
G1 X34.628 Y0.000 F12000.000
G1 E0.50000 F2400.00000
G1 X34.628 Y26.136 E1.02812 F1800.000
G1 X34.562 Y27.073 E1.04710
G1 X34.523 Y27.351 E1.05276
G1 X33.878 Y29.421 E1.09659
G1 X33.734 Y29.709 E1.10309
G1 X32.360 Y31.564 E1.14975
G1 X31.018 Y32.555 E1.18345
G1 X30.879 Y32.633 E1.18668
G1 X28.014 Y33.479 E1.24703
G1 X-6.631 Y35.662 E1.94848
G1 X-7.053 Y35.676 E1.95701
G1 X-24.628 Y35.676 E2.31213
G1 X-26.301 Y35.655 E2.34595
G1 X-28.009 Y35.411 E2.38080
G1 X-29.411 Y35.023 E2.41022
G1 X-31.711 Y33.875 E2.46214
G1 X-32.864 Y32.988 E2.49154
G1 X-34.581 Y31.032 E2.54413
G1 X-34.965 Y30.368 E2.55963
G1 X-35.240 Y29.842 E2.57162
G1 X-35.674 Y28.908 E2.59244
G1 X-36.270 Y26.659 E2.63945
G1 X-36.370 Y25.306 E2.66687
G1 X-36.411 Y23.138 E2.71068
G1 X-36.411 Y-24.678 E3.67687
G1 X-36.313 Y-25.820 E3.70004
G1 X-36.048 Y-27.344 E3.73130
G1 X-35.442 Y-29.175 E3.77026
G1 X-34.966 Y-30.124 E3.79171
G1 X-34.065 Y-31.480 E3.82462
G1 X-33.581 Y-32.032 E3.83945
G1 X-32.771 Y-32.887 E3.86324
G1 X-30.769 Y-34.337 E3.91319
G1 X-30.171 Y-34.620 E3.92657
G1 X-29.517 Y-34.888 E3.94084
G1 X-28.664 Y-35.179 E3.95906
G1 X-27.621 Y-35.452 E3.98085
G1 X-26.022 Y-35.661 E4.01343
G1 X-24.355 Y-35.676 E4.04712
G1 X-8.378 Y-35.676 E4.36996
G1 X-6.351 Y-35.662 E4.41092 F1800.000
G1 X27.704 Y-33.479 E5.10046
G1 X28.337 Y-33.408 E5.11334
G1 X28.831 Y-33.329 E5.12344
G1 X31.014 Y-32.577 E5.17010
G1 X32.813 Y-31.130 E5.21676
G1 X33.652 Y-29.934 E5.24626
G1 X33.758 Y-29.741 E5.25073
G1 X34.587 Y-26.666 E5.31508
G1 X34.628 Y-24.867 E5.35144
G1 X34.628 Y-0.075 E5.85239
G1 E5.35239 F2400.00000
G92 E0
G1 X27.592 Y26.779 F12000.000
G1 E0.50000 F2400.00000
G1 X27.914 Y26.136 E0.51452 F1800.000
G1 X25.994 Y26.779 E0.55542
G1 X27.914 Y22.949 E0.64199
G1 X27.914 Y19.761 E0.70640
G1 X24.397 Y26.779 E0.86502
G1 X22.799 Y26.779 E0.89730
G1 X27.914 Y16.573 E1.12797
G1 X27.914 Y13.385 E1.19238
G1 X21.201 Y26.779 E1.49510
G1 X19.604 Y26.779 E1.52738
G1 X27.914 Y10.198 E1.90215
G1 X27.914 Y7.010 E1.96656
G1 X18.006 Y26.779 E2.41337
G1 X16.408 Y26.779 E2.44566
G1 X27.914 Y3.822 E2.96452
G1 X27.914 Y0.635 E3.02894
G1 X14.811 Y26.779 E3.61985
G1 X13.213 Y26.779 E3.65214
G1 X27.914 Y-2.553 E4.31510
G1 X27.914 Y-5.741 E4.37951
G1 X11.615 Y26.779 E5.11453
G1 X10.018 Y26.779 E5.14681
G1 X27.914 Y-8.928 E5.95388
G1 X27.914 Y-12.116 E6.01829
G1 X8.420 Y26.779 E6.89740
G1 X7.424 Y25.579 E6.92892
G1 X27.914 Y-15.304 E7.85296
G1 X27.914 Y-18.491 E7.91737
G1 X7.424 Y22.391 E8.84142
G1 X7.424 Y19.203 E8.90583
G1 X27.914 Y-21.679 E9.82987
G1 X27.914 Y-24.867 E9.89428
G1 X7.424 Y16.016 E10.81833
G1 X7.424 Y12.828 E10.88274
G1 X27.274 Y-26.779 E11.77794
G1 X25.677 Y-26.779 E11.81023
G1 X7.424 Y9.640 E12.63338
G1 X7.424 Y6.452 E12.69779
G1 X24.079 Y-26.779 E13.44890
G1 X22.481 Y-26.779 E13.48118
G1 X7.424 Y3.265 E14.16023
G1 X7.424 Y0.077 E14.22465
G1 X20.884 Y-26.779 E14.83165
G1 X19.286 Y-26.779 E14.86393
G1 X7.424 Y-3.111 E15.39889
G1 X7.424 Y-6.298 E15.46330
G1 X17.688 Y-26.779 E15.92621
G1 X16.091 Y-26.779 E15.95849
G1 X7.424 Y-9.486 E16.34935
G1 X7.424 Y-12.674 E16.41376
G1 X14.493 Y-26.779 E16.73257
G1 X12.895 Y-26.779 E16.76485
G1 X7.424 Y-15.861 E17.01160
G1 X7.424 Y-19.049 E17.07602
G1 X11.298 Y-26.779 E17.25072
G1 X9.700 Y-26.779 E17.28301
G1 X7.424 Y-22.237 E17.38566
G1 X7.424 Y-25.424 E17.45008
G1 X8.102 Y-26.779 E17.48068
G1 E16.98068 F2400.00000
G92 E0
G1 X-27.898 Y-28.268 F12000.000
G1 E0.50000 F2400.00000
G1 X-29.697 Y-24.678 E0.58115 F1800.000
G1 X-29.697 Y-21.490 E0.64556
G1 X-25.960 Y-28.947 E0.81411
G1 X-24.355 Y-28.962 E0.84654
G1 X-29.697 Y-18.302 E1.08747
G1 X-29.697 Y-15.115 E1.15188
G1 X-22.757 Y-28.962 E1.46485
G1 X-21.159 Y-28.962 E1.49714
G1 X-29.697 Y-11.927 E1.88216
G1 X-29.697 Y-8.739 E1.94658
G1 X-19.562 Y-28.962 E2.40365
G1 X-17.964 Y-28.962 E2.43593
G1 X-29.697 Y-5.552 E2.96506
G1 X-29.697 Y-2.364 E3.02947
G1 X-16.366 Y-28.962 E3.63065
G1 X-14.769 Y-28.962 E3.66293
G1 X-29.697 Y0.824 E4.33615
G1 X-29.697 Y4.012 E4.40057
G1 X-13.171 Y-28.962 E5.14584
G1 X-11.573 Y-28.962 E5.17812
G1 X-29.697 Y7.199 E5.99545
G1 X-29.697 Y10.387 E6.05986
G1 X-9.976 Y-28.962 E6.94923
G1 X-8.378 Y-28.962 E6.98152
G1 X-29.697 Y13.575 E7.94294
G1 X-29.697 Y16.762 E8.00735
G1 X-6.780 Y-28.962 E9.04083
G1 X-5.325 Y-28.677 E9.07079
G1 X-29.697 Y19.950 E10.16989
G1 X-29.697 Y23.138 E10.23430
G1 X-4.120 Y-27.894 E11.38775
G1 X-3.208 Y-26.526 E11.42098
G1 X-29.579 Y26.090 E12.61024
G1 X-28.771 Y27.666 E12.64601
G1 X-2.965 Y-23.823 E13.80978
G1 X-2.965 Y-20.635 E13.87419
G1 X-27.618 Y28.552 E14.98595
G1 X-26.215 Y28.941 E15.01536
G1 X-2.965 Y-17.447 E16.06386
G1 X-2.965 Y-14.260 E16.12827
G1 X-24.628 Y28.962 E17.10518
G1 X-23.030 Y28.962 E17.13746
G1 X-2.965 Y-11.072 E18.04232
G1 X-2.965 Y-7.884 E18.10673
G1 X-21.432 Y28.962 E18.93954
G1 X-19.835 Y28.962 E18.97182
G1 X-2.965 Y-4.697 E19.73258
G1 X-2.965 Y-1.509 E19.79699
G1 X-18.237 Y28.962 E20.48570
G1 X-16.639 Y28.962 E20.51798
G1 X-2.965 Y1.679 E21.13464
G1 X-2.965 Y4.867 E21.19905
G1 X-15.042 Y28.962 E21.74366
G1 X-13.444 Y28.962 E21.77594
G1 X-2.965 Y8.054 E22.24850
G1 X-2.965 Y11.242 E22.31292
G1 X-11.846 Y28.962 E22.71342
G1 X-10.249 Y28.962 E22.74571
G1 X-2.965 Y14.430 E23.07417
G1 X-2.965 Y17.617 E23.13858
G1 X-8.651 Y28.962 E23.39499
G1 X-7.053 Y28.962 E23.42727
G1 X-2.965 Y20.805 E23.61163
G1 X-2.965 Y23.993 E23.67604
G1 X-5.255 Y28.561 E23.77930
G1 Z0.780 F12000.000
G1 X-22.172 Y28.113 F12000.000
G1 X-23.615 Y25.613 E23.81177 F3600.000
G1 X-27.219 Y25.613 E23.85231
G1 X-28.206 Y27.323 E23.87452
G1 X-27.975 Y27.555 E23.87820
G1 X-27.499 Y27.888 E23.88474
G1 X-26.972 Y28.134 E23.89128
G1 X-26.410 Y28.284 E23.89782
G1 X-25.867 Y28.332 E23.90395
G1 X-6.795 Y28.332 E24.11847
G1 X-6.252 Y28.284 E24.12460
G1 X-5.691 Y28.134 E24.13114
G1 X-5.164 Y27.888 E24.13767
G1 X-4.688 Y27.554 E24.14421
G1 X-4.277 Y27.143 E24.15075
G1 X-3.943 Y26.667 E24.15729
G1 X-3.698 Y26.140 E24.16383
G1 X-3.556 Y25.613 E24.16997
G1 X-7.029 Y25.613 E24.20904
G1 X-8.473 Y28.113 E24.24151
G1 X-12.077 Y28.113 E24.28204
G1 X-13.520 Y25.613 E24.31451
G1 X-17.124 Y25.613 E24.35505
G1 X-18.568 Y28.113 E24.38752
G1 X-22.172 Y28.113 E24.42806
G1 X-22.172 Y22.284 F12000.000
G1 X-23.615 Y19.784 E24.46053 F3600.000
G1 X-27.219 Y19.784 E24.50107
G1 X-28.662 Y22.284 E24.53354
G1 X-29.163 Y22.284 E24.53916
G1 X-29.163 Y22.699 E24.54382
G1 X-28.662 Y22.699 E24.54945
G1 X-27.219 Y25.199 E24.58192
G1 X-23.615 Y25.199 E24.62246
G1 X-22.172 Y22.699 E24.65493
G1 X-18.568 Y22.699 E24.69546
G1 X-17.124 Y25.199 E24.72793
G1 X-13.520 Y25.199 E24.76847
G1 X-12.077 Y22.699 E24.80094
G1 X-8.473 Y22.699 E24.84148
G1 X-7.029 Y25.199 E24.87395
G1 X-3.514 Y25.199 E24.91349
G1 X-3.500 Y25.036 E24.91532
G1 X-3.500 Y19.784 E24.97439
G1 X-7.029 Y19.784 E25.01409
G1 X-8.473 Y22.284 E25.04656
G1 X-12.077 Y22.284 E25.08710
G1 X-13.520 Y19.784 E25.11957
G1 X-17.124 Y19.784 E25.16011
G1 X-18.568 Y22.284 E25.19258
G1 X-22.172 Y22.284 E25.23311
G1 X-22.172 Y16.456 F12000.000
G1 X-23.615 Y13.956 E25.26558 F3600.000
G1 X-27.219 Y13.956 E25.30612
G1 X-28.662 Y16.456 E25.33859
G1 X-29.163 Y16.456 E25.34422
G1 X-29.163 Y16.870 E25.34888
G1 X-28.662 Y16.870 E25.35450
G1 X-27.219 Y19.370 E25.38697
G1 X-23.615 Y19.370 E25.42751
G1 X-22.172 Y16.870 E25.45998
G1 X-18.568 Y16.870 E25.50052
G1 X-17.124 Y19.370 E25.53299
G1 X-13.520 Y19.370 E25.57353
G1 X-12.077 Y16.870 E25.60600
G1 X-8.473 Y16.870 E25.64653
G1 X-7.029 Y19.370 E25.67900
G1 X-3.500 Y19.370 E25.71870
G1 X-3.500 Y13.956 E25.77960
G1 X-7.029 Y13.956 E25.81930
G1 X-8.473 Y16.456 E25.85177
G1 X-12.077 Y16.456 E25.89231
G1 X-13.520 Y13.956 E25.92478
G1 X-17.124 Y13.956 E25.96531
G1 X-18.568 Y16.456 E25.99778
G1 X-22.172 Y16.456 E26.03832
G1 X-22.172 Y10.628 F12000.000
G1 X-23.615 Y8.128 E26.07079 F3600.000
G1 X-27.219 Y8.128 E26.11133
G1 X-28.662 Y10.628 E26.14380
G1 X-29.163 Y10.628 E26.14943
G1 X-29.163 Y11.042 E26.15408
G1 X-28.662 Y11.042 E26.15971
G1 X-27.219 Y13.542 E26.19218
G1 X-23.615 Y13.542 E26.23272
G1 X-22.172 Y11.042 E26.26519
G1 X-18.568 Y11.042 E26.30573
G1 X-17.124 Y13.542 E26.33820
G1 X-13.520 Y13.542 E26.37873
G1 X-12.077 Y11.042 E26.41120
G1 X-8.473 Y11.042 E26.45174
G1 X-7.029 Y13.542 E26.48421
G1 X-3.500 Y13.542 E26.52391
G1 X-3.500 Y8.128 E26.58481
G1 X-7.029 Y8.128 E26.62451
G1 X-8.473 Y10.628 E26.65698
G1 X-12.077 Y10.628 E26.69751
G1 X-13.520 Y8.128 E26.72998
G1 X-17.124 Y8.128 E26.77052
G1 X-18.568 Y10.628 E26.80299
G1 X-22.172 Y10.628 E26.84353
G1 X-22.172 Y4.799 F12000.000
G1 X-23.615 Y2.299 E26.87600 F3600.000
G1 X-27.219 Y2.299 E26.91654
G1 X-28.662 Y4.799 E26.94901
G1 X-29.163 Y4.799 E26.95463
G1 X-29.163 Y5.214 E26.95929
G1 X-28.662 Y5.214 E26.96492
G1 X-27.219 Y7.714 E26.99739
G1 X-23.615 Y7.714 E27.03793
G1 X-22.172 Y5.214 E27.07040
G1 X-18.568 Y5.214 E27.11093
G1 X-17.124 Y7.714 E27.14340
G1 X-13.520 Y7.714 E27.18394
G1 X-12.077 Y5.214 E27.21641
G1 X-8.473 Y5.214 E27.25695
G1 X-7.029 Y7.714 E27.28942
G1 X-3.500 Y7.714 E27.32912
G1 X-3.500 Y2.299 E27.39001
G1 X-7.029 Y2.299 E27.42971
G1 X-8.473 Y4.799 E27.46218
G1 X-12.077 Y4.799 E27.50272
G1 X-13.520 Y2.299 E27.53519
G1 X-17.124 Y2.299 E27.57573
G1 X-18.568 Y4.799 E27.60820
G1 X-22.172 Y4.799 E27.64874
G1 X-22.172 Y-1.029 F12000.000
G1 X-23.615 Y-3.529 E27.68121 F3600.000
G1 X-27.219 Y-3.529 E27.72174
G1 X-28.662 Y-1.029 E27.75421
G1 X-29.163 Y-1.029 E27.75984
G1 X-29.163 Y-0.615 E27.76450
G1 X-28.662 Y-0.615 E27.77013
G1 X-27.219 Y1.885 E27.80260
G1 X-23.615 Y1.885 E27.84313
G1 X-22.172 Y-0.615 E27.87560
G1 X-18.568 Y-0.615 E27.91614
G1 X-17.124 Y1.885 E27.94861
G1 X-13.520 Y1.885 E27.98915
G1 X-12.077 Y-0.615 E28.02162
G1 X-8.473 Y-0.615 E28.06216
G1 X-7.029 Y1.885 E28.09463
G1 X-3.500 Y1.885 E28.13433
G1 X-3.500 Y-3.529 E28.19522
G1 X-7.029 Y-3.529 E28.23492
G1 X-8.473 Y-1.029 E28.26739
G1 X-12.077 Y-1.029 E28.30793
G1 X-13.520 Y-3.529 E28.34040
G1 X-17.124 Y-3.529 E28.38094
G1 X-18.568 Y-1.029 E28.41341
G1 X-22.172 Y-1.029 E28.45394
G1 X-22.172 Y-6.857 F12000.000
G1 X-23.615 Y-9.357 E28.48641 F3600.000
G1 X-27.219 Y-9.357 E28.52695
G1 X-28.662 Y-6.857 E28.55942
G1 X-29.163 Y-6.857 E28.56505
G1 X-29.163 Y-6.443 E28.56971
G1 X-28.662 Y-6.443 E28.57533
G1 X-27.219 Y-3.943 E28.60780
G1 X-23.615 Y-3.943 E28.64834
G1 X-22.172 Y-6.443 E28.68081
G1 X-18.568 Y-6.443 E28.72135
G1 X-17.124 Y-3.943 E28.75382
G1 X-13.520 Y-3.943 E28.79436
G1 X-12.077 Y-6.443 E28.82683
G1 X-8.473 Y-6.443 E28.86736
G1 X-7.029 Y-3.943 E28.89983
G1 X-3.500 Y-3.943 E28.93953
G1 X-3.500 Y-9.357 E29.00043
G1 X-7.029 Y-9.357 E29.04013
G1 X-8.473 Y-6.857 E29.07260
G1 X-12.077 Y-6.857 E29.11314
G1 X-13.520 Y-9.357 E29.14561
G1 X-17.124 Y-9.357 E29.18615
G1 X-18.568 Y-6.857 E29.21861
G1 X-22.172 Y-6.857 E29.25915
G1 X-22.172 Y-12.685 F12000.000
G1 X-23.615 Y-15.185 E29.29162 F3600.000
G1 X-27.219 Y-15.185 E29.33216
G1 X-28.662 Y-12.685 E29.36463
G1 X-29.163 Y-12.685 E29.37026
G1 X-29.163 Y-12.271 E29.37492
G1 X-28.662 Y-12.271 E29.38054
G1 X-27.219 Y-9.771 E29.41301
G1 X-23.615 Y-9.771 E29.45355
G1 X-22.172 Y-12.271 E29.48602
G1 X-18.568 Y-12.271 E29.52656
G1 X-17.124 Y-9.771 E29.55903
G1 X-13.520 Y-9.771 E29.59956
G1 X-12.077 Y-12.271 E29.63203
G1 X-8.473 Y-12.271 E29.67257
G1 X-7.029 Y-9.771 E29.70504
G1 X-3.500 Y-9.771 E29.74474
G1 X-3.500 Y-15.185 E29.80564
G1 X-7.029 Y-15.185 E29.84534
G1 X-8.473 Y-12.685 E29.87781
G1 X-12.077 Y-12.685 E29.91835
G1 X-13.520 Y-15.185 E29.95082
G1 X-17.124 Y-15.185 E29.99135
G1 X-18.568 Y-12.685 E30.02382
G1 X-22.172 Y-12.685 E30.06436
G1 X-22.172 Y-18.514 F12000.000
G1 X-23.615 Y-21.014 E30.09683 F3600.000
G1 X-27.219 Y-21.014 E30.13737
G1 X-28.662 Y-18.514 E30.16984
G1 X-29.163 Y-18.514 E30.17546
G1 X-29.163 Y-18.100 E30.18012
G1 X-28.662 Y-18.100 E30.18575
G1 X-27.219 Y-15.600 E30.21822
G1 X-23.615 Y-15.600 E30.25876
G1 X-22.172 Y-18.100 E30.29123
G1 X-18.568 Y-18.100 E30.33177
G1 X-17.124 Y-15.600 E30.36423
G1 X-13.520 Y-15.600 E30.40477
G1 X-12.077 Y-18.100 E30.43724
G1 X-8.473 Y-18.100 E30.47778
G1 X-7.029 Y-15.600 E30.51025
G1 X-3.500 Y-15.600 E30.54995
G1 X-3.500 Y-21.014 E30.61085
G1 X-7.029 Y-21.014 E30.65055
G1 X-8.473 Y-18.514 E30.68302
G1 X-12.077 Y-18.514 E30.72355
G1 X-13.520 Y-21.014 E30.75602
G1 X-17.124 Y-21.014 E30.79656
G1 X-18.568 Y-18.514 E30.82903
G1 X-22.172 Y-18.514 E30.86957
G1 X-22.172 Y-24.342 F12000.000
G1 X-23.615 Y-26.842 E30.90204 F3600.000
G1 X-27.219 Y-26.842 E30.94258
G1 X-28.662 Y-24.342 E30.97505
G1 X-29.163 Y-24.342 E30.98067
G1 X-29.163 Y-23.928 E30.98533
G1 X-28.662 Y-23.928 E30.99096
G1 X-27.219 Y-21.428 E31.02343
G1 X-23.615 Y-21.428 E31.06397
G1 X-22.172 Y-23.928 E31.09643
G1 X-18.568 Y-23.928 E31.13697
G1 X-17.124 Y-21.428 E31.16944
G1 X-13.520 Y-21.428 E31.20998
G1 X-12.077 Y-23.928 E31.24245
G1 X-8.473 Y-23.928 E31.28299
G1 X-7.029 Y-21.428 E31.31546
G1 X-3.500 Y-21.428 E31.35516
G1 X-3.500 Y-25.036 E31.39574
G1 X-3.547 Y-25.579 E31.40187
G1 X-3.698 Y-26.140 E31.40841
G1 X-3.943 Y-26.667 E31.41495
G1 X-4.066 Y-26.842 E31.41735
G1 X-7.029 Y-26.842 E31.45068
G1 X-8.473 Y-24.342 E31.48315
G1 X-12.077 Y-24.342 E31.52369
G1 X-13.520 Y-26.842 E31.55616
G1 X-17.124 Y-26.842 E31.59670
G1 X-18.568 Y-24.342 E31.62917
G1 X-22.172 Y-24.342 E31.66970
G1 X-23.615 Y-27.256 F12000.000
G1 X-22.994 Y-28.332 E31.68367 F3600.000
G1 X-25.868 Y-28.332 E31.71599
G1 X-26.410 Y-28.284 E31.72212
G1 X-26.972 Y-28.134 E31.72865
G1 X-27.559 Y-27.845 E31.73601
G1 X-27.219 Y-27.256 E31.74367
G1 X-23.615 Y-27.256 E31.78420
G1 X-13.520 Y-27.256 F12000.000
G1 X-12.899 Y-28.332 E31.79817 F3600.000
G1 X-17.745 Y-28.332 E31.85267
G1 X-17.124 Y-27.256 E31.86664
G1 X-13.520 Y-27.256 E31.90718
G1 X-6.750 Y-28.328 F12000.000
G1 X-7.650 Y-28.332 E31.91730 F3600.000
G1 X-7.029 Y-27.256 E31.93127
G1 X-4.389 Y-27.256 E31.96096
G1 X-4.688 Y-27.555 E31.96571
G1 X-5.164 Y-27.888 E31.97224
G1 X-5.691 Y-28.134 E31.97878
G1 X-6.252 Y-28.284 E31.98532
G1 X-6.750 Y-28.328 E31.99094
G1 X-6.713 Y-28.744 F12000.000
G1 X-25.886 Y-28.750 E32.20659 F3600.000
G1 X-26.483 Y-28.698 E32.21333
G1 X-27.115 Y-28.528 E32.22069
G1 X-27.709 Y-28.252 E32.22806
G1 X-28.245 Y-27.876 E32.23541
G1 X-28.707 Y-27.414 E32.24278
G1 X-29.083 Y-26.877 E32.25014
G1 X-29.360 Y-26.284 E32.25750
G1 X-29.529 Y-25.652 E32.26486
G1 X-29.581 Y-25.055 E32.27161
G1 X-29.581 Y25.055 E32.83522
G1 X-29.529 Y25.652 E32.84197
G1 X-29.360 Y26.284 E32.84933
G1 X-29.083 Y26.877 E32.85669
G1 X-28.708 Y27.414 E32.86405
G1 X-28.245 Y27.876 E32.87142
G1 X-27.709 Y28.252 E32.87878
G1 X-27.115 Y28.528 E32.88614
G1 X-26.483 Y28.698 E32.89350
G1 X-25.886 Y28.750 E32.90025
G1 X-6.777 Y28.750 E33.11518
G1 X-6.179 Y28.698 E33.12193
G1 X-5.547 Y28.528 E33.12929
G1 X-4.954 Y28.252 E33.13665
G1 X-4.418 Y27.876 E33.14401
G1 X-3.955 Y27.413 E33.15137
G1 X-3.579 Y26.877 E33.15874
G1 X-3.303 Y26.284 E33.16610
G1 X-3.133 Y25.652 E33.17346
G1 X-3.081 Y25.055 E33.18020
G1 X-3.081 Y-25.055 E33.74382
G1 X-3.134 Y-25.652 E33.75057
G1 X-3.303 Y-26.284 E33.75793
G1 X-3.579 Y-26.877 E33.76529
G1 X-3.955 Y-27.414 E33.77265
G1 X-4.418 Y-27.876 E33.78001
G1 X-4.954 Y-28.252 E33.78737
G1 X-5.547 Y-28.528 E33.79474
G1 X-6.179 Y-28.698 E33.80210
G1 X-6.713 Y-28.744 E33.80813
G1 E33.30813 F2400.00000
G92 E0
G1 X18.208 Y-18.514 F12000.000
G1 E0.50000 F2400.00000
G1 X16.765 Y-21.014 E0.53247 F3600.000
G1 X13.161 Y-21.014 E0.57301
G1 X11.717 Y-18.514 E0.60548
G1 X8.113 Y-18.514 E0.64602
G1 X7.958 Y-18.782 E0.64950
G1 X7.958 Y-17.831 E0.66021
G1 X8.113 Y-18.100 E0.66370
