;start
;Print id is
;68
; generated by Slic3r 1.2.9 on 2017-03-20 at 18:18:52

; external perimeters extrusion width = 0.50mm
; perimeters extrusion width = 0.72mm
; infill extrusion width = 0.72mm
; solid infill extrusion width = 0.72mm
; top infill extrusion width = 0.72mm
; support material extrusion width = 0.50mm

M104 S200 ; set temperature
G28 ; home all axes
G1 Z5 F5000 ; lift nozzle

M109 S200 ; wait for temperature to be reached
G21 ; set units to millimeters
G90 ; use absolute coordinates
M82 ; use absolute distances for extrusion
G92 E0
G1 Z0.350 F7800.000
G1 E-2.00000 F2400.00000
G92 E0
G1 X65.786 Y71.079 F7800.000
G1 E2.00000 F2400.00000
G1 X64.109 Y74.426 E2.34043 F1800.000
G1 X64.351 Y76.732 E2.55130
G1 X67.923 Y69.605 E3.27627
G1 X69.366 Y69.515 E3.40775
G1 X65.099 Y78.027 E4.27361
G1 X65.875 Y79.270 E4.40680
G1 X70.765 Y69.514 E5.39916
G1 X72.019 Y69.800 E5.51617
G1 X66.899 Y80.016 E6.55528
G1 X68.058 Y80.493 E6.66923
G1 X73.103 Y70.426 E7.69318
G1 X73.971 Y71.483 F7800.000
G1 X69.456 Y80.492 E8.60952 F1800.000
G1 X70.854 Y80.492 E8.73667
G1 X74.720 Y72.778 E9.52119
G1 E7.52119 F2400.00000
G92 E0
G1 X77.401 Y70.218 F7800.000
G1 E2.00000 F2400.00000
G1 X72.590 Y79.818 E2.97642 F1800.000
G1 E0.97642 F2400.00000
G92 E0
G1 X75.285 Y77.229 F7800.000
G1 E2.00000 F2400.00000
G1 X79.151 Y69.517 E2.78449 F1800.000
G1 X80.553 Y69.508 E2.91202
G1 X76.034 Y78.525 E3.82915
G1 X76.931 Y79.524 E3.95125
G1 X81.942 Y69.527 E4.96803
G1 X83.074 Y70.056 E5.08171
G1 X78.005 Y80.170 E6.11045
G1 X79.245 Y80.486 E6.22676
G1 X84.108 Y70.783 E7.21368
G1 X84.906 Y71.980 E7.34450
G1 X80.643 Y80.486 E8.20958
G1 X82.118 Y80.332 E8.34442
G1 X85.655 Y73.276 E9.06214
G1 X85.825 Y75.726 E9.28546
G1 X84.278 Y78.811 E9.59926
G1 Z0.720 F7800.000
G1 X81.305 Y79.877 F7800.000
G1 X79.925 Y77.487 E9.77782 F3600.000
G1 X76.284 Y77.487 E10.01341
G1 X76.204 Y77.625 E10.02376
G1 X76.682 Y78.452 E10.08557
G1 X77.006 Y78.828 E10.11762
G1 X77.239 Y78.974 E10.13542
G1 X77.786 Y79.376 E10.17937
G1 X78.385 Y79.654 E10.22210
G1 X78.724 Y79.795 E10.24584
G1 X79.082 Y79.878 E10.26962
G1 X81.305 Y79.877 E10.41346
G1 X79.925 Y71.180 F7800.000
G1 X80.540 Y70.116 E10.49297 F3600.000
G1 X79.152 Y70.117 E10.58278
G1 X78.663 Y70.209 E10.61493
G1 X77.535 Y70.770 E10.69643
G1 X77.015 Y71.180 E10.73928
G1 X79.925 Y71.180 E10.92756
G1 X83.227 Y70.342 F7800.000
G1 X81.809 Y69.694 E11.02840 F3600.000
G1 X79.112 Y69.696 E11.20291
G1 X78.523 Y69.808 E11.24171
G1 X77.310 Y70.412 E11.32933
G1 X76.459 Y71.083 E11.39949
G1 X75.000 Y73.614 E11.58854
G1 X73.564 Y71.131 E11.77416
G1 X73.230 Y70.766 E11.80613
G1 X72.428 Y70.205 E11.86947
G1 X71.275 Y69.701 E11.95087
G1 X68.262 Y69.703 E12.14585
G1 X67.784 Y69.808 E12.17747
G1 X66.897 Y70.222 E12.24083
G1 X65.887 Y70.967 E12.32206
G1 X64.378 Y73.583 E12.51747
G1 X64.231 Y74.046 E12.54888
G1 X64.146 Y75.022 E12.61225
G1 X64.287 Y76.269 E12.69343
G1 X65.798 Y78.882 E12.88875
G1 X65.944 Y79.060 E12.90364
G1 X66.127 Y79.242 E12.92034
G1 X66.929 Y79.803 E12.98370
G1 X68.081 Y80.306 E13.06500
G1 X71.092 Y80.304 E13.25980
G1 X71.573 Y80.198 E13.29170
G1 X72.460 Y79.783 E13.35504
G1 X73.473 Y79.036 E13.43651
G1 X75.001 Y76.386 E13.63442
G1 X76.338 Y78.697 E13.80719
G1 X76.729 Y79.150 E13.84590
G1 X77.002 Y79.322 E13.86679
G1 X77.571 Y79.740 E13.91244
G1 X78.595 Y80.197 E13.98500
G1 X79.034 Y80.299 E14.01415
G1 X81.529 Y80.297 E14.17561
G1 X82.121 Y80.185 E14.21459
G1 X82.406 Y80.034 E14.23542
G1 X83.053 Y79.750 E14.28119
G1 X83.962 Y79.091 E14.35382
G1 X84.272 Y78.760 E14.38316
G1 X85.513 Y76.608 E14.54386
G1 X85.611 Y76.331 E14.56288
G1 X85.733 Y75.842 E14.59547
G1 X85.805 Y75.185 E14.63825
G1 X85.656 Y73.631 E14.73923
G1 X84.312 Y71.306 E14.91297
G1 X84.065 Y71.016 E14.93766
G1 X83.748 Y70.725 E14.96550
G1 X83.227 Y70.342 E15.00734
G1 E13.00734 F2400.00000
G92 E0
G1 X71.199 Y74.116 F7800.000
G1 E2.00000 F2400.00000
G1 X69.756 Y71.616 E2.18677 F3600.000
G1 X66.115 Y71.616 E2.42236
G1 X64.671 Y74.116 E2.60913
G1 X64.671 Y74.551 E2.63732
G1 X66.115 Y77.051 E2.82409
G1 X69.756 Y77.051 E3.05968
G1 X71.199 Y74.551 E3.24645
G1 X74.841 Y74.551 E3.48204
G1 X76.284 Y77.051 E3.66881
G1 X79.925 Y77.051 E3.90440
G1 X81.369 Y74.551 E4.09117
G1 X85.010 Y74.551 E4.32676
G1 X85.382 Y75.182 E4.37414
G1 X85.246 Y73.762 E4.46640
G1 X85.230 Y73.734 E4.46851
G1 X85.010 Y74.116 E4.49701
G1 X81.369 Y74.116 E4.73259
G1 X79.925 Y71.616 E4.91937
G1 X76.638 Y71.616 E5.13208
G1 X75.000 Y74.456 E5.34417
G1 X74.803 Y74.116 E5.36958
G1 X71.199 Y74.116 E5.60276
G1 X69.756 Y71.180 F7800.000
G1 X70.367 Y70.122 E5.68181 F3600.000
G1 X68.297 Y70.123 E5.81574
G1 X68.124 Y70.152 E5.82709
G1 X67.929 Y70.204 E5.84013
G1 X67.113 Y70.585 E5.89839
G1 X66.306 Y71.180 E5.96325
G1 X69.756 Y71.180 E6.18646
G1 X71.132 Y79.871 F7800.000
G1 X69.756 Y77.487 E6.36455 F3600.000
G1 X66.115 Y77.487 E6.60014
G1 X65.796 Y78.039 E6.64139
G1 X66.144 Y78.642 E6.68643
G1 X66.398 Y78.919 E6.71072
G1 X67.136 Y79.435 E6.76898
G1 X68.169 Y79.885 E6.84188
G1 X71.132 Y79.871 E7.03363
G1 Z1.100 F7800.000
G1 X71.133 Y79.873 F7800.000
G1 X69.756 Y77.487 E7.21576 F3600.000
G1 X66.115 Y77.487 E7.45648
G1 X65.795 Y78.041 E7.49879
G1 X66.143 Y78.643 E7.54474
G1 X66.396 Y78.920 E7.56960
G1 X67.135 Y79.436 E7.62916
G1 X68.168 Y79.887 E7.70369
G1 X71.133 Y79.873 E7.89972
G1 X71.199 Y74.116 F7800.000
G1 X69.756 Y71.616 E8.09056 F3600.000
G1 X66.115 Y71.616 E8.33128
G1 X64.671 Y74.116 E8.52212
G1 X64.671 Y74.551 E8.55092
G1 X66.115 Y77.051 E8.74176
G1 X69.756 Y77.051 E8.98248
G1 X71.199 Y74.551 E9.17333
G1 X74.841 Y74.551 E9.41405
G1 X76.284 Y77.051 E9.60489
G1 X79.925 Y77.051 E9.84561
G1 X81.369 Y74.551 E10.03645
G1 X85.010 Y74.551 E10.27717
G1 X85.383 Y75.197 E10.32645
G1 X85.384 Y75.182 E10.32744
G1 X85.248 Y73.762 E10.42176
G1 X85.231 Y73.732 E10.42403
G1 X85.010 Y74.116 E10.45331
G1 X81.369 Y74.116 E10.69403
G1 X79.925 Y71.616 E10.88487
G1 X76.635 Y71.616 E11.10238
G1 X75.000 Y74.451 E11.31877
G1 X74.806 Y74.116 E11.34440
G1 X71.199 Y74.116 E11.58283
G1 X69.756 Y71.180 F7800.000
G1 X70.368 Y70.120 E11.66376 F3600.000
G1 X68.296 Y70.121 E11.80071
G1 X68.123 Y70.150 E11.81232
G1 X67.928 Y70.202 E11.82567
G1 X67.112 Y70.583 E11.88522
G1 X66.302 Y71.180 E11.95170
G1 X69.756 Y71.180 E12.18001
G1 E10.18001 F2400.00000
G92 E0
G1 X79.925 Y71.180 F7800.000
G1 E2.00000 F2400.00000
G1 X80.541 Y70.114 E2.08141 F3600.000
G1 X79.151 Y70.114 E2.17327
G1 X78.663 Y70.207 E2.20615
G1 X77.534 Y70.768 E2.28946
G1 X77.012 Y71.180 E2.33344
G1 X79.925 Y71.180 E2.52605
G1 X83.227 Y70.342 F7800.000
G1 X81.809 Y69.694 E2.62909 F3600.000
G1 X79.112 Y69.696 E2.80740
G1 X78.523 Y69.808 E2.84705
G1 X77.310 Y70.412 E2.93658
G1 X76.459 Y71.083 E3.00826
G1 X75.000 Y73.614 E3.20143
G1 X73.564 Y71.131 E3.39110
G1 X73.230 Y70.766 E3.42376
G1 X72.428 Y70.205 E3.48848
G1 X71.275 Y69.701 E3.57166
G1 X68.262 Y69.703 E3.77088
G1 X67.784 Y69.808 E3.80319
G1 X66.897 Y70.222 E3.86793
G1 X65.887 Y70.967 E3.95093
G1 X64.378 Y73.583 E4.15060
G1 X64.231 Y74.046 E4.18270
G1 X64.146 Y75.022 E4.24744
G1 X64.287 Y76.269 E4.33039
G1 X65.798 Y78.882 E4.52997
G1 X65.944 Y79.060 E4.54518
G1 X66.127 Y79.242 E4.56225
G1 X66.929 Y79.803 E4.62699
G1 X68.081 Y80.306 E4.71006
G1 X71.092 Y80.304 E4.90910
G1 X71.573 Y80.198 E4.94170
G1 X72.460 Y79.783 E5.00642
G1 X73.473 Y79.036 E5.08966
G1 X75.001 Y76.386 E5.29189
G1 X76.338 Y78.697 E5.46842
G1 X76.729 Y79.150 E5.50797
G1 X77.002 Y79.322 E5.52931
G1 X77.571 Y79.740 E5.57596
G1 X78.595 Y80.197 E5.65010
G1 X79.034 Y80.299 E5.67989
G1 X81.529 Y80.297 E5.84487
G1 X82.121 Y80.185 E5.88470
G1 X82.406 Y80.034 E5.90598
G1 X83.053 Y79.750 E5.95274
G1 X83.962 Y79.091 E6.02696
G1 X84.272 Y78.760 E6.05694
G1 X85.513 Y76.608 E6.22114
G1 X85.611 Y76.331 E6.24058
G1 X85.733 Y75.842 E6.27387
G1 X85.805 Y75.185 E6.31759
G1 X85.656 Y73.631 E6.42077
G1 X84.312 Y71.306 E6.59829
G1 X84.065 Y71.016 E6.62352
G1 X83.748 Y70.725 E6.65197
G1 X83.227 Y70.342 E6.69471
G1 X81.306 Y79.879 F7800.000
G1 X79.925 Y77.487 E6.87733 F3600.000
G1 X76.284 Y77.487 E7.11805
G1 X76.203 Y77.628 E7.12879
G1 X76.680 Y78.454 E7.19188
G1 X77.004 Y78.829 E7.22467
G1 X77.238 Y78.975 E7.24286
G1 X77.785 Y79.378 E7.28778
G1 X78.384 Y79.656 E7.33146
G1 X78.723 Y79.797 E7.35574
G1 X79.082 Y79.881 E7.38006
G1 X81.306 Y79.879 E7.52713
G1 Z1.480 F7800.000
G1 X79.082 Y79.881 E7.67420 F3600.000
G1 X78.723 Y79.797 E7.69852
G1 X78.384 Y79.656 E7.72280
G1 X77.785 Y79.378 E7.76648
G1 X77.238 Y78.975 E7.81140
G1 X77.004 Y78.829 E7.82959
G1 X76.680 Y78.454 E7.86238
G1 X76.203 Y77.628 E7.92547
G1 X76.284 Y77.487 E7.93621
G1 X79.925 Y77.487 E8.17693
G1 X81.306 Y79.879 E8.35954
G1 X79.925 Y71.180 F7800.000
G1 X80.541 Y70.114 E8.44095 F3600.000
G1 X79.151 Y70.114 E8.53282
G1 X78.663 Y70.207 E8.56570
G1 X77.534 Y70.768 E8.64901
G1 X77.012 Y71.180 E8.69299
G1 X79.925 Y71.180 E8.88559
G1 X83.227 Y70.342 F7800.000
G1 X81.809 Y69.694 E8.98863 F3600.000
G1 X79.112 Y69.696 E9.16695
G1 X78.523 Y69.808 E9.20659
G1 X77.310 Y70.412 E9.29612
G1 X76.459 Y71.083 E9.36781
G1 X75.000 Y73.614 E9.56097
G1 X73.564 Y71.131 E9.75064
G1 X73.230 Y70.766 E9.78331
G1 X72.428 Y70.205 E9.84803
G1 X71.275 Y69.701 E9.93120
G1 X68.262 Y69.703 E10.13043
G1 X67.784 Y69.808 E10.16274
G1 X66.897 Y70.222 E10.22747
G1 X65.887 Y70.967 E10.31048
G1 X64.378 Y73.583 E10.51014
G1 X64.231 Y74.046 E10.54224
G1 X64.146 Y75.022 E10.60699
G1 X64.287 Y76.269 E10.68994
G1 X65.798 Y78.882 E10.88951
G1 X65.944 Y79.060 E10.90473
G1 X66.127 Y79.242 E10.92180
G1 X66.929 Y79.803 E10.98653
G1 X68.081 Y80.306 E11.06960
G1 X71.092 Y80.304 E11.26865
G1 X71.573 Y80.198 E11.30125
G1 X72.460 Y79.783 E11.36596
G1 X73.473 Y79.036 E11.44921
G1 X75.001 Y76.386 E11.65143
G1 X76.338 Y78.697 E11.82796
G1 X76.729 Y79.150 E11.86752
G1 X77.002 Y79.322 E11.88886
G1 X77.571 Y79.740 E11.93551
G1 X78.595 Y80.197 E12.00965
G1 X79.034 Y80.299 E12.03944
G1 X81.529 Y80.297 E12.20441
G1 X82.121 Y80.185 E12.24424
G1 X82.406 Y80.034 E12.26552
G1 X83.053 Y79.750 E12.31229
G1 X83.962 Y79.091 E12.38650
G1 X84.272 Y78.760 E12.41649
G1 X85.513 Y76.608 E12.58068
G1 X85.611 Y76.331 E12.60012
G1 X85.733 Y75.842 E12.63341
G1 X85.805 Y75.185 E12.67713
G1 X85.656 Y73.631 E12.78031
G1 X84.312 Y71.306 E12.95784
G1 X84.065 Y71.016 E12.98307
G1 X83.748 Y70.725 E13.01151
G1 X83.227 Y70.342 E13.05426
G1 E11.05426 F2400.00000
G92 E0
G1 X71.199 Y74.116 F7800.000
G1 E2.00000 F2400.00000
G1 X69.756 Y71.616 E2.19084 F3600.000
G1 X66.115 Y71.616 E2.43156
G1 X64.671 Y74.116 E2.62240
G1 X64.671 Y74.551 E2.65120
G1 X66.115 Y77.051 E2.84204
G1 X69.756 Y77.051 E3.08276
G1 X71.199 Y74.551 E3.27361
G1 X74.841 Y74.551 E3.51433
G1 X76.284 Y77.051 E3.70517
G1 X79.925 Y77.051 E3.94589
G1 X81.369 Y74.551 E4.13673
G1 X85.010 Y74.551 E4.37745
G1 X85.383 Y75.197 E4.42673
G1 X85.384 Y75.182 E4.42772
G1 X85.248 Y73.762 E4.52204
G1 X85.231 Y73.732 E4.52431
G1 X85.010 Y74.116 E4.55359
G1 X81.369 Y74.116 E4.79431
G1 X79.925 Y71.616 E4.98515
G1 X76.635 Y71.616 E5.20266
G1 X75.000 Y74.451 E5.41905
G1 X74.806 Y74.116 E5.44468
G1 X71.199 Y74.116 E5.68311
G1 X69.756 Y71.180 F7800.000
G1 X70.368 Y70.120 E5.76404 F3600.000
G1 X68.296 Y70.121 E5.90099
G1 X68.123 Y70.150 E5.91260
G1 X67.928 Y70.202 E5.92595
G1 X67.112 Y70.583 E5.98550
G1 X66.302 Y71.180 E6.05198
G1 X69.756 Y71.180 E6.28029
G1 X71.133 Y79.873 F7800.000
G1 X69.756 Y77.487 E6.46242 F3600.000
G1 X66.115 Y77.487 E6.70314
G1 X65.795 Y78.041 E6.74544
G1 X66.143 Y78.643 E6.79140
G1 X66.396 Y78.920 E6.81625
G1 X67.135 Y79.436 E6.87581
G1 X68.168 Y79.887 E6.95034
G1 X71.133 Y79.873 E7.14638
G1 Z1.850 F7800.000
G1 E5.14638 F2400.00000
G92 E0
G1 X66.142 Y70.682 F7800.000
G1 E2.00000 F2400.00000
G1 X64.103 Y74.750 E2.29441 F3600.000
G1 X65.701 Y78.966 E2.58607
G1 X70.411 Y69.569 E3.26615
G1 X73.490 Y70.828 E3.48139
G1 X68.673 Y80.438 E4.17689
G1 X72.783 Y79.641 E4.44777
G1 X77.512 Y70.205 E5.13063
G1 X81.546 Y69.562 E5.39487
G1 X76.672 Y79.286 E6.09866
G1 X79.808 Y80.431 E6.31469
G1 X84.417 Y71.236 E6.98016
G1 X85.746 Y75.988 E7.29940
G1 X84.706 Y78.063 E7.44954
G1 Z2.230 F7800.000
G1 X85.141 Y77.308 F7800.000
G1 X85.689 Y76.214 E7.53044 F3600.000
G1 X84.457 Y71.307 E7.86492
G1 X79.884 Y80.431 E8.53961
G1 X76.744 Y79.331 E8.75958
G1 X81.640 Y69.562 E9.48195
G1 X77.662 Y70.133 E9.74760
G1 X72.964 Y79.507 E10.44083
G1 X68.806 Y80.438 E10.72249
G1 X73.572 Y70.929 E11.42565
G1 X70.562 Y69.569 E11.64400
G1 X65.791 Y79.087 E12.34783
G1 X64.072 Y75.152 E12.63170
G1 X66.412 Y70.484 E12.97694
G1 Z2.600 F7800.000
G1 X66.142 Y70.682 F7800.000
G1 X64.103 Y74.750 E13.27135 F3600.000
G1 X65.701 Y78.966 E13.56301
G1 X70.411 Y69.569 E14.24309
G1 X73.490 Y70.828 E14.45833
G1 X68.673 Y80.438 E15.15383
G1 X72.783 Y79.641 E15.42471
G1 X77.512 Y70.205 E16.10757
G1 X81.546 Y69.562 E16.37181
G1 X76.672 Y79.286 E17.07560
G1 X79.808 Y80.431 E17.29163
G1 X84.417 Y71.236 E17.95710
G1 X85.746 Y75.988 E18.27634
G1 X84.706 Y78.063 E18.42649
G1 Z3.300 F7800.000
G1 E16.42649 F2400.00000
G92 E0
G1 X70.436 Y77.146 F7800.000
G1 E2.00000 F2400.00000
G1 X68.739 Y77.147 E2.13850 F900.000
G1 X68.481 Y77.034 E2.16151
G1 X68.307 Y76.913 E2.17876
G1 X67.351 Y75.260 E2.33469
G1 X67.320 Y74.982 E2.35752
G1 X67.338 Y74.772 E2.37471
G1 X68.293 Y73.117 E2.53067
G1 X68.518 Y72.951 E2.55354
G1 X68.711 Y72.861 E2.57088
G1 X70.616 Y72.860 E2.72646
G1 X70.875 Y72.973 E2.74954
G1 X71.052 Y73.096 E2.76709 F900.000
G1 X72.003 Y74.742 E2.92227
G1 X72.035 Y75.025 E2.94553
G1 X72.016 Y75.240 E2.96315
G1 X71.067 Y76.886 E3.11829
G1 X70.838 Y77.055 E3.14152
G1 X70.644 Y77.146 E3.15899
G1 X70.511 Y77.146 E3.16989
G1 X70.511 Y77.564 F7800.000
G1 X68.652 Y77.565 E3.32164 F900.000
G1 X68.275 Y77.401 E3.35517
G1 X67.992 Y77.203 E3.38338
G1 X66.946 Y75.393 E3.55401
G1 X66.900 Y74.987 E3.58737
G1 X66.930 Y74.643 E3.61551
G1 X67.974 Y72.832 E3.78616
G1 X68.304 Y72.590 E3.81956
G1 X68.618 Y72.443 E3.84785
G1 X70.704 Y72.442 E4.01812
G1 X71.081 Y72.607 E4.05174
G1 X71.367 Y72.807 E4.08024 F900.000
G1 X72.408 Y74.608 E4.25010
G1 X72.455 Y75.020 E4.28389
G1 X72.424 Y75.368 E4.31246
G1 X71.385 Y77.171 E4.48230
G1 X71.053 Y77.416 E4.51605
G1 X70.737 Y77.564 E4.54447
G1 X70.586 Y77.564 E4.55682
G1 X70.586 Y77.981 F7800.000
G1 X68.565 Y77.983 E4.72181 F900.000
G1 X68.070 Y77.767 E4.76587
G1 X67.677 Y77.492 E4.80504
G1 X66.541 Y75.526 E4.99036
G1 X66.481 Y74.992 E5.03424
G1 X66.522 Y74.515 E5.07334
G1 X67.656 Y72.548 E5.25869
G1 X68.089 Y72.229 E5.30262
G1 X68.525 Y72.025 E5.34186
G1 X70.791 Y72.024 E5.52683
G1 X71.286 Y72.241 E5.57097
G1 X71.682 Y72.518 E5.61043 F900.000
G1 X72.814 Y74.475 E5.79497
G1 X72.874 Y75.014 E5.83929
G1 X72.832 Y75.497 E5.87882
G1 X71.703 Y77.455 E6.06333
G1 X71.267 Y77.777 E6.10761
G1 X70.830 Y77.981 E6.14699
G1 X70.661 Y77.981 E6.16078
G1 X70.661 Y78.399 F7800.000
G1 X68.478 Y78.400 E6.33902 F900.000
G1 X67.865 Y78.133 E6.39360
G1 X67.362 Y77.781 E6.44373
G1 X66.135 Y75.660 E6.64374
G1 X66.061 Y74.998 E6.69815
G1 X66.114 Y74.387 E6.74822
G1 X67.338 Y72.264 E6.94826
G1 X67.875 Y71.868 E7.00271
G1 X68.432 Y71.608 E7.05291
G1 X70.878 Y71.606 E7.25256
G1 X71.492 Y71.874 E7.30724
G1 X71.998 Y72.229 E7.35765 F900.000
G1 X73.219 Y74.341 E7.55688
G1 X73.294 Y75.009 E7.61172
G1 X73.241 Y75.625 E7.66220
G1 X72.022 Y77.739 E7.86141
G1 X71.482 Y78.138 E7.91620
G1 X70.923 Y78.399 E7.96655
G1 X70.736 Y78.399 E7.98178
G1 X70.737 Y78.804 F7800.000
G1 X68.393 Y78.806 E8.17305 F900.000
G1 X67.666 Y78.488 E8.23784
G1 X67.098 Y78.091 E8.29443
G1 X67.031 Y78.018 E8.30251
G1 X65.742 Y75.789 E8.51267
G1 X65.654 Y75.003 E8.57730
G1 X65.714 Y74.312 E8.63390
G1 X65.743 Y74.219 E8.64182
G1 X67.029 Y71.988 E8.85209
G1 X67.667 Y71.518 E8.91676
G1 X68.295 Y71.225 E8.97335
G1 X68.393 Y71.203 E8.98155
G1 X70.962 Y71.201 E9.19129
G1 X71.691 Y71.519 E9.25618
G1 X72.259 Y71.917 E9.31275 F900.000
G1 X72.330 Y71.995 E9.32139
G1 X73.612 Y74.212 E9.53048
G1 X73.701 Y75.004 E9.59553
G1 X73.641 Y75.694 E9.65210
G1 X73.609 Y75.797 E9.66090
G1 X72.330 Y78.015 E9.86988
G1 X71.690 Y78.488 E9.93488
G1 X71.062 Y78.781 E9.99146
G1 X70.960 Y78.804 E9.99998
G1 X70.812 Y78.804 E10.01210
G1 X70.534 Y76.811 F7800.000
