;start
;Print id is
;94
; User Name:mmiscool
;          :Mike Molinari
;User Phone:(860) 123-0000
;
;
;
;
; generated by Slic3r 1.2.9 on 2017-07-11 at 23:32:52

; external perimeters extrusion width = 0.50mm
; perimeters extrusion width = 0.85mm
; infill extrusion width = 1.02mm
; solid infill extrusion width = 0.85mm
; top infill extrusion width = 0.85mm
; support material extrusion width = 0.50mm

M107
M104 S205 ; set temperature

M109 S205 ; wait for temperature to be reached
G21 ; set units to millimeters
G90 ; use absolute coordinates
M82 ; use absolute distances for extrusion
G92 E0
G1 Z0.500 F12000.000
G1 E-2.00000 F2400.00000
G92 E0
G1 X10.783 Y0.000 F12000.000
G1 E2.00000 F2400.00000
G1 X10.783 Y3.398 E2.21454 F1469.725
G1 X10.460 Y5.481 E2.34765
G1 X10.397 Y5.681 E2.36089
G1 X9.992 Y6.680 E2.42898
G1 X9.844 Y6.974 E2.44975
G1 X9.087 Y8.163 E2.53876
G1 X8.986 Y8.289 E2.54895
G1 X7.244 Y9.850 E2.69669
G1 X5.079 Y10.738 E2.84443
G1 X3.583 Y10.902 E2.93944
G1 X-2.408 Y10.902 E3.31776
G1 X-3.101 Y10.867 E3.36159
G1 X-4.844 Y10.675 E3.47231
G1 X-7.064 Y9.937 E3.62005
G1 X-8.910 Y8.498 E3.76780
G1 X-10.168 Y6.526 E3.91554
G1 X-10.676 Y4.476 E4.04887
G1 X-10.755 Y3.598 E4.10454
G1 X-10.783 Y2.982 E4.14350
G1 X-10.783 Y-1.003 E4.39511
G1 X-10.717 Y-3.766 E4.56962
G1 X-9.992 Y-6.680 E4.75926
G1 X-9.844 Y-6.974 E4.78003
G1 X-8.455 Y-8.857 E4.92777
G1 X-6.517 Y-10.166 E5.07551
G1 X-4.351 Y-10.743 E5.21703
G1 X-3.051 Y-10.870 E5.29953
G1 X-2.383 Y-10.902 E5.34173
G1 X3.608 Y-10.902 E5.72005
G1 X5.914 Y-10.505 E5.86779
G1 X7.696 Y-9.559 E5.99520 F1469.725
G1 X7.899 Y-9.409 E6.01112
G1 X9.520 Y-7.722 E6.15886
G1 X10.483 Y-5.590 E6.30660
G1 X10.702 Y-4.032 E6.40595
G1 X10.783 Y-0.075 E6.65587
G1 E4.65587 F2400.00000
G92 E0
G1 X3.583 Y4.009 F12000.000
G1 E2.00000 F2400.00000
G1 X3.890 Y3.398 E2.04322 F1469.725
G1 X1.586 Y4.009 E2.19373
G1 X3.890 Y-0.587 E2.51840
G1 X3.608 Y-4.009 E2.73523
G1 X-0.411 Y4.009 E3.30163
G1 X-2.408 Y4.009 E3.42774
G1 X1.611 Y-4.009 E3.99413
G1 X-0.386 Y-4.009 E4.12024
G1 X-3.890 Y2.982 E4.61405
G1 X-3.890 Y-1.003 E4.86566
G1 X-2.383 Y-4.009 E5.07802
G1 Z0.880 F12000.000
G1 E3.07802 F2400.00000
G92 E0
G1 X-2.914 Y-4.500 F12000.000
G1 X-2.914 Y-4.500 F12000.000
G1 X-2.914 Y-3.500 F12000.000
G1 X2.296 Y-2.271 F12000.000
G1 E2.00000 F2400.00000
G1 X2.909 Y-3.332 E2.02755 F735.385
G1 X-1.994 Y-3.332 E2.13784
G1 X-1.382 Y-2.271 E2.16539
G1 X2.296 Y-2.271 E2.24814
G1 X3.332 Y-0.021 F12000.000
G1 X2.296 Y-1.814 E2.29471 F735.385
G1 X-1.382 Y-1.814 E2.37746
G1 X-2.826 Y0.686 E2.44240
G1 X-3.332 Y0.686 E2.45378
G1 X-3.332 Y1.143 E2.46407
G1 X-2.826 Y1.143 E2.47545
G1 X-1.562 Y3.332 E2.53230
G1 X2.476 Y3.332 E2.62314
G1 X3.332 Y1.850 E2.66162
G1 X3.332 Y-0.021 E2.70371
G1 X3.750 Y3.750 F12000.000
G1 X3.750 Y-3.750 E2.87242 F735.385
G1 X-3.750 Y-3.750 E3.04114
G1 X-3.750 Y3.750 E3.20986
G1 X3.750 Y3.750 E3.37857
G1 Z1.250 F12000.000
G1 X-3.750 Y3.750 E3.54369 F735.201
G1 X-3.750 Y-3.750 E3.70881
G1 X3.750 Y-3.750 E3.87393
G1 X3.750 Y3.750 E4.03905
G1 X3.329 Y-0.025 F12000.000
G1 X2.296 Y-1.814 E4.08454 F735.201
G1 X-1.382 Y-1.814 E4.16552
G1 X-2.826 Y0.686 E4.22908
G1 X-3.329 Y0.686 E4.24017
G1 X-3.329 Y1.143 E4.25023
G1 X-2.826 Y1.143 E4.26133
G1 X-1.563 Y3.329 E4.31691
G1 X2.477 Y3.329 E4.40587
G1 X3.329 Y1.854 E4.44338
G1 X3.329 Y-0.025 E4.48473
G1 X2.296 Y-2.271 F12000.000
G1 X2.907 Y-3.329 E4.51164 F735.201
G1 X-1.993 Y-3.329 E4.61953
G1 X-1.382 Y-2.271 E4.64643
G1 X2.296 Y-2.271 E4.72741
M106 S255
G1 Z1.630 F12000.000
G1 E2.72741 F2400.00000
G92 E0
G1 X-2.914 Y-3.500 F12000.000
G1 X-3.743 Y-4.328 F12000.000
G1 X-4.157 Y-4.157 F12000.000
G1 X-4.328 Y-3.743 F12000.000
G1 X-3.826 Y-3.598 F12000.000
G1 E2.00000 F2400.00000
G1 X-3.684 Y-3.882 E2.00715 F1883.749
G1 X-3.215 Y-3.882 E2.01771
G1 X-3.826 Y-2.662 E2.04842
G1 X-3.826 Y-1.726 E2.06947
G1 X-2.746 Y-3.882 E2.12373
G1 X-2.276 Y-3.882 E2.13429
G1 X-3.826 Y-0.790 E2.21210
G1 X-3.826 Y0.146 E2.23316
G1 X-1.807 Y-3.882 E2.33453
G1 X-1.338 Y-3.882 E2.34508
G1 X-3.826 Y1.082 E2.47000
G1 X-3.826 Y2.018 E2.49106
G1 X-0.869 Y-3.882 E2.63953
G1 X-0.400 Y-3.882 E2.65008
G1 X-3.826 Y2.954 E2.82211
G1 X-3.811 Y3.860 E2.84249
G1 X0.069 Y-3.882 E3.03730
G1 X0.538 Y-3.882 E3.04786
G1 X-3.353 Y3.882 E3.24324
G1 X-2.884 Y3.882 E3.25379
G1 X1.008 Y-3.882 E3.44917
G1 X1.477 Y-3.882 E3.45973
G1 X-2.415 Y3.882 E3.65511
G1 X-1.946 Y3.882 E3.66566
G1 X1.946 Y-3.882 E3.86104
G1 X2.415 Y-3.882 E3.87160
G1 X-1.477 Y3.882 E4.06698
G1 X-1.008 Y3.882 E4.07753
G1 X2.884 Y-3.882 E4.27291
G1 X3.353 Y-3.882 E4.28346
G1 X-0.538 Y3.882 E4.47885
G1 X-0.069 Y3.882 E4.48940
G1 X3.811 Y-3.860 E4.68422
G1 X3.826 Y-2.954 E4.70459
G1 X0.400 Y3.882 E4.87662
G1 X0.869 Y3.882 E4.88717
G1 X3.826 Y-2.018 E5.03565
G1 X3.826 Y-1.082 E5.05670
G1 X1.338 Y3.882 E5.18163
G1 X1.807 Y3.882 E5.19218
G1 X3.826 Y-0.146 E5.29355
G1 X3.826 Y0.790 E5.31460
G1 X2.276 Y3.882 E5.39242
G1 X2.746 Y3.882 E5.40297
G1 X3.826 Y1.726 E5.45723
G1 X3.826 Y2.662 E5.47829
G1 X3.215 Y3.882 E5.50900
G1 X3.826 Y3.598 E5.52417
G1 X3.684 Y3.882 E5.53133
G1 Z2.000 F12000.000
G1 X3.684 Y3.883 F12000.000
G1 X3.827 Y3.597 E5.53836 F1727.961
G1 X3.194 Y3.883 E5.55364
G1 X3.827 Y2.621 E5.58472
G1 X3.827 Y1.644 F12000.000
G1 X2.704 Y3.883 E5.63986 F1727.961
G1 X2.215 Y3.883 E5.65064
G1 X3.827 Y0.667 E5.72983
G1 X3.827 Y-0.309 F12000.000
G1 X1.725 Y3.883 E5.83307 F1727.961
G1 X1.236 Y3.883 E5.84385
G1 X3.827 Y-1.286 E5.97115
G1 X3.827 Y-2.263 F12000.000
G1 X0.746 Y3.883 E6.12250 F1727.961
G1 X0.257 Y3.883 E6.13327
G1 X3.827 Y-3.240 E6.30868
G1 X3.659 Y-3.883 E6.32331
G1 X-0.233 Y3.883 E6.51455
G1 X-0.722 Y3.883 E6.52533
G1 X3.170 Y-3.883 E6.71657
G1 X2.680 Y-3.883 E6.72735
G1 X-1.212 Y3.883 E6.91859
G1 X-1.701 Y3.883 E6.92937
G1 X2.191 Y-3.883 E7.12061
G1 X1.701 Y-3.883 E7.13139
G1 X-2.191 Y3.883 E7.32264
G1 X-2.680 Y3.883 E7.33341
G1 X1.212 Y-3.883 E7.52466
G1 X0.722 Y-3.883 E7.53543
G1 X-3.170 Y3.883 E7.72668
G1 X-3.660 Y3.883 E7.73745
G1 X0.233 Y-3.883 E7.92870
G1 X-0.257 Y-3.883 E7.93948
G1 X-3.827 Y3.240 E8.11488
G1 X-3.827 Y2.263 F12000.000
G1 X-0.746 Y-3.883 E8.26623 F1727.961
G1 X-1.236 Y-3.883 E8.27701
G1 X-3.827 Y1.286 E8.40430
G1 X-3.827 Y0.309 F12000.000
G1 X-1.725 Y-3.883 E8.50754 F1727.961
G1 X-2.215 Y-3.883 E8.51832
G1 X-3.827 Y-0.667 E8.59751
G1 X-3.827 Y-1.644 F12000.000
G1 X-2.704 Y-3.883 E8.65265 F1727.961
G1 X-3.194 Y-3.883 E8.66343
G1 X-3.827 Y-2.621 E8.69451
G1 X-3.827 Y-3.597 F12000.000
G1 X-3.684 Y-3.883 E8.70154 F1727.961
M106 S249.9
G1 Z2.375 F12000.000
G1 X-3.684 Y-3.883 F12000.000
G1 X-3.826 Y-3.598 E8.70863 F3600.000
G1 X-3.826 Y-2.621 F12000.000
G1 X-3.194 Y-3.883 E8.74004 F3600.000
G1 X-2.705 Y-3.883 E8.75094
G1 X-3.826 Y-1.644 E8.80666
G1 X-3.826 Y-0.668 F12000.000
G1 X-2.215 Y-3.883 E8.88670 F3600.000
G1 X-1.726 Y-3.883 E8.89760
G1 X-3.826 Y0.309 E9.00196
G1 X-3.826 Y1.286 F12000.000
G1 X-1.236 Y-3.883 E9.13063 F3600.000
G1 X-0.746 Y-3.883 E9.14153
G1 X-3.826 Y2.263 E9.29451
G1 X-3.826 Y3.239 F12000.000
G1 X-0.257 Y-3.883 E9.47182 F3600.000
G1 X0.233 Y-3.883 E9.48271
G1 X-3.659 Y3.883 E9.67603
G1 X-3.170 Y3.883 E9.68693
G1 X0.722 Y-3.883 E9.88025
G1 X1.212 Y-3.883 E9.89114
G1 X-2.680 Y3.883 E10.08446
G1 X-2.191 Y3.883 E10.09536
G1 X1.701 Y-3.883 E10.28868
G1 X2.191 Y-3.883 E10.29957
G1 X-1.701 Y3.883 E10.49289
G1 X-1.212 Y3.883 E10.50379
G1 X2.680 Y-3.883 E10.69711
G1 X3.170 Y-3.883 E10.70800
G1 X-0.722 Y3.883 E10.90132
G1 X-0.233 Y3.883 E10.91222
G1 X3.659 Y-3.883 E11.10553
G1 X3.826 Y-3.239 E11.12033
G1 X0.257 Y3.883 E11.29763
G1 X0.746 Y3.883 E11.30853
G1 X3.826 Y-2.263 E11.46152
G1 X3.826 Y-1.286 F12000.000
G1 X1.236 Y3.883 E11.59019 F3600.000
G1 X1.726 Y3.883 E11.60108
G1 X3.826 Y-0.309 E11.70544
G1 X3.826 Y0.668 F12000.000
G1 X2.215 Y3.883 E11.78548 F3600.000
G1 X2.705 Y3.883 E11.79638
G1 X3.826 Y1.644 E11.85210
G1 X3.826 Y2.621 F12000.000
G1 X3.194 Y3.883 E11.88351 F3600.000
G1 X3.826 Y3.598 E11.89895
G1 X3.684 Y3.883 E11.90604
G1 Z3.075 F12000.000
G1 E9.90604 F2400.00000
G92 E0
G1 X3.743 Y4.328 F12000.000
G1 X3.743 Y4.328 F12000.000
G1 X2.914 Y3.500 F12000.000
G1 X0.592 Y0.592 F12000.000
G1 E2.00000 F2400.00000
M106 S255
G1 X-0.592 Y0.592 E2.03287 F900.000
G1 X-0.592 Y-0.592 E2.06575
G1 X0.592 Y-0.592 E2.09862
G1 X0.592 Y0.517 E2.12941
M106 S249.9
G1 X1.009 Y1.009 F12000.000
M106 S255
G1 X-1.009 Y1.009 E2.18548 F900.000
G1 X-1.009 Y-1.009 E2.24156
G1 X1.009 Y-1.009 E2.29764
G1 X1.009 Y0.934 E2.35164
M106 S249.9
G1 X1.427 Y1.427 F12000.000
M106 S255
G1 X-1.427 Y1.427 E2.43092 F900.000
G1 X-1.427 Y-1.427 E2.51020
G1 X1.427 Y-1.427 E2.58949
G1 X1.427 Y1.352 E2.66669
M106 S249.9
G1 X1.845 Y1.845 F12000.000
M106 S255
G1 X-1.845 Y1.845 E2.76917 F900.000
G1 X-1.845 Y-1.845 E2.87166
G1 X1.845 Y-1.845 E2.97415
G1 X1.845 Y1.770 E3.07456
M106 S249.9
G1 X2.250 Y2.250 F12000.000
M106 S255
G1 X-2.250 Y2.250 E3.19956 F900.000
G1 X-2.250 Y-2.250 E3.32456
G1 X2.250 Y-2.250 E3.44956
G1 X2.250 Y2.175 E3.57248
M106 S249.9
G1 X0.307 Y-0.034 F12000.000
M106 S255
G1 X0.034 Y-0.307 E3.58321 F3600.000
M106 S249.9
M106 S255
G1 Z3.275 F12000.000
G1 X0.811 Y0.811 F12000.000
G1 X-0.811 Y0.811 E3.62025 F600.000
G1 X-0.811 Y-0.811 E3.65728
G1 X0.811 Y-0.811 E3.69431
G1 X0.811 Y0.736 E3.72963
G1 X1.618 Y1.618 F12000.000
G1 X-1.618 Y1.618 E3.80352 F600.000
G1 X-1.618 Y-1.618 E3.87741
G1 X1.618 Y-1.618 E3.95131
G1 X1.618 Y1.543 E4.02349
G1 X2.250 Y2.250 F12000.000
G1 X-2.250 Y2.250 E4.08168 F600.000
G1 X-2.250 Y-2.250 E4.13988
G1 X2.250 Y-2.250 E4.19808
G1 X2.250 Y2.175 E4.25531
G1 X1.817 Y2.000 F12000.000
G1 X0.316 Y-0.066 F12000.000
G1 X-0.066 Y0.316 E4.26766 F601.771
G1 Z3.475 F12000.000
G1 X0.811 Y0.811 F12000.000
G1 X-0.811 Y0.811 E4.30469 F600.000
G1 X-0.811 Y-0.811 E4.34172
G1 X0.811 Y-0.811 E4.37875
G1 X0.811 Y0.736 E4.41407
G1 X1.618 Y1.618 F12000.000
G1 X-1.618 Y1.618 E4.48796 F600.000
G1 X-1.618 Y-1.618 E4.56186
G1 X1.618 Y-1.618 E4.63575
G1 X1.618 Y1.543 E4.70793
G1 X2.250 Y2.250 F12000.000
G1 X-2.250 Y2.250 E4.76613 F600.000
G1 X-2.250 Y-2.250 E4.82432
G1 X2.250 Y-2.250 E4.88252
G1 X2.250 Y2.175 E4.93975
G1 X1.817 Y2.000 F12000.000
G1 X0.316 Y0.066 F12000.000
G1 X-0.066 Y-0.316 E4.95210 F601.771
G1 Z3.675 F12000.000
G1 X0.811 Y0.811 F12000.000
G1 X-0.811 Y0.811 E4.98913 F600.000
G1 X-0.811 Y-0.811 E5.02616
G1 X0.811 Y-0.811 E5.06319
G1 X0.811 Y0.736 E5.09851
G1 X1.618 Y1.618 F12000.000
G1 X-1.618 Y1.618 E5.17241 F600.000
G1 X-1.618 Y-1.618 E5.24630
G1 X1.618 Y-1.618 E5.32019
G1 X1.618 Y1.543 E5.39237
G1 X2.250 Y2.250 F12000.000
G1 X-2.250 Y2.250 E5.45057 F600.000
G1 X-2.250 Y-2.250 E5.50877
G1 X2.250 Y-2.250 E5.56696
G1 X2.250 Y2.175 E5.62419
G1 X1.817 Y2.000 F12000.000
G1 X0.316 Y-0.066 F12000.000
G1 X-0.066 Y0.316 E5.63654 F601.771
G1 Z3.875 F12000.000
G1 X0.811 Y0.811 F12000.000
G1 X-0.811 Y0.811 E5.67357 F600.000
G1 X-0.811 Y-0.811 E5.71061
G1 X0.811 Y-0.811 E5.74764
G1 X0.811 Y0.736 E5.78296
G1 X1.618 Y1.618 F12000.000
G1 X-1.618 Y1.618 E5.85685 F600.000
G1 X-1.618 Y-1.618 E5.93074
G1 X1.618 Y-1.618 E6.00463
G1 X1.618 Y1.543 E6.07681
G1 X2.250 Y2.250 F12000.000
G1 X-2.250 Y2.250 E6.13501 F600.000
G1 X-2.250 Y-2.250 E6.19321
G1 X2.250 Y-2.250 E6.25141
G1 X2.250 Y2.175 E6.30863
G1 X1.817 Y2.000 F12000.000
G1 X0.316 Y0.066 F12000.000
G1 X-0.066 Y-0.316 E6.32098 F601.771
G1 Z4.075 F12000.000
G1 X0.811 Y0.811 F12000.000
G1 X-0.811 Y0.811 E6.35802 F600.000
G1 X-0.811 Y-0.811 E6.39505
G1 X0.811 Y-0.811 E6.43208
G1 X0.811 Y0.736 E6.46740
G1 X1.618 Y1.618 F12000.000
G1 X-1.618 Y1.618 E6.54129 F600.000
G1 X-1.618 Y-1.618 E6.61518
G1 X1.618 Y-1.618 E6.68908
G1 X1.618 Y1.543 E6.76126
G1 X2.250 Y2.250 F12000.000
G1 X-2.250 Y2.250 E6.81945 F600.000
G1 X-2.250 Y-2.250 E6.87765
G1 X2.250 Y-2.250 E6.93585
G1 X2.250 Y2.175 E6.99308
G1 X1.817 Y2.000 F12000.000
G1 X0.316 Y-0.066 F12000.000
G1 X-0.066 Y0.316 E7.00543 F601.771
G1 Z4.275 F12000.000
G1 X0.811 Y0.811 F12000.000
G1 X-0.811 Y0.811 E7.04246 F600.000
G1 X-0.811 Y-0.811 E7.07949
G1 X0.811 Y-0.811 E7.11652
G1 X0.811 Y0.736 E7.15184
G1 X1.618 Y1.618 F12000.000
G1 X-1.618 Y1.618 E7.22573 F600.000
G1 X-1.618 Y-1.618 E7.29963
G1 X1.618 Y-1.618 E7.37352
G1 X1.618 Y1.543 E7.44570
G1 X2.250 Y2.250 F12000.000
G1 X-2.250 Y2.250 E7.50390 F600.000
G1 X-2.250 Y-2.250 E7.56209
G1 X2.250 Y-2.250 E7.62029
G1 X2.250 Y2.175 E7.67752
G1 X1.817 Y2.000 F12000.000
G1 X0.316 Y0.066 F12000.000
G1 X-0.066 Y-0.316 E7.68987 F601.771
G1 Z4.475 F12000.000
G1 X0.811 Y0.811 F12000.000
G1 X-0.811 Y0.811 E7.72690 F600.000
G1 X-0.811 Y-0.811 E7.76393
G1 X0.811 Y-0.811 E7.80097
G1 X0.811 Y0.736 E7.83628
G1 X1.618 Y1.618 F12000.000
G1 X-1.618 Y1.618 E7.91018 F600.000
G1 X-1.618 Y-1.618 E7.98407
G1 X1.618 Y-1.618 E8.05796
G1 X1.618 Y1.543 E8.13014
G1 X2.250 Y2.250 F12000.000
G1 X-2.250 Y2.250 E8.18834 F600.000
G1 X-2.250 Y-2.250 E8.24654
G1 X2.250 Y-2.250 E8.30473
G1 X2.250 Y2.175 E8.36196
G1 X1.817 Y2.000 F12000.000
G1 X0.316 Y-0.066 F12000.000
G1 X-0.066 Y0.316 E8.37431 F601.771
G1 Z4.675 F12000.000
G1 X0.811 Y0.811 F12000.000
G1 X-0.811 Y0.811 E8.41134 F600.000
G1 X-0.811 Y-0.811 E8.44838
G1 X0.811 Y-0.811 E8.48541
G1 X0.811 Y0.736 E8.52073
G1 X1.618 Y1.618 F12000.000
G1 X-1.618 Y1.618 E8.59462 F600.000
G1 X-1.618 Y-1.618 E8.66851
G1 X1.618 Y-1.618 E8.74241
G1 X1.618 Y1.543 E8.81458
G1 X2.250 Y2.250 F12000.000
G1 X-2.250 Y2.250 E8.87278 F600.000
G1 X-2.250 Y-2.250 E8.93098
G1 X2.250 Y-2.250 E8.98918
G1 X2.250 Y2.175 E9.04640
G1 X1.817 Y2.000 F12000.000
G1 X0.316 Y0.066 F12000.000
G1 X-0.066 Y-0.316 E9.05875 F601.771
G1 Z4.875 F12000.000
G1 X0.811 Y0.811 F12000.000
G1 X-0.811 Y0.811 E9.09579 F600.000
G1 X-0.811 Y-0.811 E9.13282
G1 X0.811 Y-0.811 E9.16985
G1 X0.811 Y0.736 E9.20517
G1 X1.618 Y1.618 F12000.000
G1 X-1.618 Y1.618 E9.27906 F600.000
G1 X-1.618 Y-1.618 E9.35295
G1 X1.618 Y-1.618 E9.42685
G1 X1.618 Y1.543 E9.49903
G1 X2.250 Y2.250 F12000.000
G1 X-2.250 Y2.250 E9.55722 F600.000
G1 X-2.250 Y-2.250 E9.61542
G1 X2.250 Y-2.250 E9.67362
G1 X2.250 Y2.175 E9.73085
G1 X1.817 Y2.000 F12000.000
G1 X0.316 Y-0.066 F12000.000
G1 X-0.066 Y0.316 E9.74320 F601.771
G1 Z5.075 F12000.000
G1 X0.811 Y0.811 F12000.000
G1 X-0.811 Y0.811 E9.78023 F600.000
G1 X-0.811 Y-0.811 E9.81726
G1 X0.811 Y-0.811 E9.85429
G1 X0.811 Y0.736 E9.88961
G1 X1.618 Y1.618 F12000.000
G1 X-1.618 Y1.618 E9.96350 F600.000
G1 X-1.618 Y-1.618 E10.03740
G1 X1.618 Y-1.618 E10.11129
G1 X1.618 Y1.543 E10.18347
G1 X2.250 Y2.250 F12000.000
G1 X-2.250 Y2.250 E10.24167 F600.000
G1 X-2.250 Y-2.250 E10.29986
G1 X2.250 Y-2.250 E10.35806
G1 X2.250 Y2.175 E10.41529
G1 X1.817 Y2.000 F12000.000
G1 X0.316 Y0.066 F12000.000
G1 X-0.066 Y-0.316 E10.42764 F601.771
G1 Z5.275 F12000.000
G1 X0.811 Y0.811 F12000.000
G1 X-0.811 Y0.811 E10.46467 F600.000
G1 X-0.811 Y-0.811 E10.50170
G1 X0.811 Y-0.811 E10.53874
G1 X0.811 Y0.736 E10.57405
G1 X1.618 Y1.618 F12000.000
G1 X-1.618 Y1.618 E10.64795 F600.000
G1 X-1.618 Y-1.618 E10.72184
G1 X1.618 Y-1.618 E10.79573
G1 X1.618 Y1.543 E10.86791
G1 X2.250 Y2.250 F12000.000
G1 X-2.250 Y2.250 E10.92611 F600.000
G1 X-2.250 Y-2.250 E10.98431
G1 X2.250 Y-2.250 E11.04250
G1 X2.250 Y2.175 E11.09973
G1 X1.817 Y2.000 F12000.000
G1 X0.316 Y-0.066 F12000.000
G1 X-0.066 Y0.316 E11.11208 F601.771
G1 Z5.475 F12000.000
G1 X0.811 Y0.811 F12000.000
G1 X-0.811 Y0.811 E11.14911 F600.000
G1 X-0.811 Y-0.811 E11.18615
G1 X0.811 Y-0.811 E11.22318
G1 X0.811 Y0.736 E11.25850
G1 X1.618 Y1.618 F12000.000
G1 X-1.618 Y1.618 E11.33239 F600.000
G1 X-1.618 Y-1.618 E11.40628
G1 X1.618 Y-1.618 E11.48018
G1 X1.618 Y1.543 E11.55236
G1 X2.250 Y2.250 F12000.000
G1 X-2.250 Y2.250 E11.61055 F600.000
G1 X-2.250 Y-2.250 E11.66875
G1 X2.250 Y-2.250 E11.72695
G1 X2.250 Y2.175 E11.78417
G1 X1.817 Y2.000 F12000.000
G1 X0.316 Y0.066 F12000.000
G1 X-0.066 Y-0.316 E11.79652 F601.771
G1 Z5.675 F12000.000
G1 X0.811 Y0.811 F12000.000
G1 X-0.811 Y0.811 E11.83356 F600.000
G1 X-0.811 Y-0.811 E11.87059
G1 X0.811 Y-0.811 E11.90762
G1 X0.811 Y0.736 E11.94294
G1 X1.618 Y1.618 F12000.000
G1 X-1.618 Y1.618 E12.01683 F600.000
G1 X-1.618 Y-1.618 E12.09073
G1 X1.618 Y-1.618 E12.16462
G1 X1.618 Y1.543 E12.23680
G1 X2.250 Y2.250 F12000.000
G1 X-2.250 Y2.250 E12.29499 F600.000
