;start
;Print id is
;88
; User Name:mmiscool
;          :MIKE
;User Phone:(860) 123-0000
;
;
;
;
; generated by Slic3r 1.2.9 on 2017-03-23 at 21:14:54

; external perimeters extrusion width = 0.50mm
; perimeters extrusion width = 0.72mm
; infill extrusion width = 0.72mm
; solid infill extrusion width = 0.72mm
; top infill extrusion width = 0.72mm
; support material extrusion width = 0.50mm

M104 S200
G28 ; home all axes
G1 Z140
M400
G1 Z140
;printpage
G1 Y10



G1 Z5
M109 S200
G21 ; set units to millimeters
G90 ; use absolute coordinates
M82 ; use absolute distances for extrusion
G92 E0
G1 Z0.350 F7800.000
G1 E-2.00000 F2400.00000
G92 E0
G1 X61.261 Y67.797 F7800.000
G1 E2.00000 F2400.00000
G1 X57.322 Y75.655 E2.79918 F1800.000
G1 X57.694 Y77.703 E2.98844
G1 X63.134 Y66.850 E4.09231
G1 X64.668 Y66.577 E4.23402
G1 X58.432 Y79.019 E5.49942
G1 X59.181 Y80.315 E5.63552
G1 X66.066 Y66.577 E7.03275
G1 X67.464 Y66.577 E7.15987
G1 X60.041 Y81.388 E8.66626
G1 X61.047 Y82.170 E8.78213
G1 X68.721 Y66.859 E10.33945
G1 X69.855 Y67.385 E10.45315
G1 X62.136 Y82.787 E12.01973
G1 X63.306 Y83.241 E12.13387
G1 X70.919 Y68.051 E13.67895
G1 X71.894 Y68.896 E13.79625
G1 X64.613 Y83.423 E15.27374
G1 X66.011 Y83.423 E15.40086
G1 X72.698 Y70.081 E16.75787
G1 X73.446 Y71.377 E16.89396
G1 X67.409 Y83.423 E18.11914
G1 X69.058 Y82.921 E18.27588
G1 X74.105 Y72.852 E19.30005
G1 X74.341 Y75.170 E19.51196
G1 X71.047 Y81.742 E20.18042
G1 E18.18042 F2400.00000
G92 E0
G1 X79.265 Y68.134 F7800.000
G1 E2.00000 F2400.00000
G1 X75.713 Y75.222 E2.72094 F1800.000
G1 X76.035 Y77.369 E2.91828
G1 X81.212 Y67.039 E3.96894
G1 X82.842 Y66.577 E4.12291
G1 X76.688 Y78.855 E5.37170
G1 X77.436 Y80.151 E5.50779
G1 X84.240 Y66.577 E6.88843
G1 X85.638 Y66.577 E7.01554
G1 X78.310 Y81.197 E8.50251
G1 X79.301 Y82.009 E8.61900
G1 X86.879 Y66.889 E10.15683
G1 X88.029 Y67.384 E10.27067
G1 X80.378 Y82.650 E11.82343
G1 X81.536 Y83.129 E11.93737
G1 X89.103 Y68.030 E13.47307
G1 X90.089 Y68.853 E13.58981
G1 X82.787 Y83.423 E15.07174
G1 X84.184 Y83.423 E15.19886
G1 X90.953 Y69.917 E16.57248
G1 X91.702 Y71.214 E16.70857
G1 X85.588 Y83.412 E17.94928
G1 X87.234 Y82.916 E18.10565
G1 X92.341 Y72.728 E19.14188
G1 X92.633 Y74.934 E19.34423
G1 X89.199 Y81.786 E20.04109
G1 Z0.720 F7800.000
G1 X89.279 Y81.083 F7800.000
G1 X89.932 Y80.429 E20.10087 F3600.000
G1 X89.382 Y80.429 E20.13645
G1 X88.819 Y81.405 E20.20931
G1 X89.279 Y81.083 E20.24560
G1 X84.231 Y82.814 F7800.000
G1 X82.854 Y80.429 E20.42378 F3600.000
G1 X79.213 Y80.429 E20.65937
G1 X78.922 Y80.934 E20.69706
G1 X79.071 Y81.083 E20.71068
G1 X80.205 Y81.877 E20.80024
G1 X81.459 Y82.462 E20.88979
G1 X82.775 Y82.814 E20.97796
G1 X84.231 Y82.814 E21.07217
G1 X84.298 Y77.058 F7800.000
G1 X82.854 Y74.558 E21.25894 F3600.000
G1 X79.213 Y74.558 E21.49453
G1 X77.770 Y77.058 E21.68130
G1 X76.537 Y77.058 E21.76106
G1 X76.654 Y77.494 E21.79024
G1 X77.770 Y77.494 E21.86245
G1 X79.213 Y79.994 E22.04922
G1 X82.854 Y79.994 E22.28481
G1 X84.298 Y77.494 E22.47158
G1 X87.939 Y77.494 E22.70717
G1 X89.382 Y79.994 E22.89395
G1 X90.315 Y79.994 E22.95428
G1 X91.642 Y77.695 E23.12601
G1 X91.995 Y76.379 E23.21418
G1 X92.115 Y75.000 E23.30373
G1 X92.077 Y74.558 E23.33242
G1 X89.382 Y74.558 E23.50675
G1 X87.939 Y77.058 E23.69352
G1 X84.298 Y77.058 E23.92911
G1 X84.298 Y71.187 F7800.000
G1 X82.854 Y68.687 E24.11588 F3600.000
G1 X79.400 Y68.687 E24.33941
G1 X79.087 Y68.906 E24.36412
G1 X77.770 Y71.187 E24.53453
G1 X77.353 Y71.187 E24.56149
G1 X77.102 Y71.623 E24.59403
G1 X77.770 Y71.623 E24.63727
G1 X79.213 Y74.123 E24.82404
G1 X82.854 Y74.123 E25.05963
G1 X84.298 Y71.623 E25.24640
G1 X87.939 Y71.623 E25.48199
G1 X89.382 Y74.123 E25.66876
G1 X92.039 Y74.123 E25.84062
G1 X91.995 Y73.621 E25.87319
G1 X91.642 Y72.305 E25.96136
G1 X90.243 Y69.881 E26.14245
G1 X89.258 Y68.902 E26.23226
G1 X87.939 Y71.187 E26.40292
G1 X84.298 Y71.187 E26.63851
G1 X82.854 Y68.251 F7800.000
G1 X83.470 Y67.186 E26.71813 F3600.000
G1 X82.775 Y67.186 E26.76306
G1 X81.459 Y67.538 E26.85123
G1 X80.205 Y68.123 E26.94078
G1 X80.022 Y68.251 E26.95523
G1 X82.854 Y68.251 E27.13850
G1 X87.035 Y67.142 F7800.000
G1 X85.630 Y66.765 E27.23264 F3600.000
G1 X82.720 Y66.765 E27.42090
G1 X81.315 Y67.142 E27.51503
G1 X79.993 Y67.758 E27.60935
G1 X78.799 Y68.594 E27.70366
G1 X77.771 Y69.623 E27.79780
G1 X76.316 Y72.142 E27.98606
G1 X75.939 Y73.548 E28.08019
G1 X75.812 Y75.000 E28.17450
G1 X75.939 Y76.452 E28.26882
G1 X76.316 Y77.858 E28.36295
G1 X77.771 Y80.377 E28.55121
G1 X78.799 Y81.406 E28.64535
G1 X79.993 Y82.242 E28.73966
G1 X81.315 Y82.858 E28.83398
G1 X82.720 Y83.235 E28.92811
G1 X85.630 Y83.235 E29.11637
G1 X87.035 Y82.858 E29.21050
G1 X88.356 Y82.242 E29.30482
G1 X89.550 Y81.406 E29.39913
G1 X90.579 Y80.377 E29.49327
G1 X92.034 Y77.858 E29.68153
G1 X92.411 Y76.452 E29.77566
G1 X92.538 Y75.000 E29.86998
G1 X92.411 Y73.548 E29.96429
G1 X92.034 Y72.142 E30.05842
G1 X90.579 Y69.623 E30.24669
G1 X89.550 Y68.594 E30.34082
G1 X88.356 Y67.758 E30.43513
G1 X87.035 Y67.142 E30.52945
G1 E28.52945 F2400.00000
G92 E0
G1 X69.039 Y67.685 F7800.000
G1 E2.00000 F2400.00000
G1 X68.598 Y67.479 E2.03154 F3600.000
G1 X69.044 Y68.251 E2.08927
G1 X70.115 Y68.251 E2.15854
G1 X69.835 Y68.055 E2.18065
G1 X69.039 Y67.685 E2.23742
G1 X68.712 Y67.068 F7800.000
G1 X67.582 Y66.765 E2.31313 F3600.000
G1 X64.068 Y66.765 E2.54045
G1 X62.938 Y67.068 E2.61616
G1 X61.605 Y67.690 E2.71136
G1 X60.399 Y68.534 E2.80656
G1 X59.572 Y69.361 E2.88227
G1 X57.815 Y72.404 E3.10959
G1 X57.512 Y73.534 E3.18530
G1 X57.384 Y75.000 E3.28050
G1 X57.512 Y76.466 E3.37570
G1 X57.815 Y77.596 E3.45141
G1 X59.572 Y80.639 E3.67873
G1 X60.399 Y81.466 E3.75445
G1 X61.605 Y82.310 E3.84964
G1 X62.938 Y82.932 E3.94484
G1 X64.068 Y83.235 E4.02056
G1 X67.582 Y83.235 E4.24787
G1 X68.712 Y82.932 E4.32359
G1 X70.046 Y82.310 E4.41878
G1 X71.251 Y81.466 E4.51398
G1 X72.079 Y80.639 E4.58970
G1 X73.835 Y77.596 E4.81702
G1 X74.138 Y76.466 E4.89273
G1 X74.266 Y75.000 E4.98793
G1 X74.138 Y73.534 E5.08313
G1 X73.835 Y72.404 E5.15883
G1 X72.078 Y69.361 E5.38616
G1 X71.251 Y68.534 E5.46187
G1 X70.046 Y67.690 E5.55707
G1 X68.712 Y67.068 E5.65227
G1 X63.959 Y71.187 F7800.000
G1 X62.516 Y68.687 E5.83904 F3600.000
G1 X60.914 Y68.687 E5.94270
G1 X60.671 Y68.857 E5.96189
G1 X59.908 Y69.619 E6.03164
G1 X58.207 Y72.566 E6.25180
G1 X58.134 Y72.839 E6.27010
G1 X58.875 Y74.123 E6.36596
G1 X62.516 Y74.123 E6.60155
G1 X63.959 Y71.623 E6.78832
G1 X67.600 Y71.623 E7.02391
G1 X69.044 Y74.123 E7.21068
G1 X72.685 Y74.123 E7.44627
G1 X73.488 Y72.732 E7.55014
G1 X73.443 Y72.566 E7.56125
G1 X71.742 Y69.619 E7.78142
G1 X70.980 Y68.857 E7.85116
G1 X70.737 Y68.687 E7.87035
G1 X69.044 Y68.687 E7.97988
G1 X67.600 Y71.187 E8.16665
G1 X63.959 Y71.187 E8.40224
G1 X62.516 Y68.251 F7800.000
G1 X62.929 Y67.536 E8.45565 F3600.000
G1 X61.816 Y68.055 E8.53510
G1 X61.536 Y68.251 E8.55721
G1 X62.516 Y68.251 E8.62062
G1 X63.959 Y77.058 F7800.000
G1 X62.516 Y74.558 E8.80739 F3600.000
G1 X58.875 Y74.558 E9.04298
G1 X57.913 Y76.223 E9.16738
G1 X57.928 Y76.392 E9.17837
G1 X58.207 Y77.434 E9.24811
G1 X59.685 Y79.994 E9.43937
G1 X62.516 Y79.994 E9.62252
G1 X63.959 Y77.494 E9.80929
G1 X67.600 Y77.494 E10.04488
G1 X69.044 Y79.994 E10.23165
G1 X71.965 Y79.994 E10.42067
G1 X73.443 Y77.434 E10.61193
G1 X73.725 Y76.360 E10.68378
G1 X72.685 Y74.558 E10.81836
G1 X69.044 Y74.558 E11.05395
G1 X67.600 Y77.058 E11.24072
G1 X63.959 Y77.058 E11.47631
G1 X63.851 Y82.741 F7800.000
G1 X62.516 Y80.429 E11.64902 F3600.000
G1 X59.957 Y80.429 E11.81457
G1 X60.671 Y81.143 E11.87985
G1 X61.816 Y81.945 E11.97029
G1 X63.082 Y82.535 E12.06073
G1 X63.851 Y82.741 E12.11217
G1 X70.980 Y81.143 F7800.000
G1 X71.693 Y80.429 E12.17746 F3600.000
G1 X69.044 Y80.429 E12.34887
G1 X67.693 Y82.770 E12.52372
G1 X68.568 Y82.535 E12.58235
G1 X69.835 Y81.945 E12.67279
G1 X70.980 Y81.143 E12.76322
G1 Z1.100 F7800.000
G1 X70.981 Y81.145 F7800.000
G1 X71.696 Y80.429 E12.83009 F3600.000
G1 X69.044 Y80.429 E13.00543
G1 X67.691 Y82.773 E13.18430
G1 X68.569 Y82.537 E13.24436
G1 X69.836 Y81.947 E13.33679
G1 X70.981 Y81.145 E13.42922
G1 X63.852 Y82.744 F7800.000
G1 X62.516 Y80.429 E13.60590 F3600.000
G1 X59.954 Y80.429 E13.77525
G1 X60.669 Y81.145 E13.84211
G1 X61.815 Y81.947 E13.93454
G1 X63.082 Y82.537 E14.02698
G1 X63.852 Y82.744 E14.07969
G1 X63.959 Y77.058 F7800.000
G1 X62.516 Y74.558 E14.27054 F3600.000
G1 X58.875 Y74.558 E14.51126
G1 X57.911 Y76.227 E14.63862
G1 X57.926 Y76.393 E14.64965
G1 X58.205 Y77.435 E14.72095
G1 X59.683 Y79.994 E14.91631
G1 X62.516 Y79.994 E15.10362
G1 X63.959 Y77.494 E15.29446
G1 X67.600 Y77.494 E15.53518
G1 X69.044 Y79.994 E15.72602
G1 X71.968 Y79.994 E15.91932
G1 X73.445 Y77.435 E16.11468
G1 X73.727 Y76.363 E16.18794
G1 X72.685 Y74.558 E16.32570
G1 X69.044 Y74.558 E16.56642
G1 X67.600 Y77.058 E16.75726
G1 X63.959 Y77.058 E16.99799
G1 X63.959 Y71.187 F7800.000
G1 X62.516 Y68.687 E17.18883 F3600.000
G1 X60.910 Y68.687 E17.29499
G1 X60.669 Y68.855 E17.31442
G1 X59.907 Y69.618 E17.38571
G1 X58.205 Y72.565 E17.61071
G1 X58.132 Y72.837 E17.62928
G1 X58.875 Y74.123 E17.72743
G1 X62.516 Y74.123 E17.96815
G1 X63.959 Y71.623 E18.15899
G1 X67.600 Y71.623 E18.39971
G1 X69.044 Y74.123 E18.59055
G1 X72.685 Y74.123 E18.83127
G1 X73.489 Y72.730 E18.93761
G1 X73.445 Y72.565 E18.94884
G1 X71.744 Y69.618 E19.17384
G1 X70.981 Y68.855 E19.24513
G1 X70.740 Y68.687 E19.26456
G1 X69.044 Y68.687 E19.37671
G1 X67.600 Y71.187 E19.56755
G1 X63.959 Y71.187 E19.80828
G1 X62.516 Y68.251 F7800.000
G1 X62.930 Y67.533 E19.86310 F3600.000
G1 X61.815 Y68.053 E19.94450
G1 X61.532 Y68.251 E19.96730
G1 X62.516 Y68.251 E20.03234
G1 X68.712 Y67.068 F7800.000
G1 X67.582 Y66.765 E20.10969 F3600.000
G1 X64.068 Y66.765 E20.34198
G1 X62.938 Y67.068 E20.41933
G1 X61.605 Y67.690 E20.51661
G1 X60.399 Y68.534 E20.61388
G1 X59.572 Y69.361 E20.69124
G1 X57.815 Y72.404 E20.92352
G1 X57.512 Y73.534 E21.00087
G1 X57.384 Y75.000 E21.09815
G1 X57.512 Y76.466 E21.19542
G1 X57.815 Y77.596 E21.27278
G1 X59.572 Y80.639 E21.50505
G1 X60.399 Y81.466 E21.58242
G1 X61.605 Y82.310 E21.67969
G1 X62.938 Y82.932 E21.77696
G1 X64.068 Y83.235 E21.85432
G1 X67.582 Y83.235 E22.08660
G1 X68.712 Y82.932 E22.16396
G1 X70.046 Y82.310 E22.26123
G1 X71.251 Y81.466 E22.35850
G1 X72.079 Y80.639 E22.43586
G1 X73.835 Y77.596 E22.66814
G1 X74.138 Y76.466 E22.74550
G1 X74.266 Y75.000 E22.84277
G1 X74.138 Y73.534 E22.94004
G1 X73.835 Y72.404 E23.01740
G1 X72.078 Y69.361 E23.24968
G1 X71.251 Y68.534 E23.32704
G1 X70.046 Y67.690 E23.42431
G1 X68.712 Y67.068 E23.52159
G1 X69.040 Y67.683 F7800.000
G1 X68.596 Y67.475 E23.55401 F3600.000
G1 X69.044 Y68.251 E23.61325
G1 X70.118 Y68.251 E23.68428
G1 X69.836 Y68.053 E23.70708
G1 X69.040 Y67.683 E23.76510
G1 E21.76510 F2400.00000
G92 E0
G1 X82.854 Y68.251 F7800.000
G1 E2.00000 F2400.00000
G1 X83.471 Y67.183 E2.08152 F3600.000
G1 X82.775 Y67.183 E2.12752
G1 X81.458 Y67.536 E2.21765
G1 X80.203 Y68.121 E2.30917
G1 X80.018 Y68.251 E2.32415
G1 X82.854 Y68.251 E2.51167
G1 X84.298 Y71.187 F7800.000
G1 X82.854 Y68.687 E2.70251 F3600.000
G1 X79.396 Y68.687 E2.93115
G1 X79.089 Y68.902 E2.95590
G1 X77.770 Y71.187 E3.13035
G1 X77.351 Y71.187 E3.15807
G1 X77.099 Y71.623 E3.19132
G1 X77.770 Y71.623 E3.23566
G1 X79.213 Y74.123 E3.42650
G1 X82.854 Y74.123 E3.66722
G1 X84.298 Y71.623 E3.85807
G1 X87.939 Y71.623 E4.09879
G1 X89.382 Y74.123 E4.28963
G1 X92.041 Y74.123 E4.46537
G1 X91.997 Y73.621 E4.49867
G1 X91.644 Y72.304 E4.58880
G1 X90.244 Y69.879 E4.77387
G1 X89.259 Y68.901 E4.86569
G1 X87.939 Y71.187 E5.04022
G1 X84.298 Y71.187 E5.28094
G1 X87.035 Y67.142 F7800.000
G1 X85.630 Y66.765 E5.37712 F3600.000
G1 X82.720 Y66.765 E5.56949
G1 X81.315 Y67.142 E5.66567
G1 X79.993 Y67.758 E5.76204
G1 X78.799 Y68.594 E5.85841
G1 X77.771 Y69.623 E5.95459
G1 X76.316 Y72.142 E6.14696
G1 X75.939 Y73.548 E6.24314
G1 X75.812 Y75.000 E6.33951
G1 X75.939 Y76.452 E6.43588
G1 X76.316 Y77.858 E6.53206
G1 X77.771 Y80.377 E6.72443
G1 X78.799 Y81.406 E6.82061
G1 X79.993 Y82.242 E6.91698
G1 X81.315 Y82.858 E7.01335
G1 X82.720 Y83.235 E7.10953
G1 X85.630 Y83.235 E7.30190
G1 X87.035 Y82.858 E7.39808
G1 X88.356 Y82.242 E7.49445
G1 X89.550 Y81.406 E7.59082
G1 X90.579 Y80.377 E7.68700
G1 X92.034 Y77.858 E7.87936
G1 X92.411 Y76.452 E7.97555
G1 X92.538 Y75.000 E8.07192
G1 X92.411 Y73.548 E8.16829
G1 X92.034 Y72.142 E8.26447
G1 X90.579 Y69.623 E8.45684
G1 X89.550 Y68.594 E8.55302
G1 X88.356 Y67.758 E8.64939
G1 X87.035 Y67.142 E8.74576
G1 X84.298 Y77.058 F7800.000
G1 X82.854 Y74.558 E8.93660 F3600.000
G1 X79.213 Y74.558 E9.17732
G1 X77.770 Y77.058 E9.36816
G1 X76.535 Y77.058 E9.44981
G1 X76.651 Y77.494 E9.47963
G1 X77.770 Y77.494 E9.55356
G1 X79.213 Y79.994 E9.74440
G1 X82.854 Y79.994 E9.98512
G1 X84.298 Y77.494 E10.17596
G1 X87.939 Y77.494 E10.41668
G1 X89.382 Y79.994 E10.60752
G1 X90.317 Y79.994 E10.66934
G1 X91.644 Y77.696 E10.84474
G1 X91.997 Y76.379 E10.93486
G1 X92.118 Y75.000 E11.02639
G1 X92.079 Y74.558 E11.05571
G1 X89.382 Y74.558 E11.23398
G1 X87.939 Y77.058 E11.42482
G1 X84.298 Y77.058 E11.66554
G1 X84.233 Y82.817 F7800.000
G1 X82.854 Y80.429 E11.84776 F3600.000
G1 X79.213 Y80.429 E12.08848
G1 X78.921 Y80.936 E12.12714
G1 X79.069 Y81.084 E12.14104
G1 X80.203 Y81.879 E12.23257
G1 X81.458 Y82.464 E12.32410
G1 X82.775 Y82.817 E12.41422
G1 X84.233 Y82.817 E12.51058
G1 X89.280 Y81.084 F7800.000
G1 X89.935 Y80.429 E12.57182 F3600.000
G1 X89.382 Y80.429 E12.60837
G1 X88.817 Y81.409 E12.68315
G1 X89.280 Y81.084 E12.72056
G1 Z1.480 F7800.000
G1 X88.817 Y81.409 E12.75796 F3600.000
G1 X89.382 Y80.429 E12.83274
G1 X89.935 Y80.429 E12.86929
G1 X89.280 Y81.084 E12.93053
G1 X84.233 Y82.817 F7800.000
G1 X82.854 Y80.429 E13.11276 F3600.000
G1 X79.213 Y80.429 E13.35348
G1 X78.921 Y80.936 E13.39214
G1 X79.069 Y81.084 E13.40603
G1 X80.203 Y81.879 E13.49756
G1 X81.458 Y82.464 E13.58909
G1 X82.775 Y82.817 E13.67921
G1 X84.233 Y82.817 E13.77557
G1 X84.298 Y77.058 F7800.000
G1 X82.854 Y74.558 E13.96641 F3600.000
G1 X79.213 Y74.558 E14.20713
G1 X77.770 Y77.058 E14.39798
G1 X76.535 Y77.058 E14.47962
G1 X76.651 Y77.494 E14.50944
G1 X77.770 Y77.494 E14.58337
G1 X79.213 Y79.994 E14.77421
G1 X82.854 Y79.994 E15.01493
G1 X84.298 Y77.494 E15.20577
G1 X87.939 Y77.494 E15.44650
G1 X89.382 Y79.994 E15.63734
G1 X90.317 Y79.994 E15.69915
G1 X91.644 Y77.696 E15.87455
G1 X91.997 Y76.379 E15.96468
G1 X92.118 Y75.000 E16.05621
G1 X92.079 Y74.558 E16.08553
G1 X89.382 Y74.558 E16.26379
G1 X87.939 Y77.058 E16.45463
G1 X84.298 Y77.058 E16.69535
G1 X84.298 Y71.187 F7800.000
G1 X82.854 Y68.687 E16.88619 F3600.000
G1 X79.396 Y68.687 E17.11484
G1 X79.089 Y68.902 E17.13958
G1 X77.770 Y71.187 E17.31404
G1 X77.351 Y71.187 E17.34175
G1 X77.099 Y71.623 E17.37500
G1 X77.770 Y71.623 E17.41935
G1 X79.213 Y74.123 E17.61019
G1 X82.854 Y74.123 E17.85091
G1 X84.298 Y71.623 E18.04175
G1 X87.939 Y71.623 E18.28247
G1 X89.382 Y74.123 E18.47331
G1 X92.041 Y74.123 E18.64906
G1 X91.997 Y73.621 E18.68236
G1 X91.644 Y72.304 E18.77248
G1 X90.244 Y69.879 E18.95756
G1 X89.259 Y68.901 E19.04937
G1 X87.939 Y71.187 E19.22390
G1 X84.298 Y71.187 E19.46462
G1 X82.854 Y68.251 F7800.000
G1 X83.471 Y67.183 E19.54614 F3600.000
G1 X82.775 Y67.183 E19.59215
G1 X81.458 Y67.536 E19.68227
G1 X80.203 Y68.121 E19.77380
G1 X80.018 Y68.251 E19.78877
G1 X82.854 Y68.251 E19.97629
G1 X87.035 Y67.142 F7800.000
G1 X85.630 Y66.765 E20.07247 F3600.000
G1 X82.720 Y66.765 E20.26484
G1 X81.315 Y67.142 E20.36102
G1 X79.993 Y67.758 E20.45739
G1 X78.799 Y68.594 E20.55376
G1 X77.771 Y69.623 E20.64994
G1 X76.316 Y72.142 E20.84231
G1 X75.939 Y73.548 E20.93849
G1 X75.812 Y75.000 E21.03486
G1 X75.939 Y76.452 E21.13123
G1 X76.316 Y77.858 E21.22741
G1 X77.771 Y80.377 E21.41978
G1 X78.799 Y81.406 E21.51596
G1 X79.993 Y82.242 E21.61233
G1 X81.315 Y82.858 E21.70870
G1 X82.720 Y83.235 E21.80488
G1 X85.630 Y83.235 E21.99725
G1 X87.035 Y82.858 E22.09343
G1 X88.356 Y82.242 E22.18980
G1 X89.550 Y81.406 E22.28617
G1 X90.579 Y80.377 E22.38235
G1 X92.034 Y77.858 E22.57472
G1 X92.411 Y76.452 E22.67090
G1 X92.538 Y75.000 E22.76727
G1 X92.411 Y73.548 E22.86364
G1 X92.034 Y72.142 E22.95982
G1 X90.579 Y69.623 E23.15219
