;start
;Print id is
;17
; User Name:mmiscool
;          :Mike Molinari
;User Phone:(860) 123-0000
;
;
;
;
; generated by Slic3r 1.2.9 on 2017-04-26 at 22:18:18

; external perimeters extrusion width = 0.40mm
; perimeters extrusion width = 0.40mm
; infill extrusion width = 0.40mm
; solid infill extrusion width = 0.40mm
; top infill extrusion width = 0.40mm
; support material extrusion width = 0.40mm

M104 S205 ; set temperature
G28 ; home all axes
G1 Z5 F5000 ; lift nozzle
G28

G201 P0 X0
G201 P0 X105
M400
;printpage

G201 P0 X118
M109 S205 ; wait for temperature to be reached
G21 ; set units to millimeters
G90 ; use absolute coordinates
M82 ; use absolute distances for extrusion
G92 E0
G1 Z0.200 F12000.000
G1 E-2.00000 F2400.00000
G92 E0
G1 X-13.439 Y0.000 F12000.000
G1 E2.00000 F2400.00000
G1 X-13.439 Y-6.164 E2.06228 F2160.000
G1 X-12.690 Y-9.333 E2.09518
G1 X-12.564 Y-9.584 E2.09802
G1 X-11.162 Y-11.495 E2.12196
G1 X-9.207 Y-12.835 E2.14591
G1 X-6.242 Y-13.487 E2.17658
G1 X6.234 Y-13.487 E2.30263
G1 X8.571 Y-13.090 E2.32657 F2160.000
G1 X10.645 Y-11.943 E2.35052
G1 X12.223 Y-10.175 E2.37446
G1 X13.094 Y-8.133 E2.39690
G1 X13.228 Y-7.597 E2.40247
G1 X13.439 Y-5.880 E2.41995
G1 X13.439 Y6.164 E2.54164
G1 X12.690 Y9.333 E2.57454
G1 X12.564 Y9.584 E2.57738
G1 X11.162 Y11.495 E2.60132
G1 X9.207 Y12.835 E2.62527
G1 X6.242 Y13.487 E2.65594
G1 X-6.234 Y13.487 E2.78199
G1 X-8.571 Y13.090 E2.80594
G1 X-10.645 Y11.943 E2.82988
G1 X-12.223 Y10.175 E2.85383
G1 X-13.094 Y8.132 E2.87627
G1 X-13.228 Y7.596 E2.88184
G1 X-13.439 Y5.880 E2.89931
G1 X-13.439 Y0.075 E2.95797
G1 X-13.082 Y0.000 F12000.000
G1 X-13.082 Y-6.164 E3.02025 F2160.000
G1 X-12.371 Y-9.173 E3.05148
G1 X-12.245 Y-9.424 E3.05432
G1 X-10.870 Y-11.280 E3.07765
G1 X-8.949 Y-12.560 E3.10098
G1 X-6.242 Y-13.130 E3.12893
G1 X5.429 Y-13.130 E3.24685
G1 X6.234 Y-13.130 E3.25498 F2160.000
G1 X8.509 Y-12.733 E3.27831
G1 X10.514 Y-11.589 E3.30163
G1 X12.014 Y-9.833 E3.32496
G1 X12.747 Y-8.046 E3.34448
G1 X12.881 Y-7.510 E3.35006
G1 X13.082 Y-5.880 E3.36665
G1 X13.082 Y6.164 E3.48834
G1 X12.371 Y9.173 E3.51958
G1 X12.245 Y9.424 E3.52242
G1 X10.870 Y11.280 E3.54575
G1 X8.949 Y12.560 E3.56907
G1 X6.242 Y13.130 E3.59702
G1 X-6.234 Y13.130 E3.72307
G1 X-8.509 Y12.733 E3.74640
G1 X-10.514 Y11.589 E3.76973
G1 X-12.014 Y9.833 E3.79306
G1 X-12.748 Y8.045 E3.81258
G1 X-12.882 Y7.510 E3.81816
G1 X-13.082 Y5.880 E3.83475
G1 X-13.082 Y0.075 E3.89340
G1 X-12.725 Y0.000 F12000.000
G1 X-12.725 Y-6.164 E3.95568 F2160.000
G1 X-12.051 Y-9.013 E3.98525
G1 X-11.925 Y-9.264 E3.98809
G1 X-10.580 Y-11.063 E4.01079
G1 X-8.693 Y-12.282 E4.03348
G1 X-6.242 Y-12.773 E4.05874
G1 X5.429 Y-12.773 E4.17665
G1 X6.234 Y-12.773 E4.18479 F2160.000
G1 X8.445 Y-12.376 E4.20748
G1 X10.380 Y-11.235 E4.23018
G1 X11.797 Y-9.492 E4.25287
G1 X12.401 Y-7.959 E4.26952
G1 X12.535 Y-7.424 E4.27510
G1 X12.725 Y-5.880 E4.29081
G1 X12.725 Y6.164 E4.41250
G1 X12.051 Y9.013 E4.44207
G1 X11.925 Y9.264 E4.44491
G1 X10.580 Y11.063 E4.46761
G1 X8.693 Y12.282 E4.49030
G1 X6.242 Y12.773 E4.51556
G1 X-6.234 Y12.773 E4.64161
G1 X-8.445 Y12.376 E4.66430
G1 X-10.380 Y11.235 E4.68700
G1 X-11.797 Y9.492 E4.70969
G1 X-12.401 Y7.959 E4.72634
G1 X-12.535 Y7.423 E4.73192
G1 X-12.725 Y5.880 E4.74763
G1 X-12.725 Y0.075 E4.80628
G1 E2.80628 F2400.00000
G92 E0
G1 X-6.368 Y0.259 F12000.000
G1 E2.00000 F2400.00000
G1 X-3.022 Y-6.416 E2.07544 F2160.000
G1 X-3.425 Y-6.416 E2.07950
G1 X-6.368 Y-0.544 E2.14587
G1 X-6.368 Y-1.347 F12000.000
G1 X-3.827 Y-6.416 E2.20316 F2160.000
G1 X-4.230 Y-6.416 E2.20722
G1 X-6.368 Y-2.150 E2.25544
G1 X-6.368 Y-2.953 F12000.000
G1 X-4.632 Y-6.416 E2.29458 F2160.000
G1 X-5.035 Y-6.416 E2.29864
G1 X-6.368 Y-3.756 E2.32871
G1 X-6.368 Y-4.559 F12000.000
G1 X-5.437 Y-6.416 E2.34970 F2160.000
G1 X-5.840 Y-6.416 E2.35377
G1 X-6.368 Y-5.362 E2.36568
G1 X-6.368 Y-6.164 F12000.000
G1 X-6.242 Y-6.416 E2.36852 F2160.000
G1 E0.36852 F2400.00000
G92 E0
G1 X-6.368 Y1.062 F12000.000
G1 E2.00000 F2400.00000
G1 X-2.620 Y-6.416 E2.08451 F2160.000
G1 X-2.218 Y-6.416 E2.08858
G1 X-6.368 Y1.865 E2.18217
G1 X-6.368 Y2.668 F12000.000
G1 X-1.815 Y-6.416 E2.28483 F2160.000
G1 X-1.413 Y-6.416 E2.28890
G1 X-6.368 Y3.471 E2.40063
G1 X-6.368 Y4.274 F12000.000
G1 X-1.010 Y-6.416 E2.52145 F2160.000
G1 X-0.608 Y-6.416 E2.52551
G1 X-6.368 Y5.077 E2.65540
G1 X-6.368 Y5.880 F12000.000
G1 X-0.205 Y-6.416 E2.79436 F2160.000
G1 X0.197 Y-6.416 E2.79843
G1 X-6.234 Y6.416 E2.94344
G1 X-5.832 Y6.416 E2.94751
G1 X0.600 Y-6.416 E3.09252
G1 X1.002 Y-6.416 E3.09659
G1 X-5.429 Y6.416 E3.24160
G1 X-5.027 Y6.416 E3.24567
G1 X1.405 Y-6.416 E3.39068
G1 X1.807 Y-6.416 E3.39475
G1 X-4.624 Y6.416 E3.53977
G1 X-4.222 Y6.416 E3.54383
G1 X2.209 Y-6.416 E3.68885
G1 X2.612 Y-6.416 E3.69291
G1 X-3.819 Y6.416 E3.83793
G1 X-3.417 Y6.416 E3.84199
G1 X3.014 Y-6.416 E3.98701
G1 X3.417 Y-6.416 E3.99107
G1 X-3.014 Y6.416 E4.13609
G1 X-2.612 Y6.416 E4.14015
G1 X3.819 Y-6.416 E4.28517
G1 X4.222 Y-6.416 E4.28924
G1 X-2.210 Y6.416 E4.43425
G1 X-1.807 Y6.416 E4.43832
G1 X4.624 Y-6.416 E4.58333
G1 X5.027 Y-6.416 E4.58740
G1 X-1.405 Y6.416 E4.73241
G1 X-1.002 Y6.416 E4.73648
G1 X5.429 Y-6.416 E4.88149
G1 X5.832 Y-6.416 E4.88556
G1 X-0.600 Y6.416 E5.03057
G1 X-0.197 Y6.416 E5.03464
G1 X6.234 Y-6.416 E5.17966
G1 X6.368 Y-5.880 E5.18523
G1 X0.205 Y6.416 E5.32420
G1 X0.608 Y6.416 E5.32826
G1 X6.368 Y-5.077 E5.45815
G1 X6.368 Y-4.274 F12000.000
G1 X1.010 Y6.416 E5.57896 F2160.000
G1 X1.413 Y6.416 E5.58303
G1 X6.368 Y-3.471 E5.69477
G1 X6.368 Y-2.668 F12000.000
G1 X1.815 Y6.416 E5.79743 F2160.000
G1 X2.218 Y6.416 E5.80150
G1 X6.368 Y-1.865 E5.89508
G1 X6.368 Y-1.062 F12000.000
G1 X2.620 Y6.416 E5.97960 F2160.000
G1 X3.022 Y6.416 E5.98366
G1 X6.368 Y-0.259 E6.05910
G1 X6.368 Y0.544 F12000.000
G1 X3.425 Y6.416 E6.12547 F2160.000
G1 X3.827 Y6.416 E6.12953
G1 X6.368 Y1.347 E6.18682
G1 X6.368 Y2.150 F12000.000
G1 X4.230 Y6.416 E6.23504 F2160.000
G1 X4.632 Y6.416 E6.23911
G1 X6.368 Y2.952 E6.27825
G1 X6.368 Y3.755 F12000.000
G1 X5.035 Y6.416 E6.30831 F2160.000
G1 X5.437 Y6.416 E6.31238
G1 X6.368 Y4.558 E6.33337
G1 X6.368 Y5.361 F12000.000
G1 X5.840 Y6.416 E6.34529 F2160.000
G1 X6.368 Y6.164 E6.35120
G1 X6.242 Y6.416 E6.35404
G1 Z0.900 F12000.000
G1 E4.35404 F2400.00000
G92 E0
G1 X3.629 Y3.629 F12000.000
G1 E2.00000 F2400.00000
G1 X-3.629 Y3.629 E2.20162 F900.000
G1 X-3.629 Y-3.629 E2.40325
G1 X3.629 Y-3.629 E2.60487
G1 X3.629 Y3.554 E2.80441
G1 X3.922 Y3.922 F12000.000
G1 X-3.922 Y3.922 E3.02229 F900.000
G1 X-3.922 Y-3.922 E3.24017
G1 X3.922 Y-3.922 E3.45806
G1 X3.922 Y3.847 E3.67386
G1 X4.215 Y4.215 F12000.000
G1 X-4.215 Y4.215 E3.90800 F900.000
G1 X-4.215 Y-4.215 E4.14215
G1 X4.215 Y-4.215 E4.37629
G1 X4.215 Y4.140 E4.60835
G1 X4.507 Y4.507 F12000.000
G1 X-4.507 Y4.507 E4.85876 F900.000
G1 X-4.507 Y-4.507 E5.10916
G1 X4.507 Y-4.507 E5.35957
G1 X4.507 Y4.432 E5.60789
G1 X4.800 Y4.800 F12000.000
G1 X-4.800 Y4.800 E5.87456 F900.000
G1 X-4.800 Y-4.800 E6.14123
G1 X4.800 Y-4.800 E6.40789
G1 X4.800 Y4.725 E6.67248
G1 X3.115 Y3.388 F12000.000
G1 X3.388 Y3.115 E6.68431 F2400.000
G1 X3.388 Y2.302 E6.70919
G1 X2.302 Y3.388 E6.75621
G1 X1.489 Y3.388 E6.78109
G1 X3.388 Y1.489 E6.86329
G1 X3.388 Y0.676 E6.88818
G1 X0.676 Y3.388 E7.00557
G1 X-0.137 Y3.388 E7.03045
G1 X3.388 Y-0.137 E7.18303
G1 X3.388 Y-0.950 E7.20791
G1 X-0.950 Y3.388 E7.39568
G1 X-1.763 Y3.388 E7.42056
G1 X3.388 Y-1.763 E7.64352
G1 X3.388 Y-2.576 E7.66840
G1 X-2.576 Y3.388 E7.92654
G1 X-3.368 Y3.368 E7.95082
G1 X3.368 Y-3.368 E8.24242
G1 X2.576 Y-3.388 E8.26669
G1 X-3.388 Y2.576 E8.52484
G1 X-3.388 Y1.763 E8.54972
G1 X1.763 Y-3.388 E8.77267
G1 X0.950 Y-3.388 E8.79755
G1 X-3.388 Y0.950 E8.98532
G1 X-3.388 Y0.137 E9.01020
G1 X0.137 Y-3.388 E9.16278
G1 X-0.676 Y-3.388 E9.18766
G1 X-3.388 Y-0.676 E9.30506
G1 X-3.388 Y-1.489 E9.32994
G1 X-1.489 Y-3.388 E9.41214
G1 X-2.302 Y-3.388 E9.43703
G1 X-3.388 Y-2.302 E9.48404
G1 X-3.388 Y-3.115 E9.50893
G1 X-3.115 Y-3.388 E9.52076
G1 Z1.100 F12000.000
G1 X3.372 Y3.372 F12000.000
G1 X-3.372 Y3.372 E9.58889 F900.000
G1 X-3.372 Y-3.372 E9.65702
G1 X3.372 Y-3.372 E9.72515
G1 X3.372 Y3.297 E9.79252
G1 X3.729 Y3.729 F12000.000
G1 X-3.729 Y3.729 E9.86787 F900.000
G1 X-3.729 Y-3.729 E9.94321
G1 X3.729 Y-3.729 E10.01856
G1 X3.729 Y3.654 E10.09314
G1 X4.086 Y4.086 F12000.000
G1 X-4.086 Y4.086 E10.17571 F900.000
G1 X-4.086 Y-4.086 E10.25827
G1 X4.086 Y-4.086 E10.34083
G1 X4.086 Y4.011 E10.42263
G1 X4.443 Y4.443 F12000.000
G1 X-4.443 Y4.443 E10.51241 F900.000
G1 X-4.443 Y-4.443 E10.60218
G1 X4.443 Y-4.443 E10.69196
G1 X4.443 Y4.368 E10.78098
G1 X4.800 Y4.800 F12000.000
G1 X-4.800 Y4.800 E10.87797 F900.000
G1 X-4.800 Y-4.800 E10.97496
G1 X4.800 Y-4.800 E11.07195
G1 X4.800 Y4.725 E11.16819
G1 X4.367 Y4.550 F12000.000
G1 X3.164 Y-2.972 F12000.000
G1 X2.972 Y-3.164 E11.17096 F1800.000
G1 X2.461 Y-3.164 E11.17619
G1 X3.164 Y-2.461 E11.18636
G1 X3.164 Y-1.950 E11.19159
G1 X1.950 Y-3.164 E11.20916
G1 X1.438 Y-3.164 E11.21439
G1 X3.164 Y-1.438 E11.23936
G1 X3.164 Y-0.927 E11.24459
G1 X0.927 Y-3.164 E11.27695
G1 X0.416 Y-3.164 E11.28219
G1 X3.164 Y-0.416 E11.32195
G1 X3.164 Y0.096 E11.32718
G1 X-0.096 Y-3.164 E11.37435
G1 X-0.607 Y-3.164 E11.37958
G1 X3.164 Y0.607 E11.43414
G1 X3.164 Y1.118 E11.43937
G1 X-1.118 Y-3.164 E11.50133
G1 X-1.630 Y-3.164 E11.50656
G1 X3.164 Y1.630 E11.57592
G1 X3.164 Y2.141 E11.58116
G1 X-2.141 Y-3.164 E11.65791
G1 X-2.653 Y-3.164 E11.66315
G1 X3.164 Y2.653 E11.74730
G1 X3.144 Y3.144 E11.75234
G1 X-3.144 Y-3.144 E11.84331
G1 X-3.164 Y-2.653 E11.84834
G1 X2.653 Y3.164 E11.93250
G1 X2.141 Y3.164 E11.93773
G1 X-3.164 Y-2.141 E12.01449
G1 X-3.164 Y-1.630 E12.01972
G1 X1.630 Y3.164 E12.08908
G1 X1.118 Y3.164 E12.09431
G1 X-3.164 Y-1.118 E12.15627
G1 X-3.164 Y-0.607 E12.16151
G1 X0.607 Y3.164 E12.21607
G1 X0.096 Y3.164 E12.22130
G1 X-3.164 Y-0.096 E12.26846
G1 X-3.164 Y0.416 E12.27369
G1 X-0.416 Y3.164 E12.31346
G1 X-0.927 Y3.164 E12.31869
G1 X-3.164 Y0.927 E12.35106
G1 X-3.164 Y1.438 E12.35629
G1 X-1.438 Y3.164 E12.38125
G1 X-1.950 Y3.164 E12.38649
G1 X-3.164 Y1.950 E12.40405
G1 X-3.164 Y2.461 E12.40929
G1 X-2.461 Y3.164 E12.41946
G1 X-2.972 Y3.164 E12.42469
G1 X-3.164 Y2.972 E12.42746
M106 S89.25
G1 Z1.300 F12000.000
G1 X3.372 Y3.372 F12000.000
G1 X-3.372 Y3.372 E12.49559 F900.000
G1 X-3.372 Y-3.372 E12.56372
G1 X3.372 Y-3.372 E12.63185
G1 X3.372 Y3.297 E12.69922
G1 X3.729 Y3.729 F12000.000
G1 X-3.729 Y3.729 E12.77457 F900.000
G1 X-3.729 Y-3.729 E12.84991
G1 X3.729 Y-3.729 E12.92526
G1 X3.729 Y3.654 E12.99985
G1 X4.086 Y4.086 F12000.000
G1 X-4.086 Y4.086 E13.08241 F900.000
G1 X-4.086 Y-4.086 E13.16497
G1 X4.086 Y-4.086 E13.24753
G1 X4.086 Y4.011 E13.32933
G1 X4.443 Y4.443 F12000.000
G1 X-4.443 Y4.443 E13.41911 F900.000
G1 X-4.443 Y-4.443 E13.50888
G1 X4.443 Y-4.443 E13.59866
G1 X4.443 Y4.368 E13.68768
G1 X4.800 Y4.800 F12000.000
G1 X-4.800 Y4.800 E13.78467 F900.000
G1 X-4.800 Y-4.800 E13.88166
G1 X4.800 Y-4.800 E13.97865
G1 X4.800 Y4.725 E14.07489
G1 X4.367 Y4.550 F12000.000
G1 X2.972 Y3.164 F12000.000
G1 X3.164 Y2.972 E14.07766 F1800.000
G1 X3.164 Y2.461 E14.08289
G1 X2.461 Y3.164 E14.09306
G1 X1.950 Y3.164 E14.09829
G1 X3.164 Y1.950 E14.11586
G1 X3.164 Y1.438 E14.12109
G1 X1.438 Y3.164 E14.14606
G1 X0.927 Y3.164 E14.15129
G1 X3.164 Y0.927 E14.18366
G1 X3.164 Y0.416 E14.18889
G1 X0.416 Y3.164 E14.22865
G1 X-0.096 Y3.164 E14.23388
G1 X3.164 Y-0.096 E14.28105
G1 X3.164 Y-0.607 E14.28628
G1 X-0.607 Y3.164 E14.34084
G1 X-1.118 Y3.164 E14.34607
G1 X3.164 Y-1.118 E14.40803
G1 X3.164 Y-1.630 E14.41327
G1 X-1.630 Y3.164 E14.48262
G1 X-2.141 Y3.164 E14.48786
G1 X3.164 Y-2.141 E14.56462
G1 X3.164 Y-2.653 E14.56985
G1 X-2.653 Y3.164 E14.65400
G1 X-3.144 Y3.144 E14.65904
G1 X3.144 Y-3.144 E14.75001
G1 X2.653 Y-3.164 E14.75504
G1 X-3.164 Y2.653 E14.83920
G1 X-3.164 Y2.141 E14.84443
G1 X2.141 Y-3.164 E14.92119
G1 X1.630 Y-3.164 E14.92642
G1 X-3.164 Y1.630 E14.99578
G1 X-3.164 Y1.118 E15.00101
G1 X1.118 Y-3.164 E15.06298
G1 X0.607 Y-3.164 E15.06821
G1 X-3.164 Y0.607 E15.12277
G1 X-3.164 Y0.096 E15.12800
G1 X0.096 Y-3.164 E15.17516
G1 X-0.416 Y-3.164 E15.18040
G1 X-3.164 Y-0.416 E15.22016
G1 X-3.164 Y-0.927 E15.22539
G1 X-0.927 Y-3.164 E15.25776
G1 X-1.438 Y-3.164 E15.26299
G1 X-3.164 Y-1.438 E15.28796
G1 X-3.164 Y-1.950 E15.29319
G1 X-1.950 Y-3.164 E15.31076
G1 X-2.461 Y-3.164 E15.31599
G1 X-3.164 Y-2.461 E15.32616
G1 X-3.164 Y-2.972 E15.33139
G1 X-2.972 Y-3.164 E15.33416
G1 Z1.500 F12000.000
G1 X3.372 Y3.372 F12000.000
G1 X-3.372 Y3.372 E15.40229 F900.000
G1 X-3.372 Y-3.372 E15.47042
G1 X3.372 Y-3.372 E15.53855
G1 X3.372 Y3.297 E15.60592
G1 X3.729 Y3.729 F12000.000
G1 X-3.729 Y3.729 E15.68127 F900.000
G1 X-3.729 Y-3.729 E15.75661
G1 X3.729 Y-3.729 E15.83196
G1 X3.729 Y3.654 E15.90655
G1 X4.086 Y4.086 F12000.000
G1 X-4.086 Y4.086 E15.98911 F900.000
G1 X-4.086 Y-4.086 E16.07167
G1 X4.086 Y-4.086 E16.15423
G1 X4.086 Y4.011 E16.23603
G1 X4.443 Y4.443 F12000.000
G1 X-4.443 Y4.443 E16.32581 F900.000
G1 X-4.443 Y-4.443 E16.41558
G1 X4.443 Y-4.443 E16.50536
G1 X4.443 Y4.368 E16.59438
G1 X4.800 Y4.800 F12000.000
G1 X-4.800 Y4.800 E16.69137 F900.000
G1 X-4.800 Y-4.800 E16.78836
G1 X4.800 Y-4.800 E16.88535
G1 X4.800 Y4.725 E16.98159
G1 X4.367 Y4.550 F12000.000
G1 X3.164 Y-2.972 F12000.000
G1 X2.972 Y-3.164 E16.98436 F1800.000
G1 X2.461 Y-3.164 E16.98959
G1 X3.164 Y-2.461 E16.99976
G1 X3.164 Y-1.950 E17.00499
G1 X1.950 Y-3.164 E17.02256
G1 X1.438 Y-3.164 E17.02779
G1 X3.164 Y-1.438 E17.05276
G1 X3.164 Y-0.927 E17.05799
G1 X0.927 Y-3.164 E17.09036
G1 X0.416 Y-3.164 E17.09559
G1 X3.164 Y-0.416 E17.13535
G1 X3.164 Y0.096 E17.14058
G1 X-0.096 Y-3.164 E17.18775
G1 X-0.607 Y-3.164 E17.19298
G1 X3.164 Y0.607 E17.24754
G1 X3.164 Y1.118 E17.25277
G1 X-1.118 Y-3.164 E17.31473
G1 X-1.630 Y-3.164 E17.31997
G1 X3.164 Y1.630 E17.38933
G1 X3.164 Y2.141 E17.39456
G1 X-2.141 Y-3.164 E17.47132
G1 X-2.653 Y-3.164 E17.47655
G1 X3.164 Y2.653 E17.56071
G1 X3.144 Y3.144 E17.56574
G1 X-3.144 Y-3.144 E17.65671
G1 X-3.164 Y-2.653 E17.66175
G1 X2.653 Y3.164 E17.74590
G1 X2.141 Y3.164 E17.75113
G1 X-3.164 Y-2.141 E17.82789
G1 X-3.164 Y-1.630 E17.83312
G1 X1.630 Y3.164 E17.90248
G1 X1.118 Y3.164 E17.90772
G1 X-3.164 Y-1.118 E17.96968
G1 X-3.164 Y-0.607 E17.97491
G1 X0.607 Y3.164 E18.02947
G1 X0.096 Y3.164 E18.03470
G1 X-3.164 Y-0.096 E18.08186
G1 X-3.164 Y0.416 E18.08710
G1 X-0.416 Y3.164 E18.12686
G1 X-0.927 Y3.164 E18.13209
G1 X-3.164 Y0.927 E18.16446
G1 X-3.164 Y1.438 E18.16969
G1 X-1.438 Y3.164 E18.19466
G1 X-1.950 Y3.164 E18.19989
G1 X-3.164 Y1.950 E18.21746
G1 X-3.164 Y2.461 E18.22269
G1 X-2.461 Y3.164 E18.23286
G1 X-2.972 Y3.164 E18.23809
G1 X-3.164 Y2.972 E18.24086
G1 Z1.700 F12000.000
G1 X3.372 Y3.372 F12000.000
G1 X-3.372 Y3.372 E18.30899 F900.000
G1 X-3.372 Y-3.372 E18.37712
G1 X3.372 Y-3.372 E18.44525
G1 X3.372 Y3.297 E18.51262
G1 X3.729 Y3.729 F12000.000
G1 X-3.729 Y3.729 E18.58797 F900.000
G1 X-3.729 Y-3.729 E18.66331
G1 X3.729 Y-3.729 E18.73866
G1 X3.729 Y3.654 E18.81325
G1 X4.086 Y4.086 F12000.000
G1 X-4.086 Y4.086 E18.89581 F900.000
G1 X-4.086 Y-4.086 E18.97837
G1 X4.086 Y-4.086 E19.06093
G1 X4.086 Y4.011 E19.14273
G1 X4.443 Y4.443 F12000.000
G1 X-4.443 Y4.443 E19.23251 F900.000
G1 X-4.443 Y-4.443 E19.32228
G1 X4.443 Y-4.443 E19.41206
G1 X4.443 Y4.368 E19.50108
G1 X4.800 Y4.800 F12000.000
G1 X-4.800 Y4.800 E19.59807 F900.000
G1 X-4.800 Y-4.800 E19.69506
G1 X4.800 Y-4.800 E19.79205
G1 X4.800 Y4.725 E19.88829
G1 X4.367 Y4.550 F12000.000
G1 X2.972 Y3.164 F12000.000
G1 X3.164 Y2.972 E19.89106 F1800.000
G1 X3.164 Y2.461 E19.89629
G1 X2.461 Y3.164 E19.90646
G1 X1.950 Y3.164 E19.91169
G1 X3.164 Y1.950 E19.92926
G1 X3.164 Y1.438 E19.93449
G1 X1.438 Y3.164 E19.95946
G1 X0.927 Y3.164 E19.96469
G1 X3.164 Y0.927 E19.99706
G1 X3.164 Y0.416 E20.00229
G1 X0.416 Y3.164 E20.04205
G1 X-0.096 Y3.164 E20.04728
G1 X3.164 Y-0.096 E20.09445
G1 X3.164 Y-0.607 E20.09968
G1 X-0.607 Y3.164 E20.15424
G1 X-1.118 Y3.164 E20.15947
G1 X3.164 Y-1.118 E20.22143
G1 X3.164 Y-1.630 E20.22667
G1 X-1.630 Y3.164 E20.29603
G1 X-2.141 Y3.164 E20.30126
G1 X3.164 Y-2.141 E20.37802
G1 X3.164 Y-2.653 E20.38325
G1 X-2.653 Y3.164 E20.46741
G1 X-3.144 Y3.144 E20.47244
