;start
;Print id is
;102
; User Name:jjfs85
;          :JOHN F SCIMONE
;User Phone:(203) 123-4567
;
;
;
;
; generated by Slic3r 1.2.9 on 2017-03-25 at 21:24:02

; external perimeters extrusion width = 0.30mm
; perimeters extrusion width = 0.32mm
; infill extrusion width = 0.32mm
; solid infill extrusion width = 0.32mm
; top infill extrusion width = 0.32mm
; support material extrusion width = 0.30mm

M190 S1 ; set bed temperature
G28 ; home all axes
G1 Z140
M400
G1 Z140
;printpage
G1 Y75
G1 Z10



G1 Z5
M109 S200
G21 ; set units to millimeters
G90 ; use absolute coordinates
M82 ; use absolute distances for extrusion
G92 E0
G1 Z0.300 F7800.000
G1 E-2.00000 F2400.00000
G92 E0
G1 X70.166 Y68.075 F7800.000
G1 E2.00000 F2400.00000
G1 X66.561 Y75.267 E2.53742 F1800.000
G1 X66.807 Y77.167 E2.66541
G1 X71.831 Y67.142 E3.41449
G1 X73.257 Y66.689 E3.51441
G1 X67.298 Y78.578 E4.40285
G1 X67.923 Y79.721 E4.48990
G1 X74.549 Y66.502 E5.47773
G1 X75.740 Y66.516 E5.55733
G1 X68.646 Y80.670 E6.61502
G1 X69.446 Y81.464 E6.69035
G1 X76.855 Y66.682 E7.79500
G1 X77.902 Y66.983 E7.86780
G1 X70.314 Y82.124 E8.99921
G1 X71.245 Y82.657 E9.07088
G1 X78.879 Y67.426 E10.20903
G1 X79.809 Y67.960 E10.28070
G1 X72.221 Y83.100 E11.41209
G1 X73.293 Y83.351 E11.48567
G1 X80.669 Y68.637 E12.58525
G1 X81.459 Y69.450 E12.66103
G1 X74.418 Y83.498 E13.71082
G1 X75.625 Y83.482 E13.79144
G1 X82.170 Y70.422 E14.76731
G1 X82.779 Y71.599 E14.85579
G1 X76.929 Y83.269 E15.72789
G1 X78.380 Y82.766 E15.83044
G1 X83.244 Y73.061 E16.55565
G1 X83.436 Y75.069 E16.69036
G1 X80.104 Y81.718 E17.18720
M104 S200 ; set temperature
G1 Z0.520 F7800.000
G1 X73.826 Y81.983 F7800.000
G1 X72.383 Y79.483 E17.25395 F3600.000
G1 X69.088 Y79.483 E17.33013
G1 X68.724 Y80.114 E17.34697
G1 X69.097 Y80.543 E17.36012
G1 X69.457 Y80.903 E17.37188
G1 X69.838 Y81.239 E17.38364
G1 X70.240 Y81.551 E17.39540
G1 X70.661 Y81.837 E17.40716
G1 X71.099 Y82.096 E17.41893
G1 X71.552 Y82.327 E17.43069
G1 X72.019 Y82.529 E17.44245
G1 X72.566 Y82.726 E17.45589
G1 X72.566 Y82.749 E17.45643
G1 X73.411 Y82.938 E17.47646
G1 X73.826 Y82.219 E17.49566
G1 X77.121 Y82.219 E17.57184
G1 X77.414 Y82.727 E17.58540
G1 X77.981 Y82.529 E17.59927
G1 X78.448 Y82.327 E17.61104
G1 X78.901 Y82.096 E17.62280
G1 X79.339 Y81.837 E17.63456
G1 X79.760 Y81.551 E17.64632
G1 X80.162 Y81.239 E17.65808
G1 X80.543 Y80.903 E17.66985
G1 X80.903 Y80.543 E17.68161
G1 X81.239 Y80.162 E17.69337
G1 X81.551 Y79.760 E17.70513
G1 X81.739 Y79.483 E17.71286
G1 X78.565 Y79.483 E17.78625
G1 X77.121 Y81.983 E17.85300
G1 X73.826 Y81.983 E17.92918
G1 X73.826 Y76.512 F7800.000
G1 X72.383 Y74.012 E17.99592 F3600.000
G1 X69.088 Y74.012 E18.07210
G1 X67.645 Y76.512 E18.13885
G1 X67.045 Y76.512 E18.15272
G1 X67.097 Y76.748 E18.15830
G1 X67.645 Y76.748 E18.17096
G1 X69.088 Y79.248 E18.23771
G1 X72.383 Y79.248 E18.31389
G1 X73.826 Y76.748 E18.38064
G1 X77.121 Y76.748 E18.45682
G1 X78.565 Y79.248 E18.52356
G1 X81.860 Y79.248 E18.59974
G1 X82.344 Y78.409 E18.62215
G1 X82.529 Y77.981 E18.63292
G1 X82.701 Y77.502 E18.64469
G1 X82.843 Y77.014 E18.65645
G1 X82.954 Y76.517 E18.66821
G1 X83.030 Y76.040 E18.67939
G1 X81.860 Y74.012 E18.73352
G1 X78.565 Y74.012 E18.80970
G1 X77.121 Y76.512 E18.87645
G1 X73.826 Y76.512 E18.95263
G1 X73.826 Y71.041 F7800.000
G1 X72.383 Y68.541 E19.01937 F3600.000
G1 X70.121 Y68.541 E19.07167
G1 X69.838 Y68.761 E19.07995
G1 X69.457 Y69.097 E19.09171
G1 X69.097 Y69.457 E19.10347
G1 X68.761 Y69.838 E19.11524
G1 X68.449 Y70.240 E19.12700
G1 X68.163 Y70.661 E19.13876
G1 X67.904 Y71.099 E19.15052
G1 X67.734 Y71.432 E19.15916
G1 X69.088 Y73.777 E19.22177
G1 X72.383 Y73.777 E19.29795
G1 X73.826 Y71.277 E19.36469
G1 X77.121 Y71.277 E19.44087
G1 X78.565 Y73.777 E19.50762
G1 X81.860 Y73.777 E19.58380
G1 X82.662 Y72.387 E19.62089
G1 X82.529 Y72.019 E19.62994
G1 X82.327 Y71.552 E19.64171
G1 X82.096 Y71.099 E19.65347
G1 X81.837 Y70.661 E19.66523
G1 X81.551 Y70.240 E19.67699
G1 X81.239 Y69.838 E19.68875
G1 X80.903 Y69.457 E19.70052
G1 X80.543 Y69.097 E19.71228
G1 X80.162 Y68.761 E19.72404
G1 X79.879 Y68.541 E19.73232
G1 X78.565 Y68.541 E19.76270
G1 X77.121 Y71.041 E19.82945
G1 X73.826 Y71.041 E19.90563
G1 X72.383 Y68.305 F7800.000
G1 X73.055 Y67.141 E19.93671 F3600.000
G1 X72.498 Y67.299 E19.95011
G1 X72.019 Y67.471 E19.96187
G1 X71.552 Y67.673 E19.97363
G1 X71.099 Y67.904 E19.98539
G1 X70.451 Y68.305 E20.00301
G1 X72.383 Y68.305 E20.04768
G1 X75.416 Y66.662 F7800.000
G1 X75.000 Y66.649 E20.05730 F3600.000
G1 X74.476 Y66.666 E20.06943
G1 X73.953 Y66.715 E20.08156
G1 X73.435 Y66.797 E20.09369
G1 X72.923 Y66.912 E20.10582
G1 X72.419 Y67.058 E20.11795
G1 X71.926 Y67.236 E20.13008
G1 X71.444 Y67.444 E20.14221
G1 X70.977 Y67.682 E20.15434
G1 X70.525 Y67.949 E20.16647
G1 X70.006 Y68.311 E20.18110
G1 X69.677 Y68.566 E20.19072
G1 X69.284 Y68.913 E20.20285
G1 X68.913 Y69.284 E20.21498
G1 X68.566 Y69.677 E20.22711
G1 X68.244 Y70.092 E20.23924
G1 X67.949 Y70.525 E20.25137
G1 X67.682 Y70.977 E20.26350
G1 X67.444 Y71.444 E20.27563
G1 X67.236 Y71.926 E20.28776
G1 X67.058 Y72.419 E20.29988
G1 X66.912 Y72.923 E20.31201
G1 X66.780 Y73.542 E20.32665
G1 X66.715 Y73.953 E20.33627
G1 X66.666 Y74.476 E20.34840
G1 X66.649 Y75.000 E20.36053
G1 X66.662 Y75.416 E20.37015
G1 X66.715 Y76.047 E20.38478
G1 X66.797 Y76.565 E20.39691
G1 X66.912 Y77.077 E20.40904
G1 X67.058 Y77.581 E20.42117
G1 X67.236 Y78.074 E20.43330
G1 X67.444 Y78.556 E20.44543
G1 X67.682 Y79.023 E20.45756
G1 X67.949 Y79.475 E20.46969
G1 X68.244 Y79.908 E20.48182
G1 X68.566 Y80.323 E20.49395
G1 X68.913 Y80.716 E20.50608
G1 X69.284 Y81.087 E20.51821
G1 X69.677 Y81.434 E20.53034
G1 X70.092 Y81.756 E20.54247
G1 X70.525 Y82.051 E20.55460
G1 X70.977 Y82.318 E20.56673
G1 X71.444 Y82.556 E20.57886
G1 X71.926 Y82.764 E20.59098
G1 X72.313 Y82.904 E20.60050
G1 X72.313 Y82.952 E20.60161
G1 X73.435 Y83.203 E20.62820
G1 X73.953 Y83.285 E20.64033
G1 X74.476 Y83.334 E20.65246
G1 X75.000 Y83.351 E20.66459
G1 X75.524 Y83.334 E20.67672
G1 X76.047 Y83.285 E20.68885
G1 X76.565 Y83.203 E20.70098
G1 X77.077 Y83.088 E20.71311
G1 X77.581 Y82.942 E20.72524
G1 X78.074 Y82.764 E20.73737
G1 X78.556 Y82.556 E20.74950
G1 X79.023 Y82.318 E20.76163
G1 X79.475 Y82.051 E20.77375
G1 X79.908 Y81.756 E20.78588
G1 X80.323 Y81.434 E20.79801
G1 X80.716 Y81.087 E20.81014
G1 X81.087 Y80.716 E20.82227
G1 X81.434 Y80.323 E20.83440
G1 X81.756 Y79.908 E20.84653
G1 X82.051 Y79.475 E20.85866
G1 X82.318 Y79.023 E20.87079
G1 X82.556 Y78.556 E20.88292
G1 X82.764 Y78.074 E20.89505
G1 X82.942 Y77.581 E20.90718
G1 X83.088 Y77.077 E20.91931
G1 X83.203 Y76.565 E20.93144
G1 X83.285 Y76.047 E20.94357
G1 X83.334 Y75.524 E20.95570
G1 X83.351 Y75.000 E20.96783
G1 X83.334 Y74.476 E20.97996
G1 X83.285 Y73.953 E20.99209
G1 X83.203 Y73.435 E21.00421
G1 X82.952 Y72.313 E21.03080
G1 X82.904 Y72.313 E21.03192
G1 X82.764 Y71.926 E21.04143
G1 X82.556 Y71.444 E21.05356
G1 X82.318 Y70.977 E21.06569
G1 X82.051 Y70.525 E21.07782
G1 X81.756 Y70.092 E21.08995
G1 X81.434 Y69.677 E21.10208
G1 X81.087 Y69.284 E21.11421
G1 X80.716 Y68.913 E21.12634
G1 X80.323 Y68.566 E21.13847
G1 X79.908 Y68.244 E21.15060
G1 X79.475 Y67.949 E21.16273
G1 X79.023 Y67.682 E21.17486
G1 X78.556 Y67.444 E21.18699
G1 X78.074 Y67.236 E21.19911
G1 X77.581 Y67.058 E21.21124
G1 X77.077 Y66.912 E21.22337
G1 X76.565 Y66.797 E21.23550
G1 X76.047 Y66.715 E21.24763
G1 X75.416 Y66.662 E21.26226
G1 X78.356 Y67.633 F7800.000
G1 X78.117 Y67.530 E21.26828 F3600.000
G1 X78.565 Y68.305 E21.28899
G1 X79.549 Y68.305 E21.31175
G1 X78.901 Y67.904 E21.32936
G1 X78.356 Y67.633 E21.34344
G1 Z0.750 F7800.000
G1 X78.357 Y67.631 F7800.000
G1 X78.115 Y67.527 E21.34975 F3600.000
G1 X78.565 Y68.305 E21.37131
G1 X79.553 Y68.305 E21.39498
G1 X78.902 Y67.902 E21.41333
G1 X78.357 Y67.631 E21.42793
G1 X75.416 Y66.662 F7800.000
G1 X75.000 Y66.649 E21.43790 F3600.000
G1 X74.476 Y66.666 E21.45048
G1 X73.953 Y66.715 E21.46305
G1 X73.435 Y66.797 E21.47562
G1 X72.923 Y66.912 E21.48819
G1 X72.419 Y67.058 E21.50077
G1 X71.926 Y67.236 E21.51334
G1 X71.444 Y67.444 E21.52591
G1 X70.977 Y67.682 E21.53849
G1 X70.525 Y67.949 E21.55106
G1 X70.006 Y68.311 E21.56623
G1 X69.677 Y68.566 E21.57620
G1 X69.284 Y68.913 E21.58878
G1 X68.913 Y69.284 E21.60135
G1 X68.566 Y69.677 E21.61392
G1 X68.244 Y70.092 E21.62650
G1 X67.949 Y70.525 E21.63907
G1 X67.682 Y70.977 E21.65164
G1 X67.444 Y71.444 E21.66422
G1 X67.236 Y71.926 E21.67679
G1 X67.058 Y72.419 E21.68936
G1 X66.912 Y72.923 E21.70193
G1 X66.780 Y73.542 E21.71710
G1 X66.715 Y73.953 E21.72708
G1 X66.666 Y74.476 E21.73965
G1 X66.649 Y75.000 E21.75222
G1 X66.662 Y75.416 E21.76220
G1 X66.715 Y76.047 E21.77736
G1 X66.797 Y76.565 E21.78994
G1 X66.912 Y77.077 E21.80251
G1 X67.058 Y77.581 E21.81508
G1 X67.236 Y78.074 E21.82766
G1 X67.444 Y78.556 E21.84023
G1 X67.682 Y79.023 E21.85280
G1 X67.949 Y79.475 E21.86538
G1 X68.244 Y79.908 E21.87795
G1 X68.566 Y80.323 E21.89052
G1 X68.913 Y80.716 E21.90310
G1 X69.284 Y81.087 E21.91567
G1 X69.677 Y81.434 E21.92824
G1 X70.092 Y81.756 E21.94082
G1 X70.525 Y82.051 E21.95339
G1 X70.977 Y82.318 E21.96596
G1 X71.444 Y82.556 E21.97854
G1 X71.926 Y82.764 E21.99111
G1 X72.313 Y82.904 E22.00097
G1 X72.313 Y82.952 E22.00213
G1 X73.435 Y83.203 E22.02969
G1 X73.953 Y83.285 E22.04226
G1 X74.476 Y83.334 E22.05483
G1 X75.000 Y83.351 E22.06741
G1 X75.524 Y83.334 E22.07998
G1 X76.047 Y83.285 E22.09255
G1 X76.565 Y83.203 E22.10513
G1 X77.077 Y83.088 E22.11770
G1 X77.581 Y82.942 E22.13027
G1 X78.074 Y82.764 E22.14284
G1 X78.556 Y82.556 E22.15542
G1 X79.023 Y82.318 E22.16799
G1 X79.475 Y82.051 E22.18056
G1 X79.908 Y81.756 E22.19314
G1 X80.323 Y81.434 E22.20571
G1 X80.716 Y81.087 E22.21828
G1 X81.087 Y80.716 E22.23086
G1 X81.434 Y80.323 E22.24343
G1 X81.756 Y79.908 E22.25600
G1 X82.051 Y79.475 E22.26858
G1 X82.318 Y79.023 E22.28115
G1 X82.556 Y78.556 E22.29372
G1 X82.764 Y78.074 E22.30630
G1 X82.942 Y77.581 E22.31887
G1 X83.088 Y77.077 E22.33144
G1 X83.203 Y76.565 E22.34402
G1 X83.285 Y76.047 E22.35659
G1 X83.334 Y75.524 E22.36916
G1 X83.351 Y75.000 E22.38174
G1 X83.334 Y74.476 E22.39431
G1 X83.285 Y73.953 E22.40688
G1 X83.203 Y73.435 E22.41945
G1 X82.952 Y72.313 E22.44702
G1 X82.904 Y72.313 E22.44817
G1 X82.764 Y71.926 E22.45803
G1 X82.556 Y71.444 E22.47061
G1 X82.318 Y70.977 E22.48318
G1 X82.051 Y70.525 E22.49575
G1 X81.756 Y70.092 E22.50833
G1 X81.434 Y69.677 E22.52090
G1 X81.087 Y69.284 E22.53347
G1 X80.716 Y68.913 E22.54604
G1 X80.323 Y68.566 E22.55862
G1 X79.908 Y68.244 E22.57119
G1 X79.475 Y67.949 E22.58376
G1 X79.023 Y67.682 E22.59634
G1 X78.556 Y67.444 E22.60891
G1 X78.074 Y67.236 E22.62148
G1 X77.581 Y67.058 E22.63406
G1 X77.077 Y66.912 E22.64663
G1 X76.565 Y66.797 E22.65920
G1 X76.047 Y66.715 E22.67178
G1 X75.416 Y66.662 E22.68694
G1 X72.383 Y68.305 F7800.000
G1 X73.057 Y67.139 E22.71923 F3600.000
G1 X72.497 Y67.297 E22.73317
G1 X72.018 Y67.469 E22.74536
G1 X71.551 Y67.671 E22.75756
G1 X71.098 Y67.902 E22.76975
G1 X70.447 Y68.305 E22.78810
G1 X72.383 Y68.305 E22.83449
G1 X73.826 Y71.041 F7800.000
G1 X72.383 Y68.541 E22.90368 F3600.000
G1 X70.118 Y68.541 E22.95797
G1 X69.837 Y68.759 E22.96649
G1 X69.455 Y69.095 E22.97868
G1 X69.095 Y69.455 E22.99088
G1 X68.759 Y69.837 E23.00307
G1 X68.447 Y70.239 E23.01527
G1 X68.161 Y70.660 E23.02746
G1 X67.902 Y71.098 E23.03966
G1 X67.733 Y71.429 E23.04858
G1 X69.088 Y73.777 E23.11354
G1 X72.383 Y73.777 E23.19251
G1 X73.826 Y71.277 E23.26169
G1 X77.121 Y71.277 E23.34066
G1 X78.565 Y73.777 E23.40985
G1 X81.860 Y73.777 E23.48882
G1 X82.663 Y72.385 E23.52733
G1 X82.531 Y72.018 E23.53667
G1 X82.329 Y71.551 E23.54887
G1 X82.098 Y71.098 E23.56106
G1 X81.839 Y70.660 E23.57326
G1 X81.553 Y70.239 E23.58545
G1 X81.241 Y69.837 E23.59765
G1 X80.905 Y69.455 E23.60985
G1 X80.545 Y69.095 E23.62204
G1 X80.163 Y68.759 E23.63424
G1 X79.882 Y68.541 E23.64276
G1 X78.565 Y68.541 E23.67433
G1 X77.121 Y71.041 E23.74352
G1 X73.826 Y71.041 E23.82249
G1 X73.826 Y76.512 F7800.000
G1 X72.383 Y74.012 E23.89168 F3600.000
G1 X69.088 Y74.012 E23.97064
G1 X67.645 Y76.512 E24.03983
G1 X67.043 Y76.512 E24.05426
G1 X67.095 Y76.748 E24.06005
G1 X67.645 Y76.748 E24.07322
G1 X69.088 Y79.248 E24.14241
G1 X72.383 Y79.248 E24.22138
G1 X73.826 Y76.748 E24.29057
G1 X77.121 Y76.748 E24.36953
G1 X78.565 Y79.248 E24.43872
G1 X81.860 Y79.248 E24.51769
G1 X82.353 Y78.392 E24.54136
G1 X82.531 Y77.982 E24.55209
G1 X82.703 Y77.503 E24.56428
G1 X82.845 Y77.014 E24.57648
G1 X82.956 Y76.518 E24.58867
G1 X83.032 Y76.043 E24.60021
G1 X81.860 Y74.012 E24.65639
G1 X78.565 Y74.012 E24.73536
G1 X77.121 Y76.512 E24.80455
G1 X73.826 Y76.512 E24.88352
G1 X73.826 Y81.983 F7800.000
G1 X72.383 Y79.483 E24.95270 F3600.000
G1 X69.088 Y79.483 E25.03167
G1 X68.723 Y80.116 E25.04919
G1 X69.095 Y80.545 E25.06280
G1 X69.455 Y80.905 E25.07499
G1 X69.837 Y81.241 E25.08719
G1 X70.218 Y81.536 E25.09874
G1 X70.660 Y81.839 E25.11158
G1 X71.098 Y82.098 E25.12377
G1 X71.551 Y82.329 E25.13597
G1 X72.018 Y82.531 E25.14816
G1 X72.564 Y82.727 E25.16206
G1 X72.564 Y82.751 E25.16262
G1 X73.410 Y82.940 E25.18341
G1 X73.826 Y82.219 E25.20337
G1 X77.121 Y82.219 E25.28234
G1 X77.416 Y82.729 E25.29645
G1 X77.982 Y82.531 E25.31082
G1 X78.449 Y82.329 E25.32301
G1 X78.902 Y82.098 E25.33521
G1 X79.340 Y81.839 E25.34741
G1 X79.761 Y81.553 E25.35960
G1 X80.163 Y81.241 E25.37180
G1 X80.545 Y80.905 E25.38399
G1 X80.905 Y80.545 E25.39619
G1 X81.241 Y80.163 E25.40838
G1 X81.553 Y79.761 E25.42058
G1 X81.742 Y79.483 E25.42862
G1 X78.565 Y79.483 E25.50476
G1 X77.121 Y81.983 E25.57395
G1 X73.826 Y81.983 E25.65292
G1 Z0.970 F7800.000
G1 X77.121 Y81.983 E25.72910 F3600.000
G1 X78.565 Y79.483 E25.79584
G1 X81.739 Y79.483 E25.86924
G1 X81.551 Y79.760 E25.87696
G1 X81.239 Y80.162 E25.88872
G1 X80.903 Y80.543 E25.90048
G1 X80.543 Y80.903 E25.91225
G1 X80.162 Y81.239 E25.92401
G1 X79.760 Y81.551 E25.93577
G1 X79.339 Y81.837 E25.94753
G1 X78.901 Y82.096 E25.95930
G1 X78.448 Y82.327 E25.97106
G1 X77.981 Y82.529 E25.98282
G1 X77.414 Y82.727 E25.99669
G1 X77.121 Y82.219 E26.01025
G1 X73.826 Y82.219 E26.08643
G1 X73.411 Y82.938 E26.10564
G1 X72.566 Y82.749 E26.12567
G1 X72.566 Y82.726 E26.12621
G1 X72.019 Y82.529 E26.13964
G1 X71.552 Y82.327 E26.15140
G1 X71.099 Y82.096 E26.16317
G1 X70.661 Y81.837 E26.17493
G1 X70.219 Y81.535 E26.18731
G1 X69.838 Y81.239 E26.19845
G1 X69.457 Y80.903 E26.21021
G1 X69.097 Y80.543 E26.22198
G1 X68.724 Y80.114 E26.23512
G1 X69.088 Y79.483 E26.25196
G1 X72.383 Y79.483 E26.32815
G1 X73.826 Y81.983 E26.39489
G1 X73.826 Y76.512 F7800.000
G1 X72.383 Y74.012 E26.46164 F3600.000
G1 X69.088 Y74.012 E26.53782
G1 X67.645 Y76.512 E26.60456
G1 X67.045 Y76.512 E26.61843
G1 X67.097 Y76.748 E26.62402
G1 X67.645 Y76.748 E26.63668
G1 X69.088 Y79.248 E26.70342
G1 X72.383 Y79.248 E26.77960
G1 X73.826 Y76.748 E26.84635
G1 X77.121 Y76.748 E26.92253
G1 X78.565 Y79.248 E26.98928
G1 X81.860 Y79.248 E27.06546
G1 X82.344 Y78.409 E27.08786
G1 X82.529 Y77.981 E27.09864
G1 X82.701 Y77.502 E27.11040
G1 X82.843 Y77.014 E27.12216
G1 X82.954 Y76.517 E27.13392
G1 X83.030 Y76.040 E27.14511
G1 X81.860 Y74.012 E27.19923
G1 X78.565 Y74.012 E27.27542
G1 X77.121 Y76.512 E27.34216
G1 X73.826 Y76.512 E27.41834
G1 X73.826 Y71.041 F7800.000
G1 X72.383 Y68.541 E27.48509 F3600.000
G1 X70.121 Y68.541 E27.53738
G1 X69.838 Y68.761 E27.54566
G1 X69.457 Y69.097 E27.55743
G1 X69.097 Y69.457 E27.56919
G1 X68.761 Y69.838 E27.58095
G1 X68.449 Y70.240 E27.59271
G1 X68.163 Y70.661 E27.60448
G1 X67.904 Y71.099 E27.61624
G1 X67.734 Y71.432 E27.62487
G1 X69.088 Y73.777 E27.68748
G1 X72.383 Y73.777 E27.76366
G1 X73.826 Y71.277 E27.83041
G1 X77.121 Y71.277 E27.90659
G1 X78.565 Y73.777 E27.97333
G1 X81.860 Y73.777 E28.04951
G1 X82.662 Y72.387 E28.08661
G1 X82.529 Y72.019 E28.09566
G1 X82.327 Y71.552 E28.10742
G1 X82.096 Y71.099 E28.11918
G1 X81.837 Y70.661 E28.13094
G1 X81.551 Y70.240 E28.14271
G1 X81.239 Y69.838 E28.15447
G1 X80.903 Y69.457 E28.16623
G1 X80.543 Y69.097 E28.17799
G1 X80.162 Y68.761 E28.18975
G1 X79.879 Y68.541 E28.19804
G1 X78.565 Y68.541 E28.22842
G1 X77.121 Y71.041 E28.29516
G1 X73.826 Y71.041 E28.37135
G1 X72.383 Y68.305 F7800.000
