G28
;DOWN ALL THE WAY 
M340 P0 S1700
G4 P30000
M340 P0 S1200

;ALL THE WAY UP
M340 P0 S900
G4 P31000
M340 P0 S1500

;DOWN FOR THE PRINTER PAGE
M340 P0 S1700
G4 P4000
M340 P0 S1200


;printpage

;ALL THE WAY UP
M340 P0 S900
G4 P7000
M340 P0 S1500





;start
;Print id is
;68
; User Name:drew
;          :Drew Gates
;User Phone:(555) 867-5309
;
;
;
;
; generated by Slic3r 1.2.9 on 2017-07-07 at 04:02:32

; external perimeters extrusion width = 0.50mm
; perimeters extrusion width = 0.72mm
; infill extrusion width = 0.72mm
; solid infill extrusion width = 0.72mm
; top infill extrusion width = 0.72mm
; support material extrusion width = 0.50mm

M107
M104 S210 ; set temperature
M112
G28
M109 S210 ; wait for temperature to be reached
G21 ; set units to millimeters
G90 ; use absolute coordinates
M82 ; use absolute distances for extrusion
G92 E0
G1 Z0.500 F12000.000
G1 E-0.10000 F2400.00000
G92 E0
G1 X-10.922 Y-7.757 F12000.000
G1 E0.10000 F2400.00000
G1 X-3.013 Y-18.894 E0.96254 F1800.000
G1 X-1.354 Y-20.544 E1.11028
G1 X0.761 Y-21.544 E1.25802
G1 X2.815 Y-21.792 E1.38867
G1 X4.068 Y-21.754 E1.46779
G1 X5.639 Y-21.524 E1.56807 F1800.000
G1 X7.400 Y-21.053 E1.68318
G1 X9.393 Y-20.440 E1.81486
G1 X12.207 Y-18.747 E2.02219
G1 X12.662 Y-18.295 E2.06271
G1 X14.018 Y-16.388 E2.21045
G1 X14.576 Y-14.686 E2.32353
G1 X14.868 Y-13.147 E2.42247
G1 X14.969 Y-12.370 E2.47191
G1 X16.144 Y3.655 E3.48655
G1 X16.184 Y4.466 E3.53786
G1 X16.163 Y5.446 E3.59973
G1 X16.008 Y7.107 E3.70508
G1 X15.709 Y8.570 E3.79939
G1 X15.210 Y10.127 E3.90262
G1 X14.811 Y11.106 E3.96936
G1 X14.083 Y12.537 E4.07075
G1 X13.681 Y13.246 E4.12219
G1 X13.271 Y13.883 E4.17004
G1 X12.511 Y14.933 E4.25188
G1 X12.029 Y15.525 E4.30009
G1 X11.578 Y16.022 E4.34247
G1 X10.862 Y16.702 E4.40482
G1 X9.857 Y17.523 E4.48678
G1 X9.132 Y18.076 E4.54434
G1 X8.514 Y18.498 E4.59160
G1 X7.261 Y19.256 E4.68404
G1 X5.681 Y19.958 E4.79327
G1 X3.329 Y20.666 E4.94836
G1 X1.637 Y20.952 E5.05671
G1 X-0.404 Y21.040 E5.18571
G1 X-1.840 Y20.951 E5.27653
G1 X-3.682 Y20.642 E5.39448
G1 X-4.988 Y20.288 E5.47993
G1 X-6.666 Y19.651 E5.59326
G1 X-7.861 Y19.059 E5.67747
G1 X-9.383 Y18.112 E5.79069
G1 X-10.487 Y17.259 E5.87876
G1 X-11.840 Y15.974 E5.99658
G1 X-12.787 Y14.861 E6.08885
G1 X-13.939 Y13.175 E6.21783
G1 X-14.675 Y11.773 E6.31778
G1 X-15.545 Y9.524 E6.47007
G1 X-15.981 Y7.650 E6.59156
G1 X-16.145 Y5.746 E6.71221
G1 X-16.183 Y4.932 E6.76370
G1 X-16.177 Y4.173 E6.81165
G1 X-16.091 Y2.813 E6.89767
G1 X-15.804 Y1.232 E6.99914
G1 X-15.236 Y-0.626 E7.12182
G1 X-14.810 Y-1.693 E7.19440
G1 X-14.172 Y-2.944 E7.28306
G1 X-13.672 Y-3.825 E7.34699
G1 X-13.298 Y-4.411 E7.39091
G1 X-10.966 Y-7.696 E7.64532
G1 E7.54532 F2400.00000
G92 E0
G1 X-6.722 Y-1.722 F12000.000
G1 E0.10000 F2400.00000
G1 X-9.212 Y3.247 E0.45099 F1800.000
G1 X-9.116 Y7.039 E0.69049
G1 X-3.583 Y-3.999 E1.47014
G1 X-1.259 Y-4.653 E1.62263
G1 X-8.246 Y9.288 E2.60735
G1 X-7.094 Y10.975 E2.73632
G1 X0.773 Y-4.723 E3.84510
G1 X2.611 Y-4.404 E3.96287
G1 X-5.741 Y12.260 E5.13990
G1 X-4.219 Y13.207 E5.25312
G1 X4.281 Y-3.752 E6.45100
G1 X5.796 Y-2.791 E6.56432
G1 X-2.541 Y13.844 E7.73929
G1 X-0.699 Y14.153 E7.85724
G1 X7.146 Y-1.500 E8.96285
G1 X8.290 Y0.203 E9.09238
G1 X1.342 Y14.066 E10.07154
G1 X3.694 Y13.358 E10.22664
G1 X9.147 Y2.479 E10.99507
G1 X9.145 Y6.467 E11.24691
G1 X6.928 Y10.890 E11.55937
G1 E11.45937 F2400.00000
G92 E0
G1 X0.933 Y-5.042 F12000.000
G1 E0.10000 F2400.00000
G1 X5.621 Y-14.394 E0.76058 F1800.000
G1 X7.349 Y-13.857 E0.87484
G1 X6.865 Y-12.892 E0.94301
G1 X6.918 Y-9.014 E1.18792
G1 X4.523 Y-4.235 E1.52546
G1 X2.793 Y-4.768 E1.63977
G1 X6.395 Y-11.954 E2.14739
G1 X7.937 Y-11.046 E2.26039
G1 X6.865 Y-8.908 E2.41142
G1 E2.31142 F2400.00000
G92 E0
G1 X2.922 Y-12.995 F12000.000
G1 E0.10000 F2400.00000
G1 X3.859 Y-14.865 E0.23207 F1800.000
G1 Z0.880 F12000.000
G1 X5.046 Y-13.828 F12000.000
G1 X4.253 Y-14.037 E0.25051 F3257.636
G1 X3.277 Y-14.037 E0.27246
G1 X3.656 Y-12.651 E0.30478
G1 X3.079 Y-10.165 E0.36218
G1 X2.985 Y-10.191 E0.36437
G1 X2.828 Y-9.673 E0.37655
G1 X2.962 Y-9.673 E0.37958
G1 X2.710 Y-8.601 E0.40435
G1 X4.857 Y-8.601 E0.45264
G1 X4.273 Y-8.893 E0.46733
G1 X4.516 Y-9.923 E0.49114
G1 X5.689 Y-9.923 E0.51752
G1 X5.837 Y-10.179 E0.52416
G1 X5.837 Y-12.459 E0.57545
G1 X5.046 Y-13.828 E0.61102
G1 X5.338 Y-14.184 F12000.000
G1 X2.607 Y-14.903 E0.67455 F3257.636
G1 X3.225 Y-12.642 E0.72726
G1 X2.770 Y-10.685 E0.77246
G1 X2.703 Y-10.704 E0.77401
G1 X2.264 Y-9.255 E0.80808
G1 X2.434 Y-9.255 E0.81192
G1 X2.258 Y-8.505 E0.82925
G1 X2.036 Y-8.505 E0.83424
G1 X1.064 Y-5.300 E0.90957
G1 X1.970 Y-5.207 E0.93006
G1 X2.687 Y-4.995 E0.94687
G1 X2.704 Y-5.069 E0.94858
G1 X3.287 Y-4.953 E0.96194
G1 X3.358 Y-4.922 E0.96369
G1 X3.524 Y-4.894 E0.96748
G1 X3.555 Y-4.864 E0.96845
G1 X3.834 Y-4.777 E0.97503
G1 X4.113 Y-4.632 E0.98210
G1 X4.204 Y-4.717 E0.98488
G1 X4.995 Y-4.308 E1.00492
G1 X5.412 Y-4.168 E1.01483
G1 X5.334 Y-3.855 E1.02209
G1 X5.615 Y-3.705 E1.02925
G1 X5.934 Y-3.444 E1.03852
G1 X6.090 Y-3.444 E1.04204
G1 X6.255 Y-4.095 E1.05714
G1 X6.255 Y-6.057 E1.10128
G1 X6.532 Y-5.899 E1.10846
G1 X6.567 Y-6.034 E1.11160
G1 X6.737 Y-6.013 E1.11547
G1 X7.260 Y-8.098 E1.16383
G1 X7.102 Y-8.151 E1.16758
G1 X7.630 Y-10.246 E1.21619
G1 X8.095 Y-11.866 E1.25409
G1 X7.804 Y-13.405 E1.28934
G1 X7.005 Y-13.671 E1.30828
G1 X7.005 Y-8.755 E1.41888
G1 X6.063 Y-8.755 E1.44007
G1 X6.324 Y-9.616 E1.46031
G1 X6.255 Y-9.637 E1.46194
G1 X6.255 Y-13.902 E1.55786
G1 X5.338 Y-14.184 E1.57944
G1 E1.47944 F2400.00000
G92 E0
G1 X7.567 Y-11.537 F12000.000
G1 E0.10000 F2400.00000
G1 X7.423 Y-11.537 E0.10324 F3257.636
G1 X7.423 Y-11.101 E0.11304
G1 X7.444 Y-11.101 E0.11351
G1 X7.567 Y-11.537 E0.12369
G1 E0.02369 F2400.00000
G92 E0
G1 X4.847 Y-9.505 F12000.000
G1 E0.10000 F2400.00000
G1 X5.789 Y-9.505 E0.12119 F3257.636
G1 X5.592 Y-8.806 E0.13752
G1 X5.024 Y-8.985 E0.15092
G1 X4.756 Y-9.119 E0.15765
G1 X4.847 Y-9.505 E0.16656
G1 E0.06656 F2400.00000
G92 E0
G1 X5.837 Y-6.588 F12000.000
G1 E0.10000 F2400.00000
G1 X4.926 Y-8.165 E0.14099 F3257.636
G1 X2.608 Y-8.165 E0.19312
G1 X2.589 Y-8.086 E0.19495
G1 X2.346 Y-8.086 E0.20042
G1 X1.612 Y-5.665 E0.25734
G1 X2.048 Y-5.620 E0.26721
G1 X2.381 Y-5.526 E0.27498
G1 X2.388 Y-5.559 E0.27575
G1 X3.412 Y-5.354 E0.29922
G1 X3.477 Y-5.327 E0.30081
G1 X3.726 Y-5.285 E0.30649
G1 X3.768 Y-5.243 E0.30784
G1 X4.044 Y-5.140 E0.31446
G1 X4.131 Y-5.221 E0.31713
G1 X5.237 Y-4.668 E0.34495
G1 X5.837 Y-4.468 E0.35917
G1 X5.837 Y-6.588 E0.40685
G1 E0.30685 F2400.00000
G92 E0
G1 X1.494 Y-4.385 F12000.000
G1 E0.10000 F2400.00000
G1 X-0.000 Y-4.524 E0.13376 F3257.636
G1 X-1.796 Y-4.355 E0.17433
G1 X-3.535 Y-3.827 E0.21523
G1 X-5.133 Y-2.967 E0.25605
G1 X-6.534 Y-1.829 E0.29666
G1 X-7.679 Y-0.420 E0.33749
G1 X-8.535 Y1.172 E0.37815
G1 X-9.062 Y2.906 E0.41892
G1 X-9.244 Y4.717 E0.45986
G1 X-9.062 Y6.509 E0.50040
G1 X-8.536 Y8.244 E0.54117
G1 X-7.676 Y9.842 E0.58200
G1 X-6.537 Y11.242 E0.62260
G1 X-5.132 Y12.396 E0.66350
G1 X-3.536 Y13.243 E0.70414
G1 X-1.799 Y13.773 E0.74500
G1 X0.004 Y13.952 E0.78575
G1 X1.805 Y13.772 E0.82646
G1 X3.535 Y13.244 E0.86716
G1 X5.130 Y12.398 E0.90778
G1 X6.536 Y11.243 E0.94871
G1 X7.688 Y9.841 E0.98953
G1 X8.535 Y8.245 E1.03017
G1 X9.064 Y6.508 E1.07102
G1 X9.243 Y4.717 E1.11150
G1 X9.063 Y2.905 E1.15248
G1 X8.536 Y1.174 E1.19319
G1 X7.689 Y-0.421 E1.23381
G1 X6.534 Y-1.828 E1.27474
G1 X5.129 Y-2.970 E1.31549
G1 X3.537 Y-3.827 E1.35615
G1 X1.803 Y-4.353 E1.39691
G1 X1.494 Y-4.385 E1.40390
G1 X1.454 Y-3.969 F12000.000
G1 X0.519 Y-4.055 E1.42501 F3257.636
G1 X1.284 Y-2.730 E1.45945
G1 X4.690 Y-2.730 E1.53606
G1 X3.376 Y-3.438 E1.56965
G1 X1.720 Y-3.941 E1.60857
G1 X1.454 Y-3.969 E1.61460
G1 X-3.800 Y0.206 F12000.000
G1 X-5.244 Y-2.294 E1.67954 F3257.636
G1 X-5.296 Y-2.294 E1.68072
G1 X-6.237 Y-1.531 E1.70798
G1 X-7.329 Y-0.188 E1.74691
G1 X-8.147 Y1.333 E1.78576
G1 X-8.650 Y2.989 E1.82468
G1 X-8.665 Y3.141 E1.82813
G1 X-5.244 Y3.141 E1.90511
G1 X-3.800 Y0.641 E1.97004
G1 X-0.159 Y0.641 E2.05196
G1 X1.284 Y3.141 E2.11690
G1 X4.926 Y3.141 E2.19881
G1 X6.369 Y0.641 E2.26375
G1 X7.779 Y0.641 E2.29547
G1 X7.548 Y0.206 E2.30656
G1 X6.369 Y0.206 E2.33309
G1 X4.926 Y-2.294 E2.39802
G1 X1.284 Y-2.294 E2.47994
G1 X-0.159 Y0.206 E2.54488
G1 X-3.800 Y0.206 E2.62679
G1 X-3.800 Y6.077 F12000.000
G1 X-5.244 Y3.577 E2.69173 F3257.636
G1 X-8.709 Y3.577 E2.76969
G1 X-8.823 Y4.716 E2.79543
G1 X-8.650 Y6.427 E2.83412
G1 X-8.147 Y8.083 E2.87305
G1 X-7.647 Y9.013 E2.89680
G1 X-5.244 Y9.013 E2.95087
G1 X-3.800 Y6.513 E3.01581
G1 X-0.159 Y6.513 E3.09772
G1 X1.284 Y9.013 E3.16266
G1 X4.926 Y9.013 E3.24457
G1 X6.369 Y6.513 E3.30951
G1 X8.625 Y6.513 E3.36027
G1 X8.652 Y6.426 E3.36230
G1 X8.686 Y6.077 E3.37020
G1 X6.369 Y6.077 E3.42231
G1 X4.926 Y3.577 E3.48725
G1 X1.284 Y3.577 E3.56917
G1 X-0.159 Y6.077 E3.63410
G1 X-3.800 Y6.077 E3.71602
G1 X-3.800 Y11.948 F12000.000
G1 X-5.244 Y9.448 E3.78096 F3257.636
G1 X-7.413 Y9.448 E3.82975
G1 X-7.326 Y9.608 E3.83383
G1 X-6.239 Y10.946 E3.87260
G1 X-4.899 Y12.047 E3.91163
G1 X-3.909 Y12.572 E3.93683
G1 X-3.800 Y12.384 E3.94172
G1 X-0.159 Y12.384 E4.02363
G1 X0.477 Y13.485 E4.05224
G1 X1.721 Y13.360 E4.08037
G1 X3.374 Y12.856 E4.11925
G1 X4.897 Y12.047 E4.15804
G1 X5.934 Y11.196 E4.18823
G1 X4.926 Y9.448 E4.23362
G1 X1.284 Y9.448 E4.31553
G1 X-0.159 Y11.948 E4.38047
G1 X-3.800 Y11.948 E4.46238
G1 Z1.250 F12000.000
G1 X-0.159 Y11.948 E4.54255 F3256.728
G1 X1.284 Y9.448 E4.60610
G1 X4.926 Y9.448 E4.68627
G1 X5.933 Y11.194 E4.73065
G1 X4.896 Y12.046 E4.76020
G1 X3.373 Y12.854 E4.79815
G1 X1.721 Y13.358 E4.83619
G1 X0.475 Y13.483 E4.86374
G1 X-0.159 Y12.384 E4.89168
G1 X-3.800 Y12.384 E4.97185
G1 X-3.908 Y12.570 E4.97658
G1 X-4.897 Y12.045 E5.00125
G1 X-6.238 Y10.944 E5.03943
G1 X-7.325 Y9.607 E5.07737
G1 X-7.410 Y9.448 E5.08134
G1 X-5.244 Y9.448 E5.12903
G1 X-3.800 Y11.948 E5.19259
G1 X-3.800 Y6.077 F12000.000
G1 X-5.244 Y3.577 E5.25614 F3256.728
G1 X-8.707 Y3.577 E5.33239
G1 X-8.821 Y4.716 E5.35759
G1 X-8.648 Y6.427 E5.39545
G1 X-8.145 Y8.082 E5.43354
G1 X-7.645 Y9.013 E5.45679
G1 X-5.244 Y9.013 E5.50966
G1 X-3.800 Y6.513 E5.57321
G1 X-0.159 Y6.513 E5.65338
G1 X1.284 Y9.013 E5.71693
G1 X4.926 Y9.013 E5.79710
G1 X6.369 Y6.513 E5.86065
G1 X8.623 Y6.513 E5.91028
G1 X8.650 Y6.426 E5.91228
G1 X8.684 Y6.077 E5.92000
G1 X6.369 Y6.077 E5.97096
G1 X4.926 Y3.577 E6.03451
G1 X1.284 Y3.577 E6.11468
G1 X-0.159 Y6.077 E6.17823
G1 X-3.800 Y6.077 E6.25840
G1 X-3.800 Y0.206 F12000.000
G1 X-5.244 Y-2.294 E6.32195 F3256.728
G1 X-5.293 Y-2.294 E6.32303
G1 X-6.235 Y-1.529 E6.34976
G1 X-7.327 Y-0.187 E6.38785
G1 X-8.145 Y1.334 E6.42586
G1 X-8.648 Y2.989 E6.46395
G1 X-8.663 Y3.141 E6.46732
G1 X-5.244 Y3.141 E6.54260
G1 X-3.800 Y0.641 E6.60616
G1 X-0.159 Y0.641 E6.68632
G1 X1.284 Y3.141 E6.74988
G1 X4.926 Y3.141 E6.83004
G1 X6.369 Y0.641 E6.89360
G1 X7.777 Y0.641 E6.92459
G1 X7.546 Y0.206 E6.93544
G1 X6.369 Y0.206 E6.96135
G1 X4.926 Y-2.294 E7.02490
G1 X1.284 Y-2.294 E7.10507
G1 X-0.159 Y0.206 E7.16862
G1 X-3.800 Y0.206 E7.24879
G1 X1.453 Y-3.966 F12000.000
G1 X0.520 Y-4.053 E7.26942 F3256.728
G1 X1.284 Y-2.730 E7.30306
G1 X4.685 Y-2.730 E7.37794
G1 X3.375 Y-3.436 E7.41072
G1 X1.720 Y-3.939 E7.44880
G1 X1.453 Y-3.966 E7.45470
G1 X1.494 Y-4.385 F12000.000
G1 X-0.000 Y-4.524 E7.48774 F3256.728
G1 X-1.796 Y-4.355 E7.52745
G1 X-3.535 Y-3.827 E7.56747
G1 X-5.133 Y-2.967 E7.60742
G1 X-6.534 Y-1.829 E7.64716
G1 X-7.679 Y-0.420 E7.68712
G1 X-8.535 Y1.172 E7.72692
G1 X-9.062 Y2.906 E7.76682
G1 X-9.244 Y4.717 E7.80688
G1 X-9.062 Y6.509 E7.84656
G1 X-8.536 Y8.244 E7.88646
G1 X-7.676 Y9.842 E7.92642
G1 X-6.537 Y11.242 E7.96615
G1 X-5.132 Y12.396 E8.00618
G1 X-3.536 Y13.243 E8.04596
G1 X-1.799 Y13.773 E8.08594
G1 X0.004 Y13.952 E8.12583
G1 X1.805 Y13.772 E8.16567
G1 X3.535 Y13.244 E8.20550
G1 X5.130 Y12.398 E8.24525
G1 X6.536 Y11.243 E8.28532
G1 X7.688 Y9.841 E8.32526
G1 X8.535 Y8.245 E8.36504
G1 X9.064 Y6.508 E8.40501
G1 X9.243 Y4.717 E8.44463
G1 X9.063 Y2.905 E8.48474
G1 X8.536 Y1.174 E8.52458
G1 X7.689 Y-0.421 E8.56433
G1 X6.534 Y-1.828 E8.60439
G1 X5.129 Y-2.970 E8.64427
G1 X3.537 Y-3.827 E8.68407
G1 X1.803 Y-4.353 E8.72396
G1 X1.494 Y-4.385 E8.73079
G1 E8.63079 F2400.00000
G92 E0
G1 X5.834 Y-6.591 F12000.000
G1 E0.10000 F2400.00000
G1 X4.926 Y-8.165 E0.14002 F3256.728
G1 X2.610 Y-8.165 E0.19099
G1 X2.591 Y-8.084 E0.19283
G1 X2.348 Y-8.084 E0.19818
G1 X1.615 Y-5.666 E0.25380
G1 X2.049 Y-5.622 E0.26341
G1 X2.379 Y-5.529 E0.27096
G1 X2.387 Y-5.562 E0.27171
G1 X3.412 Y-5.357 E0.29473
G1 X3.477 Y-5.329 E0.29629
G1 X3.727 Y-5.287 E0.30185
G1 X3.769 Y-5.244 E0.30318
G1 X4.044 Y-5.143 E0.30963
G1 X4.130 Y-5.224 E0.31224
G1 X5.238 Y-4.670 E0.33950
G1 X5.834 Y-4.471 E0.35334
G1 X5.834 Y-6.591 E0.40002
G1 E0.30002 F2400.00000
G92 E0
G1 X4.847 Y-9.505 F12000.000
G1 E0.10000 F2400.00000
G1 X5.789 Y-9.505 E0.12074 F3256.728
G1 X5.592 Y-8.806 E0.13672
G1 X5.024 Y-8.985 E0.14983
G1 X4.756 Y-9.119 E0.15642
G1 X4.847 Y-9.505 E0.16514
G1 E0.06514 F2400.00000
G92 E0
G1 X7.565 Y-11.537 F12000.000
G1 E0.10000 F2400.00000
G1 X7.426 Y-11.537 E0.10307 F3256.728
G1 X7.426 Y-11.101 E0.11266
G1 X7.442 Y-11.101 E0.11303
G1 X7.565 Y-11.537 E0.12299
G1 E0.02299 F2400.00000
G92 E0
G1 X5.048 Y-13.825 F12000.000
G1 E0.10000 F2400.00000
G1 X4.245 Y-14.037 E0.11828 F3256.728
G1 X3.280 Y-14.037 E0.13952
G1 X3.659 Y-12.651 E0.17115
G1 X3.080 Y-10.163 E0.22739
G1 X2.986 Y-10.189 E0.22953
G1 X2.831 Y-9.675 E0.24135
G1 X2.965 Y-9.675 E0.24430
G1 X2.713 Y-8.601 E0.26859
G1 X4.852 Y-8.601 E0.31570
G1 X4.270 Y-8.892 E0.33003
G1 X4.514 Y-9.925 E0.35340
G1 X5.690 Y-9.925 E0.37928
G1 X5.834 Y-10.175 E0.38564
G1 X5.834 Y-12.463 E0.43599
G1 X5.048 Y-13.825 E0.47064
G1 X5.338 Y-14.184 F12000.000
G1 X2.607 Y-14.903 E0.53282 F3256.728
G1 X3.225 Y-12.642 E0.58440
G1 X2.770 Y-10.685 E0.62864
G1 X2.703 Y-10.704 E0.63016
G1 X2.264 Y-9.255 E0.66350
G1 X2.434 Y-9.255 E0.66726
G1 X2.258 Y-8.505 E0.68422
G1 X2.036 Y-8.505 E0.68910
G1 X1.064 Y-5.300 E0.76282
G1 X1.970 Y-5.207 E0.78288
G1 X2.687 Y-4.995 E0.79933
G1 X2.704 Y-5.069 E0.80100
G1 X3.287 Y-4.953 E0.81408
G1 X3.358 Y-4.922 E0.81579
G1 X3.524 Y-4.894 E0.81950
G1 X3.555 Y-4.864 E0.82045
G1 X3.834 Y-4.777 E0.82689
G1 X4.113 Y-4.632 E0.83381
G1 X4.204 Y-4.717 E0.83653
G1 X4.995 Y-4.308 E0.85614
G1 X5.412 Y-4.168 E0.86584
G1 X5.334 Y-3.855 E0.87295
G1 X5.615 Y-3.705 E0.87996
G1 X5.934 Y-3.444 E0.88903
G1 X6.090 Y-3.444 E0.89247
G1 X6.255 Y-4.095 E0.90725
G1 X6.255 Y-6.057 E0.95044
G1 X6.532 Y-5.899 E0.95748
G1 X6.567 Y-6.034 E0.96055
G1 X6.737 Y-6.013 E0.96434
G1 X7.260 Y-8.098 E1.01166
G1 X7.102 Y-8.151 E1.01533
G1 X7.630 Y-10.246 E1.06290
G1 X8.095 Y-11.866 E1.10000
G1 X7.804 Y-13.405 E1.13450
G1 X7.005 Y-13.671 E1.15303
G1 X7.005 Y-8.755 E1.26128
G1 X6.063 Y-8.755 E1.28201
G1 X6.324 Y-9.616 E1.30182
G1 X6.255 Y-9.637 E1.30341
G1 X6.255 Y-13.902 E1.39730
G1 X5.338 Y-14.184 E1.41841
M106 S232.05
G1 Z1.630 F12000.000
G1 E1.31841 F2400.00000
G92 E0
G1 X-5.715 Y-2.586 F12000.000
G1 E0.10000 F2400.00000
G1 X-9.293 Y4.552 E0.27960 F3600.000
G1 X-9.260 Y5.421 E0.29917
G1 X-4.955 Y-3.168 E0.51530
G1 X-4.313 Y-3.514 E0.53171
G1 X-9.181 Y6.200 E0.77613
G1 X-9.059 Y6.890 E0.79190
G1 X-3.671 Y-3.860 E1.06238
G1 X-3.093 Y-4.077 E1.07627
G1 X-8.882 Y7.472 E1.36687
G1 X-8.705 Y8.053 E1.38056
G1 X-2.541 Y-4.245 E1.69003
G1 X-1.988 Y-4.413 E1.70303
G1 X-8.498 Y8.575 E2.02986
G1 X-8.255 Y9.026 E2.04137
G1 X-1.470 Y-4.513 E2.38204
G1 X-0.978 Y-4.558 E2.39314
G1 X-8.012 Y9.476 E2.74628
G1 X-7.770 Y9.927 E2.75779
G1 X-0.487 Y-4.603 E3.12340
G1 X0.005 Y-4.651 E3.13453
G1 X-7.483 Y10.290 E3.51051
G1 X-7.194 Y10.647 E3.52085
G1 X0.458 Y-4.619 E3.90499
G1 X0.905 Y-4.577 E3.91511
G1 X-6.904 Y11.004 E4.30718
G1 X-6.614 Y11.361 E4.31752
G1 X1.353 Y-4.536 E4.71753
G1 X1.800 Y-4.492 E4.72762
G1 X-6.283 Y11.635 E5.13341
G1 X-5.951 Y11.908 E5.14307
G1 X2.212 Y-4.379 E5.55290
G1 X2.618 Y-4.256 E5.56246
G1 X-5.619 Y12.180 E5.97603
G1 X-5.288 Y12.453 E5.98570
G1 X3.025 Y-4.132 E6.40302
G1 X3.432 Y-4.009 E6.41258
G1 X-4.928 Y12.670 E6.83227
G1 X-4.558 Y12.866 E6.84170
G1 X3.811 Y-3.830 E7.26183
G1 X4.185 Y-3.642 E7.27125
G1 X-4.185 Y13.059 E7.69150
G1 X-3.811 Y13.246 E7.70092
G1 X4.554 Y-3.444 E8.12089
G1 X4.923 Y-3.245 E8.13031
G1 X-3.433 Y13.426 E8.54980
G1 X-3.026 Y13.550 E8.55936
G1 X5.283 Y-3.029 E8.97653
G1 X5.616 Y-2.758 E8.98618
G1 X-2.620 Y13.674 E9.39966
G1 X-2.213 Y13.797 E9.40922
G1 X5.949 Y-2.488 E9.81900
G1 X6.282 Y-2.218 E9.82865
G1 X-1.801 Y13.911 E10.23448
G1 X-1.355 Y13.954 E10.24457
G1 X6.613 Y-1.944 E10.64461
G1 X6.904 Y-1.589 E10.65492
G1 X-0.908 Y13.999 E11.04717
G1 X-0.462 Y14.043 E11.05725
G1 X7.195 Y-1.235 E11.44171
G1 X7.486 Y-0.881 E11.45202
G1 X-0.012 Y14.081 E11.82850
G1 X0.481 Y14.032 E11.83964
G1 X7.775 Y-0.521 E12.20584
G1 X8.016 Y-0.067 E12.21741
G1 X0.974 Y13.982 E12.57092
G1 X1.467 Y13.933 E12.58208
G1 X8.256 Y0.387 E12.92292
G1 X8.497 Y0.841 E12.93448
G1 X1.987 Y13.831 E13.26136
G1 X2.540 Y13.663 E13.27436
G1 X8.705 Y1.363 E13.58387
G1 X8.881 Y1.945 E13.59755
G1 X3.092 Y13.495 E13.88820
G1 X3.670 Y13.278 E13.90208
G1 X9.058 Y2.526 E14.17261
G1 X9.182 Y3.215 E14.18835
G1 X4.308 Y12.939 E14.43303
G1 X4.946 Y12.600 E14.44928
G1 X9.260 Y3.994 E14.66584
G1 X9.294 Y4.861 E14.68535
G1 X5.708 Y12.016 E14.86539
G1 X6.510 Y11.350 F12000.000
G1 X9.176 Y6.031 E14.99925 F3600.000
G1 E14.89925 F2400.00000
G92 E0
G1 X8.646 Y8.024 F12000.000
G1 E0.10000 F2400.00000
G1 X8.090 Y9.132 E0.12787 F3600.000
G1 E0.02787 F2400.00000
G92 E0
G1 X-9.176 Y3.384 F12000.000
G1 E0.10000 F2400.00000
G1 X-6.512 Y-1.930 E0.23371 F3600.000
G1 E0.13371 F2400.00000
G92 E0
G1 X-8.179 Y0.461 F12000.000
G1 E0.10000 F2400.00000
G1 X-8.644 Y1.389 E0.12335 F3600.000
G1 E0.02335 F2400.00000
G92 E0
G1 X5.837 Y-6.588 F12000.000
G1 E0.10000 F2400.00000
G1 X4.926 Y-8.165 E0.14099 F3600.000
G1 X2.608 Y-8.165 E0.19312
G1 X2.589 Y-8.086 E0.19495
G1 X2.346 Y-8.086 E0.20042
G1 X1.612 Y-5.665 E0.25734
G1 X2.048 Y-5.620 E0.26721
G1 X2.381 Y-5.526 E0.27498
G1 X2.388 Y-5.559 E0.27575
G1 X3.412 Y-5.354 E0.29922
G1 X3.477 Y-5.327 E0.30081
G1 X3.726 Y-5.285 E0.30649
G1 X3.768 Y-5.243 E0.30784
G1 X4.044 Y-5.140 E0.31446
G1 X4.131 Y-5.221 E0.31713
G1 X5.237 Y-4.668 E0.34495
G1 X5.837 Y-4.468 E0.35917
G1 X5.837 Y-6.588 E0.40685
G1 E0.30685 F2400.00000
G92 E0
G1 X4.847 Y-9.505 F12000.000
G1 E0.10000 F2400.00000
G1 X5.789 Y-9.505 E0.12119 F3600.000
G1 X5.592 Y-8.806 E0.13752
G1 X5.024 Y-8.985 E0.15092
G1 X4.756 Y-9.119 E0.15765
G1 X4.847 Y-9.505 E0.16656
G1 E0.06656 F2400.00000
G92 E0
G1 X7.567 Y-11.537 F12000.000
G1 E0.10000 F2400.00000
G1 X7.423 Y-11.537 E0.10324 F3600.000
G1 X7.423 Y-11.101 E0.11304
G1 X7.444 Y-11.101 E0.11351
G1 X7.567 Y-11.537 E0.12369
G1 E0.02369 F2400.00000
G92 E0
G1 X5.046 Y-13.828 F12000.000
G1 E0.10000 F2400.00000
G1 X4.253 Y-14.037 E0.11844 F3600.000
G1 X3.277 Y-14.037 E0.14039
G1 X3.656 Y-12.651 E0.17271
G1 X3.079 Y-10.165 E0.23012
G1 X2.985 Y-10.191 E0.23230
G1 X2.828 Y-9.673 E0.24448
G1 X2.962 Y-9.673 E0.24751
G1 X2.710 Y-8.601 E0.27228
G1 X4.857 Y-8.601 E0.32057
G1 X4.273 Y-8.893 E0.33526
G1 X4.516 Y-9.923 E0.35907
G1 X5.689 Y-9.923 E0.38545
G1 X5.837 Y-10.179 E0.39209
G1 X5.837 Y-12.459 E0.44338
G1 X5.046 Y-13.828 E0.47895
G1 X5.338 Y-14.184 F12000.000
G1 X2.607 Y-14.903 E0.54248 F3600.000
G1 X3.225 Y-12.642 E0.59519
G1 X2.770 Y-10.685 E0.64039
G1 X2.703 Y-10.704 E0.64194
G1 X2.264 Y-9.255 E0.67601
G1 X2.434 Y-9.255 E0.67985
G1 X2.258 Y-8.505 E0.69718
G1 X2.036 Y-8.505 E0.70217
G1 X1.064 Y-5.300 E0.77750
G1 X1.970 Y-5.207 E0.79799
G1 X2.687 Y-4.995 E0.81480
G1 X2.704 Y-5.069 E0.81651
G1 X3.287 Y-4.953 E0.82988
G1 X3.358 Y-4.922 E0.83162
G1 X3.524 Y-4.894 E0.83541
G1 X3.555 Y-4.864 E0.83638
G1 X3.834 Y-4.777 E0.84296
G1 X4.113 Y-4.632 E0.85003
G1 X4.204 Y-4.717 E0.85281
G1 X4.995 Y-4.308 E0.87285
G1 X5.412 Y-4.168 E0.88276
G1 X5.334 Y-3.855 E0.89002
G1 X5.615 Y-3.705 E0.89718
G1 X5.934 Y-3.444 E0.90646
G1 X6.090 Y-3.444 E0.90997
G1 X6.255 Y-4.095 E0.92507
G1 X6.255 Y-6.057 E0.96921
G1 X6.532 Y-5.899 E0.97639
G1 X6.567 Y-6.034 E0.97954
G1 X6.737 Y-6.013 E0.98340
G1 X7.260 Y-8.098 E1.03176
G1 X7.102 Y-8.151 E1.03551
G1 X7.630 Y-10.246 E1.08412
G1 X8.095 Y-11.866 E1.12202
G1 X7.804 Y-13.405 E1.15727
G1 X7.005 Y-13.671 E1.17621
G1 X7.005 Y-8.755 E1.28681
G1 X6.063 Y-8.755 E1.30800
G1 X6.324 Y-9.616 E1.32824
G1 X6.255 Y-9.637 E1.32987
G1 X6.255 Y-13.902 E1.42580
G1 X5.338 Y-14.184 E1.44737
G1 Z2.000 F12000.000
G1 E1.34737 F2400.00000
G92 E0
G1 X-4.910 Y-3.193 F12000.000
G1 E0.10000 F2400.00000
G1 X-9.255 Y5.476 E0.31348 F3600.000
G1 X-9.174 Y6.273 E0.33111
G1 X-4.253 Y-3.547 E0.57292
G1 X-3.597 Y-3.900 E0.58933
G1 X-9.038 Y6.958 E0.85671
G1 X-8.857 Y7.553 E0.87041
G1 X-3.016 Y-4.101 E1.15743
G1 X-2.450 Y-4.273 E1.17044
G1 X-8.676 Y8.149 E1.47635
G1 X-8.453 Y8.660 E1.48863
G1 X-1.885 Y-4.445 E1.81136
G1 X-1.367 Y-4.523 E1.82290
G1 X-8.205 Y9.121 E2.15888
G1 X-7.956 Y9.582 E2.17041
G1 X-0.864 Y-4.569 E2.51889
G1 X-0.361 Y-4.615 E2.53000
G1 X-7.700 Y10.026 E2.89057
G1 X-7.403 Y10.391 E2.90092
G1 X0.135 Y-4.650 E3.27131
G1 X0.593 Y-4.607 E3.28143
G1 X-7.106 Y10.756 E3.65976
G1 X-6.810 Y11.121 E3.67012
G1 X1.052 Y-4.564 E4.05639
G1 X1.510 Y-4.522 E4.06652
G1 X-6.500 Y11.458 E4.46005
G1 X-6.160 Y11.737 E4.46972
G1 X1.957 Y-4.457 E4.86853
G1 X2.373 Y-4.331 E4.87810
G1 X-5.820 Y12.016 E5.28067
G1 X-5.481 Y12.295 E5.29035
G1 X2.789 Y-4.205 E5.69667
G1 X3.205 Y-4.078 E5.70624
G1 X-5.135 Y12.561 E6.11599
G1 X-4.756 Y12.762 E6.12543
G1 X3.611 Y-3.931 E6.53652
G1 X3.994 Y-3.739 E6.54596
G1 X-4.377 Y12.963 E6.95726
G1 X-3.994 Y13.155 E6.96670
G1 X4.374 Y-3.541 E7.37788
G1 X4.752 Y-3.338 E7.38732
G1 X-3.611 Y13.347 E7.79821
G1 X-3.206 Y13.496 E7.80771
G1 X5.130 Y-3.135 E8.21728
G1 X5.477 Y-2.872 E8.22688
G1 X-2.790 Y13.623 E8.63308
G1 X-2.374 Y13.749 E8.64266
G1 X5.818 Y-2.595 E9.04516
G1 X6.159 Y-2.319 E9.05482
G1 X-1.958 Y13.876 E9.45363
G1 X-1.511 Y13.939 E9.46358
G1 X6.499 Y-2.041 E9.85713
G1 X6.810 Y-1.705 E9.86721
G1 X-1.054 Y13.985 E10.25360
G1 X-0.597 Y14.031 E10.26370
G1 X7.108 Y-1.343 E10.64229
G1 X7.406 Y-0.981 E10.65262
G1 X-0.141 Y14.076 E11.02341
G1 X0.354 Y14.045 E11.03433
G1 X7.703 Y-0.618 E11.39543
G1 X7.960 Y-0.173 E11.40673
G1 X0.859 Y13.994 E11.75562
G1 X1.364 Y13.943 E11.76679
G1 X8.206 Y0.292 E12.10299
G1 X8.453 Y0.756 E12.11457
G1 X1.883 Y13.864 E12.43737
G1 X2.449 Y13.691 E12.45040
G1 X8.676 Y1.267 E12.75635
G1 X8.857 Y1.863 E12.77005
G1 X3.015 Y13.519 E13.05710
G1 X3.595 Y13.318 E13.07062
G1 X9.038 Y2.458 E13.33805
G1 X9.175 Y3.142 E13.35340
G1 X4.249 Y12.971 E13.59545
G1 X4.902 Y12.624 E13.61173
G1 X9.255 Y3.939 E13.82562
G1 X9.300 Y4.806 E13.84472
G1 X5.671 Y12.047 E14.02304
G1 X6.486 Y11.377 F12000.000
G1 X9.179 Y6.003 E14.15538 F3600.000
G1 E14.05538 F2400.00000
G92 E0
G1 X8.646 Y8.023 F12000.000
G1 E0.10000 F2400.00000
G1 X8.090 Y9.132 E0.12731 F3600.000
G1 E0.02731 F2400.00000
G92 E0
G1 X-9.298 Y4.607 F12000.000
G1 E0.10000 F2400.00000
G1 X-5.678 Y-2.616 E0.27787 F3600.000
G1 X-6.487 Y-1.960 F12000.000
G1 X-9.179 Y3.412 E0.41014 F3600.000
G1 E0.31014 F2400.00000
G92 E0
G1 X-8.645 Y1.389 F12000.000
G1 E0.10000 F2400.00000
G1 X-8.179 Y0.460 E0.12288 F3600.000
G1 E0.02288 F2400.00000
G92 E0
G1 X5.834 Y-6.591 F12000.000
G1 E0.10000 F2400.00000
G1 X4.926 Y-8.165 E0.14002 F3600.000
G1 X2.610 Y-8.165 E0.19099
G1 X2.591 Y-8.084 E0.19283
G1 X2.348 Y-8.084 E0.19818
G1 X1.615 Y-5.666 E0.25380
G1 X2.049 Y-5.622 E0.26341
G1 X2.379 Y-5.529 E0.27096
G1 X2.387 Y-5.562 E0.27171
G1 X3.412 Y-5.357 E0.29473
G1 X3.477 Y-5.329 E0.29629
G1 X3.727 Y-5.287 E0.30185
G1 X3.769 Y-5.244 E0.30318
G1 X4.044 Y-5.143 E0.30963
G1 X4.130 Y-5.224 E0.31224
G1 X5.238 Y-4.670 E0.33950
G1 X5.834 Y-4.471 E0.35334
G1 X5.834 Y-6.591 E0.40002
G1 E0.30002 F2400.00000
G92 E0
G1 X4.847 Y-9.505 F12000.000
G1 E0.10000 F2400.00000
G1 X5.789 Y-9.505 E0.12074 F3600.000
G1 X5.592 Y-8.806 E0.13672
G1 X5.024 Y-8.985 E0.14983
G1 X4.756 Y-9.119 E0.15642
G1 X4.847 Y-9.505 E0.16514
G1 E0.06514 F2400.00000
G92 E0
G1 X7.565 Y-11.537 F12000.000
G1 E0.10000 F2400.00000
G1 X7.426 Y-11.537 E0.10307 F3600.000
G1 X7.426 Y-11.101 E0.11266
G1 X7.442 Y-11.101 E0.11303
G1 X7.565 Y-11.537 E0.12299
G1 E0.02299 F2400.00000
G92 E0
G1 X5.048 Y-13.825 F12000.000
G1 E0.10000 F2400.00000
G1 X4.245 Y-14.037 E0.11828 F3600.000
G1 X3.280 Y-14.037 E0.13952
G1 X3.659 Y-12.651 E0.17115
G1 X3.080 Y-10.163 E0.22739
G1 X2.986 Y-10.189 E0.22953
G1 X2.831 Y-9.675 E0.24135
G1 X2.965 Y-9.675 E0.24430
G1 X2.713 Y-8.601 E0.26859
G1 X4.852 Y-8.601 E0.31570
G1 X4.270 Y-8.892 E0.33003
G1 X4.514 Y-9.925 E0.35340
G1 X5.690 Y-9.925 E0.37928
G1 X5.834 Y-10.175 E0.38564
G1 X5.834 Y-12.463 E0.43599
G1 X5.048 Y-13.825 E0.47064
G1 X5.338 Y-14.184 F12000.000
G1 X2.607 Y-14.903 E0.53282 F3600.000
G1 X3.225 Y-12.642 E0.58440
G1 X2.770 Y-10.685 E0.62864
G1 X2.703 Y-10.704 E0.63016
G1 X2.264 Y-9.255 E0.66350
G1 X2.434 Y-9.255 E0.66726
G1 X2.258 Y-8.505 E0.68422
G1 X2.036 Y-8.505 E0.68910
G1 X1.064 Y-5.300 E0.76282
G1 X1.970 Y-5.207 E0.78288
G1 X2.687 Y-4.995 E0.79933
G1 X2.704 Y-5.069 E0.80100
G1 X3.287 Y-4.953 E0.81408
G1 X3.358 Y-4.922 E0.81579
G1 X3.524 Y-4.894 E0.81950
G1 X3.555 Y-4.864 E0.82045
G1 X3.834 Y-4.777 E0.82689
G1 X4.113 Y-4.632 E0.83381
G1 X4.204 Y-4.717 E0.83653
G1 X4.995 Y-4.308 E0.85614
G1 X5.412 Y-4.168 E0.86584
G1 X5.334 Y-3.855 E0.87295
G1 X5.615 Y-3.705 E0.87996
G1 X5.934 Y-3.444 E0.88903
G1 X6.090 Y-3.444 E0.89247
G1 X6.255 Y-4.095 E0.90725
G1 X6.255 Y-6.057 E0.95044
G1 X6.532 Y-5.899 E0.95748
G1 X6.567 Y-6.034 E0.96055
G1 X6.737 Y-6.013 E0.96434
G1 X7.260 Y-8.098 E1.01166
G1 X7.102 Y-8.151 E1.01533
G1 X7.630 Y-10.246 E1.06290
G1 X8.095 Y-11.866 E1.10000
G1 X7.804 Y-13.405 E1.13450
G1 X7.005 Y-13.671 E1.15303
G1 X7.005 Y-8.755 E1.26128
G1 X6.063 Y-8.755 E1.28201
G1 X6.324 Y-9.616 E1.30182
G1 X6.255 Y-9.637 E1.30341
G1 X6.255 Y-13.902 E1.39730
G1 X5.338 Y-14.184 E1.41841
G1 Z2.375 F12000.000
G1 E1.31841 F2400.00000
G92 E0
G1 X-4.910 Y-3.192 F12000.000
G1 E0.10000 F2400.00000
G1 X-9.254 Y5.476 E0.31580 F3600.000
G1 X-9.174 Y6.272 E0.33362
G1 X-4.253 Y-3.547 E0.57806
G1 X-3.597 Y-3.899 E0.59465
G1 X-9.038 Y6.958 E0.86494
G1 X-8.857 Y7.553 E0.87879
G1 X-3.016 Y-4.101 E1.16892
G1 X-2.451 Y-4.273 E1.18208
G1 X-8.676 Y8.148 E1.49132
G1 X-8.453 Y8.660 E1.50374
G1 X-1.885 Y-4.445 E1.82998
G1 X-1.367 Y-4.522 E1.84164
G1 X-8.205 Y9.120 E2.18128
G1 X-7.956 Y9.581 E2.19294
G1 X-0.864 Y-4.569 E2.54521
G1 X-0.361 Y-4.615 E2.55644
G1 X-7.700 Y10.026 E2.92094
G1 X-7.403 Y10.390 E2.93140
G1 X0.135 Y-4.649 E3.30582
G1 X0.593 Y-4.607 E3.31606
G1 X-7.106 Y10.755 E3.69851
G1 X-6.810 Y11.121 E3.70897
G1 X1.051 Y-4.564 E4.09945
G1 X1.509 Y-4.522 E4.10969
G1 X-6.500 Y11.458 E4.50751
G1 X-6.160 Y11.737 E4.51729
G1 X1.957 Y-4.457 E4.92044
G1 X2.373 Y-4.331 E4.93012
G1 X-5.820 Y12.016 E5.33707
G1 X-5.481 Y12.295 E5.34685
G1 X2.789 Y-4.204 E5.75760
G1 X3.205 Y-4.078 E5.76728
G1 X-5.134 Y12.560 E6.18149
G1 X-4.756 Y12.762 E6.19103
G1 X3.610 Y-3.931 E6.60660
G1 X3.994 Y-3.739 E6.61614
G1 X-4.377 Y12.963 E7.03193
G1 X-3.994 Y13.155 E7.04147
G1 X4.374 Y-3.541 E7.45712
G1 X4.752 Y-3.338 E7.46666
G1 X-3.611 Y13.347 E7.88203
G1 X-3.206 Y13.496 E7.89163
G1 X5.129 Y-3.135 E8.30567
G1 X5.477 Y-2.872 E8.31537
G1 X-2.790 Y13.622 E8.72600
G1 X-2.374 Y13.749 E8.73568
G1 X5.818 Y-2.595 E9.14257
G1 X6.158 Y-2.318 E9.15234
G1 X-1.958 Y13.875 E9.55549
G1 X-1.510 Y13.939 E9.56555
G1 X6.499 Y-2.041 E9.96338
G1 X6.810 Y-1.705 E9.97357
G1 X-1.054 Y13.985 E10.36417
G1 X-0.597 Y14.030 E10.37438
G1 X7.108 Y-1.343 E10.75710
G1 X7.405 Y-0.980 E10.76754
G1 X-0.141 Y14.076 E11.14237
G1 X0.354 Y14.045 E11.15340
G1 X7.703 Y-0.617 E11.51843
G1 X7.960 Y-0.173 E11.52986
G1 X0.859 Y13.994 E11.88255
G1 X1.364 Y13.943 E11.89384
G1 X8.206 Y0.292 E12.23370
G1 X8.453 Y0.757 E12.24541
G1 X1.883 Y13.864 E12.57172
G1 X2.449 Y13.691 E12.58489
G1 X8.676 Y1.268 E12.89417
G1 X8.857 Y1.863 E12.90802
G1 X3.015 Y13.519 E13.19819
G1 X3.595 Y13.317 E13.21186
G1 X9.038 Y2.459 E13.48220
G1 X9.175 Y3.142 E13.49771
G1 X4.249 Y12.970 E13.74240
G1 X4.902 Y12.624 E13.75885
G1 X9.255 Y3.939 E13.97506
G1 X9.300 Y4.806 E13.99438
G1 X5.671 Y12.046 E14.17463
G1 X6.486 Y11.376 F12000.000
G1 X9.179 Y6.003 E14.30840 F3600.000
G1 E14.20840 F2400.00000
G92 E0
G1 X8.646 Y8.024 F12000.000
G1 E0.10000 F2400.00000
G1 X8.090 Y9.132 E0.12759 F3600.000
G1 E0.02759 F2400.00000
G92 E0
G1 X-9.298 Y4.606 F12000.000
G1 E0.10000 F2400.00000
G1 X-5.678 Y-2.616 E0.27980 F3600.000
G1 X-6.487 Y-1.959 F12000.000
G1 X-9.179 Y3.411 E0.41350 F3600.000
G1 E0.31350 F2400.00000
G92 E0
G1 X-8.644 Y1.389 F12000.000
G1 E0.10000 F2400.00000
G1 X-8.179 Y0.460 E0.12312 F3600.000
G1 E0.02312 F2400.00000
G92 E0
G1 X5.835 Y-6.589 F12000.000
G1 E0.10000 F2400.00000
G1 X4.926 Y-8.165 E0.14050 F3600.000
G1 X2.609 Y-8.165 E0.19206
G1 X2.590 Y-8.085 E0.19390
G1 X2.347 Y-8.085 E0.19930
G1 X1.613 Y-5.665 E0.25558
G1 X2.049 Y-5.621 E0.26531
G1 X2.380 Y-5.527 E0.27297
G1 X2.388 Y-5.560 E0.27373
G1 X3.412 Y-5.356 E0.29698
G1 X3.477 Y-5.328 E0.29856
G1 X3.726 Y-5.286 E0.30418
G1 X3.769 Y-5.244 E0.30552
G1 X4.044 Y-5.142 E0.31205
G1 X4.131 Y-5.222 E0.31469
G1 X5.237 Y-4.669 E0.34223
G1 X5.835 Y-4.470 E0.35626
G1 X5.835 Y-6.589 E0.40344
G1 E0.30344 F2400.00000
G92 E0
G1 X4.847 Y-9.505 F12000.000
G1 E0.10000 F2400.00000
G1 X5.789 Y-9.505 E0.12096 F3600.000
G1 X5.592 Y-8.806 E0.13712
G1 X5.024 Y-8.985 E0.15038
G1 X4.756 Y-9.119 E0.15704
G1 X4.847 Y-9.505 E0.16585
G1 E0.06585 F2400.00000
G92 E0
G1 X7.566 Y-11.537 F12000.000
G1 E0.10000 F2400.00000
G1 X7.424 Y-11.537 E0.10315 F3600.000
G1 X7.424 Y-11.101 E0.11285
G1 X7.443 Y-11.101 E0.11327
G1 X7.566 Y-11.537 E0.12334
G1 E0.02334 F2400.00000
G92 E0
G1 X5.047 Y-13.827 F12000.000
G1 E0.10000 F2400.00000
G1 X4.249 Y-14.037 E0.11836 F3600.000
G1 X3.279 Y-14.037 E0.13996
G1 X3.657 Y-12.651 E0.17194
G1 X3.079 Y-10.164 E0.22876
G1 X2.986 Y-10.190 E0.23092
G1 X2.829 Y-9.674 E0.24292
G1 X2.964 Y-9.674 E0.24591
G1 X2.711 Y-8.601 E0.27044
G1 X4.855 Y-8.601 E0.31814
G1 X4.272 Y-8.893 E0.33265
G1 X4.515 Y-9.924 E0.35624
G1 X5.689 Y-9.924 E0.38237
G1 X5.835 Y-10.177 E0.38887
G1 X5.835 Y-12.461 E0.43970
G1 X5.047 Y-13.827 E0.47481
G1 X5.338 Y-14.184 F12000.000
G1 X2.607 Y-14.903 E0.53766 F3600.000
G1 X3.225 Y-12.642 E0.58981
G1 X2.770 Y-10.685 E0.63453
G1 X2.703 Y-10.704 E0.63607
G1 X2.264 Y-9.255 E0.66978
G1 X2.434 Y-9.255 E0.67357
G1 X2.258 Y-8.505 E0.69072
G1 X2.036 Y-8.505 E0.69565
G1 X1.064 Y-5.300 E0.77018
G1 X1.970 Y-5.207 E0.79046
G1 X2.687 Y-4.995 E0.80709
G1 X2.704 Y-5.069 E0.80878
G1 X3.287 Y-4.953 E0.82200
G1 X3.358 Y-4.922 E0.82373
G1 X3.524 Y-4.894 E0.82748
G1 X3.555 Y-4.864 E0.82844
G1 X3.834 Y-4.777 E0.83495
G1 X4.113 Y-4.632 E0.84194
G1 X4.204 Y-4.717 E0.84470
G1 X4.995 Y-4.308 E0.86452
G1 X5.412 Y-4.168 E0.87432
G1 X5.334 Y-3.855 E0.88151
G1 X5.615 Y-3.705 E0.88860
G1 X5.934 Y-3.444 E0.89777
G1 X6.090 Y-3.444 E0.90125
G1 X6.255 Y-4.095 E0.91619
G1 X6.255 Y-6.057 E0.95985
G1 X6.532 Y-5.899 E0.96696
G1 X6.567 Y-6.034 E0.97007
G1 X6.737 Y-6.013 E0.97390
G1 X7.260 Y-8.098 E1.02174
G1 X7.102 Y-8.151 E1.02545
G1 X7.630 Y-10.246 E1.07354
G1 X8.095 Y-11.866 E1.11105
G1 X7.804 Y-13.405 E1.14592
G1 X7.005 Y-13.671 E1.16466
G1 X7.005 Y-8.755 E1.27408
G1 X6.063 Y-8.755 E1.29505
G1 X6.324 Y-9.616 E1.31507
G1 X6.255 Y-9.637 E1.31668
G1 X6.255 Y-13.902 E1.41159
G1 X5.338 Y-14.184 E1.43294
M106 S255
G1 Z2.475 F12000.000
G1 E1.33294 F2400.00000
G92 E0
G1 X7.804 Y-13.405 F12000.000
G1 E0.10000 F2400.00000
G1 X7.005 Y-13.671 E0.10570 F600.000
G1 X7.005 Y-8.755 E0.13899
G1 X6.063 Y-8.755 E0.14536
G1 X6.324 Y-9.616 E0.15145
G1 X5.862 Y-9.762 E0.15473
G1 X5.592 Y-8.806 E0.16146
G1 X5.024 Y-8.985 E0.16549
G1 X4.717 Y-9.139 E0.16782
G1 X4.665 Y-9.091 E0.16830
G1 X3.533 Y-9.435 E0.17630
G1 X2.849 Y-9.729 E0.18134
G1 X3.074 Y-10.249 E0.18518
G1 X3.185 Y-10.570 E0.18748
G1 X2.703 Y-10.704 E0.19087
G1 X2.264 Y-9.255 E0.20112
G1 X2.434 Y-9.255 E0.20228
G1 X2.032 Y-7.542 E0.21418
G1 X3.122 Y-7.324 E0.22171
G1 X3.348 Y-8.299 E0.22848
G1 X4.089 Y-8.146 E0.23360
G1 X4.113 Y-8.122 E0.23384
G1 X4.425 Y-8.024 E0.23605
G1 X4.685 Y-7.908 E0.23798
G1 X4.823 Y-7.872 E0.23894
G1 X4.890 Y-7.934 E0.23956
G1 X5.227 Y-7.766 E0.24211
G1 X5.280 Y-7.766 E0.24247
G1 X5.568 Y-7.608 E0.24470
G1 X6.065 Y-7.442 E0.24824
G1 X5.785 Y-6.326 E0.25603
G1 X6.532 Y-5.899 E0.26186
G1 X6.567 Y-6.034 E0.26281
G1 X6.737 Y-6.013 E0.26397
G1 X7.260 Y-8.098 E0.27852
G1 X7.102 Y-8.151 E0.27965
G1 X7.630 Y-10.246 E0.29428
G1 X8.095 Y-11.866 E0.30569
G1 X7.804 Y-13.405 E0.31629
G1 X7.505 Y-11.537 F12000.000
G1 X7.483 Y-11.537 E0.31644 F600.000
G1 X7.483 Y-11.461 E0.31695
G1 X7.505 Y-11.537 E0.31748
G1 E0.21748 F2400.00000
G92 E0
G1 X3.374 Y-8.983 F12000.000
G1 E0.10000 F2400.00000
G1 X2.909 Y-9.183 E0.10343 F600.000
G1 X2.772 Y-8.601 E0.10747
G1 X2.927 Y-8.601 E0.10852
G1 X2.987 Y-8.859 E0.11032
G1 X4.269 Y-8.601 E0.11917
G1 X4.627 Y-8.601 E0.12159
G1 X3.374 Y-8.983 E0.13045
G1 X2.761 Y-7.884 F12000.000
G1 X2.826 Y-8.165 E0.13240 F600.000
G1 X2.670 Y-8.165 E0.13346
G1 X2.611 Y-7.914 E0.13521
G1 X2.761 Y-7.884 E0.13624
G1 E0.03624 F2400.00000
G92 E0
G1 X3.255 Y-4.959 F12000.000
G1 E0.10000 F2400.00000
G1 X3.255 Y-5.505 E0.10369 F600.000
G1 X1.159 Y-5.505 E0.11788
G1 X1.110 Y-5.295 E0.11934
G1 X1.970 Y-5.207 E0.12519
G1 X2.687 Y-4.995 E0.13025
G1 X2.704 Y-5.069 E0.13077
G1 X3.255 Y-4.959 E0.13457
G1 E0.03457 F2400.00000
G92 E0
G1 X2.755 Y-14.864 F12000.000
G1 E0.10000 F2400.00000
G1 X2.607 Y-14.903 E0.10104 F600.000
G1 X2.755 Y-14.361 E0.10484
G1 X2.755 Y-14.864 E0.10824
M106 S234.6
G1 Z2.975 F12000.000
G1 X3.005 Y-14.798 F12000.000
G1 X2.607 Y-14.903 E0.11967 F3600.000
G1 X3.005 Y-13.447 E0.16160
G1 X3.005 Y-14.798 E0.19914
G1 X3.255 Y-13.024 F12000.000
G1 X3.116 Y-13.040 E0.20302 F3600.000
G1 X3.225 Y-12.642 E0.21446
G1 X3.193 Y-12.505 E0.21839
G1 X3.255 Y-12.505 E0.22012
G1 X3.255 Y-13.024 E0.23455
G1 E0.13455 F2400.00000
G92 E0
G1 X3.403 Y-9.064 F12000.000
G1 E0.10000 F2400.00000
G1 X2.849 Y-9.302 E0.11675 F3600.000
G1 X2.684 Y-8.601 E0.13675
G1 X3.015 Y-8.601 E0.14596
G1 X3.052 Y-8.758 E0.15044
G1 X3.838 Y-8.601 E0.17272
G1 X4.927 Y-8.604 E0.20297
G1 X4.785 Y-8.666 E0.20728
G1 X4.765 Y-8.647 E0.20804
G1 X3.403 Y-9.064 E0.24760
G1 X2.825 Y-7.784 F12000.000
G1 X2.914 Y-8.165 E0.25848 F3600.000
G1 X2.582 Y-8.165 E0.26772
G1 X2.507 Y-7.848 E0.27679
G1 X2.825 Y-7.784 E0.28582
G1 E0.18582 F2400.00000
G92 E0
G1 X3.505 Y-4.898 F12000.000
G1 E0.10000 F2400.00000
G1 X3.505 Y-5.755 E0.12380 F3600.000
G1 X1.202 Y-5.755 E0.18777
G1 X1.064 Y-5.300 E0.20097
G1 X1.970 Y-5.207 E0.22627
G1 X2.687 Y-4.995 E0.24703
G1 X2.704 Y-5.069 E0.24914
G1 X3.505 Y-4.898 E0.27189
G1 E0.17189 F2400.00000
G92 E0
G1 X7.594 Y-11.537 F12000.000
G1 E0.10000 F2400.00000
G1 X7.398 Y-11.537 E0.10546 F3600.000
G1 X7.398 Y-11.101 E0.11756
G1 X7.471 Y-11.101 E0.11960
G1 X7.594 Y-11.537 E0.13217
G1 X7.804 Y-13.405 F12000.000
G1 X7.005 Y-13.671 E0.15556 F3600.000
G1 X7.005 Y-8.755 E0.29213
G1 X6.063 Y-8.755 E0.31830
G1 X6.324 Y-9.616 E0.34329
G1 X5.862 Y-9.762 E0.35675
G1 X5.592 Y-8.806 E0.38433
G1 X5.024 Y-8.985 E0.40088
G1 X4.717 Y-9.139 E0.41043
G1 X4.665 Y-9.091 E0.41239
G1 X3.533 Y-9.435 E0.44525
G1 X2.849 Y-9.729 E0.46593
G1 X3.074 Y-10.249 E0.48168
G1 X3.185 Y-10.570 E0.49111
G1 X2.703 Y-10.704 E0.50501
G1 X2.264 Y-9.255 E0.54708
G1 X2.434 Y-9.255 E0.55182
G1 X2.032 Y-7.542 E0.60068
G1 X3.122 Y-7.324 E0.63156
G1 X3.348 Y-8.299 E0.65935
G1 X4.089 Y-8.146 E0.68036
G1 X4.113 Y-8.122 E0.68131
G1 X4.425 Y-8.024 E0.69039
G1 X4.685 Y-7.908 E0.69830
G1 X4.823 Y-7.872 E0.70227
G1 X4.890 Y-7.934 E0.70481
G1 X5.227 Y-7.766 E0.71525
G1 X5.280 Y-7.766 E0.71673
G1 X5.568 Y-7.608 E0.72588
G1 X6.065 Y-7.442 E0.74041
G1 X5.785 Y-6.326 E0.77238
G1 X6.532 Y-5.899 E0.79629
G1 X6.567 Y-6.034 E0.80018
G1 X6.737 Y-6.013 E0.80495
G1 X7.260 Y-8.098 E0.86466
G1 X7.102 Y-8.151 E0.86929
G1 X7.630 Y-10.246 E0.92932
G1 X8.095 Y-11.866 E0.97612
G1 X7.804 Y-13.405 E1.01964
G1 Z3.075 F12000.000
G1 E0.91964 F2400.00000
G92 E0
G1 X-3.371 Y-0.329 F12000.000
G1 E0.10000 F2400.00000
M106 S255
G1 X-2.318 Y-0.896 E0.13322 F900.000
G1 X-1.185 Y-1.240 E0.16611
G1 X0.006 Y-1.352 E0.19935
G1 X1.177 Y-1.243 E0.23200
M106 S234.6
M106 S255
G1 X2.318 Y-0.896 E0.26513 F900.000
G1 X3.371 Y-0.329 E0.29836
G1 X4.294 Y0.421 E0.33141
G1 X5.047 Y1.338 E0.36434
G1 X5.603 Y2.386 E0.39731
G1 X5.952 Y3.530 E0.43052
G1 X6.070 Y4.714 E0.46358
G1 X5.952 Y5.887 E0.49633
G1 X5.603 Y7.031 E0.52956
G1 X5.047 Y8.080 E0.56252
G1 X4.291 Y9.000 E0.59560
G1 X3.371 Y9.756 E0.62868
G1 X2.323 Y10.312 E0.66164
G1 X1.178 Y10.661 E0.69487
G1 X0.005 Y10.778 E0.72762
G1 X-1.179 Y10.660 E0.76068
G1 X-2.323 Y10.312 E0.79389
G1 X-3.371 Y9.756 E0.82686
G1 X-4.287 Y9.003 E0.85979
G1 X-5.038 Y8.080 E0.89284
G1 X-5.605 Y7.027 E0.92607
G1 X-5.951 Y5.887 E0.95915
G1 X-6.069 Y4.714 E0.99191
G1 X-5.951 Y3.530 E1.02496
G1 X-5.605 Y2.391 E1.05803
G1 X-5.038 Y1.338 E1.09125
G1 X-4.290 Y0.418 E1.12416
G1 X-3.429 Y-0.282 E1.15499
M106 S234.6
G1 X-3.634 Y-0.653 F12000.000
M106 S255
G1 X-2.479 Y-1.284 E1.19154 F900.000
G1 X-1.266 Y-1.652 E1.22676
G1 X0.006 Y-1.771 E1.26226
G1 X1.227 Y-1.657 E1.29631
M106 S234.6
M106 S255
G1 X2.479 Y-1.284 E1.33262 F900.000
G1 X3.604 Y-0.678 E1.36810
G1 X4.590 Y0.124 E1.40341
G1 X5.396 Y1.105 E1.43868
G1 X5.991 Y2.226 E1.47392
G1 X6.363 Y3.447 E1.50940
G1 X6.489 Y4.714 E1.54476
G1 X6.363 Y5.969 E1.57981
G1 X5.991 Y7.192 E1.61530
G1 X5.396 Y8.312 E1.65054
G1 X4.588 Y9.297 E1.68592
G1 X3.604 Y10.105 E1.72130
G1 X2.483 Y10.700 E1.75654
G1 X1.261 Y11.072 E1.79203
G1 X0.005 Y11.198 E1.82708
G1 X-1.261 Y11.072 E1.86244
G1 X-2.483 Y10.700 E1.89792
G1 X-3.604 Y10.105 E1.93316
G1 X-4.585 Y9.299 E1.96843
G1 X-5.387 Y8.312 E2.00374
G1 X-5.992 Y7.188 E2.03922
G1 X-6.362 Y5.969 E2.07460
G1 X-6.489 Y4.714 E2.10965
G1 X-6.362 Y3.447 E2.14501
G1 X-5.992 Y2.229 E2.18037
G1 X-5.387 Y1.105 E2.21585
G1 X-4.587 Y0.121 E2.25105
G1 X-3.693 Y-0.606 E2.28308
M106 S234.6
G1 X-3.898 Y-0.977 F12000.000
M106 S255
G1 X-3.837 Y-1.027 E2.28527 F3600.000
G1 X-2.641 Y-1.671 E2.32300
G1 X-1.347 Y-2.064 E2.36055
G1 X0.006 Y-2.191 E2.39831
G1 X1.268 Y-2.073 E2.43350
M106 S234.6
M106 S255
G1 X1.342 Y-2.065 E2.43558 F3600.000
G1 X2.641 Y-1.671 E2.47327
G1 X3.837 Y-1.027 E2.51101
G1 X4.887 Y-0.174 E2.54859
G1 X5.746 Y0.872 E2.58619
G1 X6.379 Y2.065 E2.62371
G1 X6.775 Y3.365 E2.66145
G1 X6.909 Y4.714 E2.69911
G1 X6.775 Y6.052 E2.73646
G1 X6.379 Y7.352 E2.77421
G1 X5.746 Y8.545 E2.81174
G1 X4.885 Y9.593 E2.84941
G1 X3.837 Y10.454 E2.88709
G1 X2.643 Y11.088 E2.92462
G1 X1.343 Y11.484 E2.96237
G1 X0.005 Y11.618 E2.99971
G1 X-1.344 Y11.483 E3.03737
G1 X-2.643 Y11.088 E3.07511
G1 X-3.837 Y10.454 E3.11264
G1 X-4.883 Y9.595 E3.15024
G1 X-5.736 Y8.545 E3.18782
G1 X-6.380 Y7.349 E3.22555
G1 X-6.774 Y6.052 E3.26321
G1 X-6.909 Y4.714 E3.30056
G1 X-6.774 Y3.365 E3.33823
G1 X-6.380 Y2.068 E3.37588
G1 X-5.736 Y0.872 E3.41361
G1 X-4.884 Y-0.176 E3.45111
G1 X-3.956 Y-0.930 E3.48434
M106 S234.6
G1 X-4.161 Y-1.301 F12000.000
M106 S255
G1 X-4.069 Y-1.376 E3.48763 F3600.000
G1 X-2.802 Y-2.059 E3.52762
G1 X-1.428 Y-2.476 E3.56750
G1 X0.006 Y-2.610 E3.60751
G1 X1.308 Y-2.489 E3.64384
M106 S234.6
M106 S255
G1 X1.425 Y-2.477 E3.64710 F3600.000
G1 X2.802 Y-2.059 E3.68707
G1 X4.069 Y-1.376 E3.72706
G1 X5.183 Y-0.472 E3.76690
G1 X6.095 Y0.639 E3.80683
G1 X6.767 Y1.905 E3.84664
G1 X7.186 Y3.283 E3.88664
G1 X7.329 Y4.714 E3.92660
G1 X7.186 Y6.134 E3.96625
G1 X6.767 Y7.512 E4.00626
G1 X6.095 Y8.778 E4.04606
G1 X5.182 Y9.890 E4.08604
G1 X4.069 Y10.804 E4.12602
G1 X2.804 Y11.475 E4.16583
G1 X1.426 Y11.895 E4.20584
G1 X0.006 Y12.038 E4.24548
G1 X-1.426 Y11.895 E4.28544
G1 X-2.804 Y11.475 E4.32544
G1 X-4.069 Y10.804 E4.36525
G1 X-5.180 Y9.891 E4.40518
G1 X-6.085 Y8.778 E4.44503
G1 X-6.767 Y7.510 E4.48502
G1 X-7.185 Y6.134 E4.52497
G1 X-7.329 Y4.714 E4.56461
G1 X-7.185 Y3.283 E4.60458
G1 X-6.767 Y1.907 E4.64452
G1 X-6.085 Y0.639 E4.68451
G1 X-5.181 Y-0.473 E4.72431
G1 X-4.220 Y-1.254 E4.75873
M106 S234.6
G1 X-4.417 Y-1.616 F12000.000
M106 S255
G1 X-4.295 Y-1.715 E4.76309 F3600.000
G1 X-2.958 Y-2.435 E4.80526
G1 X-1.507 Y-2.876 E4.84741
G1 X0.006 Y-3.017 E4.88961
G1 X1.348 Y-2.892 E4.92704
M106 S234.6
M106 S255
G1 X1.505 Y-2.876 E4.93144 F3600.000
G1 X2.958 Y-2.435 E4.97362
G1 X4.295 Y-1.715 E5.01580
G1 X5.470 Y-0.760 E5.05784
G1 X6.434 Y0.413 E5.10003
G1 X7.143 Y1.750 E5.14205
G1 X7.586 Y3.203 E5.18425
G1 X7.736 Y4.714 E5.22645
G1 X7.586 Y6.214 E5.26832
G1 X7.143 Y7.668 E5.31052
G1 X6.434 Y9.004 E5.35254
G1 X5.469 Y10.178 E5.39475
G1 X4.295 Y11.143 E5.43696
G1 X2.959 Y11.852 E5.47898
G1 X1.506 Y12.294 E5.52118
G1 X0.006 Y12.445 E5.56305
G1 X-1.506 Y12.294 E5.60525
G1 X-2.959 Y11.852 E5.64744
G1 X-4.295 Y11.143 E5.68946
G1 X-5.469 Y10.178 E5.73166
G1 X-6.423 Y9.004 E5.77370
G1 X-7.143 Y7.667 E5.81588
G1 X-7.584 Y6.214 E5.85805
G1 X-7.736 Y4.714 E5.89992
G1 X-7.584 Y3.203 E5.94212
G1 X-7.143 Y1.750 E5.98429
G1 X-6.423 Y0.413 E6.02647
G1 X-5.469 Y-0.761 E6.06849
G1 X-4.475 Y-1.569 E6.10408
M106 S234.6
G1 X1.744 Y-0.732 F12000.000
M106 S255
G1 X5.442 Y2.965 E6.25788 F3600.000
G1 X5.703 Y4.025 E6.28998
G1 X0.687 Y-0.991 E6.49862
G1 X-0.179 Y-1.059 E6.52417
G1 X5.776 Y4.897 E6.77188
G1 X5.704 Y5.622 E6.79333
G1 X-0.909 Y-0.991 E7.06838
G1 X-1.572 Y-0.855 E7.08828
G1 X5.564 Y6.282 E7.38513
G1 X5.378 Y6.894 E7.40394
G1 X-2.185 Y-0.669 E7.71850
G1 X-2.718 Y-0.404 E7.73602
G1 X5.116 Y7.430 E8.06188
G1 X4.839 Y7.951 E8.07924
G1 X-3.237 Y-0.125 E8.41517
G1 X-3.682 Y0.229 E8.43188
G1 X4.483 Y8.393 E8.77146
G1 X4.109 Y8.817 E8.78809
G1 X-4.108 Y0.601 E9.12984
G1 X-4.480 Y1.027 E9.14648
G1 X3.685 Y9.191 E9.48606
G1 X3.243 Y9.548 E9.50276
G1 X-4.834 Y1.472 E9.83868
G1 X-5.113 Y1.991 E9.85602
G1 X2.721 Y9.825 E10.18187
G1 X2.185 Y10.087 E10.19943
G1 X-5.378 Y2.524 E10.51399
G1 X-5.564 Y3.136 E10.53281
G1 X1.573 Y10.273 E10.82966
G1 X0.914 Y10.412 E10.84947
G1 X-5.703 Y3.796 E11.12466
G1 X-5.775 Y4.522 E11.14611
G1 X0.188 Y10.485 E11.39415
G1 X-0.684 Y10.412 E11.41988
G1 X-5.702 Y5.393 E11.62863
G1 X-5.441 Y6.452 E11.66073
G1 X-1.743 Y10.150 E11.81454
M106 S234.6
G1 X-3.726 Y8.966 F12000.000
M106 S255
G1 X-4.241 Y8.450 E11.83599 F3600.000
M106 S234.6
G1 X3.742 Y0.467 F12000.000
M106 S255
G1 X4.257 Y0.983 E11.85744 F3600.000
M106 S234.6
M106 S214.2
G1 Z3.375 F12000.000
G1 X-3.033 Y0.176 F12000.000
G1 X-2.085 Y-0.333 E11.88733 F900.000
G1 X-1.067 Y-0.642 E11.91688
G1 X0.009 Y-0.744 E11.94692
G1 X0.860 Y-0.665 E11.97064
G1 X1.057 Y-0.645 E11.97616 F900.000
G1 X2.085 Y-0.333 E12.00601
G1 X3.033 Y0.176 E12.03590
G1 X3.864 Y0.853 E12.06566
G1 X4.540 Y1.675 E12.09523
G1 X5.041 Y2.619 E12.12491
G1 X5.355 Y3.648 E12.15481
G1 X5.461 Y4.714 E12.18454
G1 X5.355 Y5.768 E12.21397
G1 X5.041 Y6.798 E12.24390
G1 X4.540 Y7.742 E12.27358
G1 X3.861 Y8.569 E12.30331
G1 X3.033 Y9.248 E12.33304
G1 X2.090 Y9.750 E12.36272
G1 X1.059 Y10.064 E12.39264
G1 X0.005 Y10.169 E12.42208
G1 X-1.060 Y10.064 E12.45181
G1 X-2.090 Y9.750 E12.48171
G1 X-3.033 Y9.248 E12.51139
G1 X-3.856 Y8.573 E12.54096
G1 X-4.532 Y7.742 E12.57072
G1 X-5.042 Y6.794 E12.60061
G1 X-5.353 Y5.768 E12.63039
G1 X-5.460 Y4.714 E12.65983
G1 X-5.353 Y3.648 E12.68957
G1 X-5.042 Y2.623 E12.71933
G1 X-4.532 Y1.675 E12.74921
G1 X-3.860 Y0.849 E12.77882
G1 X-3.091 Y0.224 E12.80634
G1 X-3.446 Y-0.331 F12000.000
G1 X-2.338 Y-0.940 E12.84147 F900.000
G1 X-1.195 Y-1.287 E12.87465
G1 X0.008 Y-1.402 E12.90822
G1 X0.923 Y-1.317 E12.93375
G1 X1.187 Y-1.290 E12.94110 F900.000
G1 X2.338 Y-0.940 E12.97452
G1 X3.398 Y-0.371 E13.00794
G1 X4.328 Y0.386 E13.04127
G1 X5.087 Y1.311 E13.07448
G1 X5.648 Y2.368 E13.10773
G1 X6.000 Y3.519 E13.14118
G1 X6.118 Y4.714 E13.17452
G1 X6.000 Y5.897 E13.20755
G1 X5.648 Y7.050 E13.24102
G1 X5.087 Y8.107 E13.27427
G1 X4.326 Y9.034 E13.30761
G1 X3.398 Y9.796 E13.34094
G1 X2.341 Y10.357 E13.37419
G1 X1.189 Y10.709 E13.40766
G1 X0.005 Y10.827 E13.44069
G1 X-1.189 Y10.709 E13.47404
G1 X-2.341 Y10.357 E13.50749
G1 X-3.398 Y9.796 E13.54073
G1 X-4.322 Y9.037 E13.57394
G1 X-5.079 Y8.107 E13.60727
G1 X-5.649 Y7.047 E13.64070
G1 X-5.998 Y5.897 E13.67406
G1 X-6.118 Y4.714 E13.70710
G1 X-5.997 Y3.519 E13.74045
G1 X-5.649 Y2.371 E13.77379
G1 X-5.079 Y1.311 E13.80721
G1 X-4.325 Y0.384 E13.84042
G1 X-3.504 Y-0.284 E13.86980
G1 X-3.859 Y-0.839 F12000.000
G1 X-3.763 Y-0.918 E13.87327 F1800.000
G1 X-2.590 Y-1.548 E13.91024
G1 X-1.322 Y-1.932 E13.94705
G1 X0.008 Y-2.059 E13.98415
G1 X0.987 Y-1.968 E14.01148
G1 X1.317 Y-1.934 E14.02068 F1800.000
G1 X2.590 Y-1.548 E14.05765
G1 X3.763 Y-0.918 E14.09462
G1 X4.793 Y-0.080 E14.13151
G1 X5.634 Y0.946 E14.16837
G1 X6.256 Y2.116 E14.20517
G1 X6.645 Y3.390 E14.24218
G1 X6.776 Y4.714 E14.27912
G1 X6.645 Y6.027 E14.31576
G1 X6.256 Y7.301 E14.35278
G1 X5.634 Y8.471 E14.38959
G1 X4.791 Y9.499 E14.42653
G1 X3.763 Y10.343 E14.46348
G1 X2.592 Y10.965 E14.50028
G1 X1.318 Y11.354 E14.53730
G1 X0.005 Y11.485 E14.57394
G1 X-1.318 Y11.354 E14.61089
G1 X-2.592 Y10.965 E14.64789
G1 X-3.763 Y10.343 E14.68470
G1 X-4.788 Y9.501 E14.72156
G1 X-5.626 Y8.471 E14.75844
G1 X-6.256 Y7.299 E14.79541
G1 X-6.642 Y6.026 E14.83235
G1 X-6.776 Y4.714 E14.86899
G1 X-6.642 Y3.390 E14.90595
G1 X-6.256 Y2.118 E14.94287
G1 X-5.626 Y0.946 E14.97984
G1 X-4.790 Y-0.082 E15.01664
G1 X-3.918 Y-0.792 E15.04789
G1 X-4.272 Y-1.347 F12000.000
G1 X-4.127 Y-1.465 E15.05309 F1800.000
G1 X-2.843 Y-2.155 E15.09360
G1 X-1.449 Y-2.578 E15.13405
G1 X0.007 Y-2.717 E15.17468
G1 X1.051 Y-2.620 E15.20382
G1 X1.446 Y-2.579 E15.21485 F1800.000
G1 X2.843 Y-2.155 E15.25538
G1 X4.127 Y-1.465 E15.29589
G1 X5.257 Y-0.546 E15.33634
G1 X6.182 Y0.581 E15.37684
G1 X6.864 Y1.865 E15.41722
G1 X7.290 Y3.261 E15.45777
G1 X7.434 Y4.714 E15.49833
G1 X7.290 Y6.156 E15.53857
G1 X6.864 Y7.552 E15.57914
G1 X6.182 Y8.836 E15.61951
G1 X5.256 Y9.964 E15.66006
G1 X4.127 Y10.890 E15.70060
G1 X2.844 Y11.572 E15.74098
G1 X1.447 Y11.999 E15.78154
G1 X0.006 Y12.142 E15.82178
G1 X-1.447 Y11.999 E15.86234
G1 X-2.844 Y11.572 E15.90290
G1 X-4.127 Y10.890 E15.94327
G1 X-5.254 Y9.965 E15.98377
G1 X-6.174 Y8.836 E16.02422
G1 X-6.864 Y7.551 E16.06473
G1 X-7.287 Y6.156 E16.10524
G1 X-7.433 Y4.714 E16.14549
G1 X-7.287 Y3.261 E16.18605
G1 X-6.864 Y1.866 E16.22655
G1 X-6.174 Y0.581 E16.26706
G1 X-5.255 Y-0.547 E16.30747
G1 X-4.331 Y-1.299 E16.34059
G1 X-4.617 Y-1.770 F12000.000
G1 X-4.431 Y-1.920 E16.34501 F900.000
G1 X-3.053 Y-2.661 E16.37393
G1 X-1.556 Y-3.115 E16.40286
G1 X0.006 Y-3.264 E16.43187
G1 X1.104 Y-3.162 E16.45226
G1 X1.555 Y-3.116 E16.46062 F900.000
G1 X3.053 Y-2.661 E16.48957
G1 X4.431 Y-1.920 E16.51850
G1 X5.643 Y-0.934 E16.54739
G1 X6.638 Y0.278 E16.57637
G1 X7.370 Y1.655 E16.60522
G1 X7.827 Y3.154 E16.63418
G1 X7.981 Y4.714 E16.66317
G1 X7.827 Y6.263 E16.69195
G1 X7.370 Y7.762 E16.72092
G1 X6.638 Y9.140 E16.74976
G1 X5.643 Y10.352 E16.77875
G1 X4.431 Y11.346 E16.80774
G1 X3.053 Y12.078 E16.83658
G1 X1.555 Y12.536 E16.86555
G1 X0.006 Y12.690 E16.89433
G1 X-1.555 Y12.536 E16.92332
G1 X-3.053 Y12.078 E16.95229
G1 X-4.431 Y11.346 E16.98113
G1 X-5.643 Y10.352 E17.01011
G1 X-6.629 Y9.140 E17.03901
G1 X-7.370 Y7.761 E17.06793
G1 X-7.824 Y6.263 E17.09687
G1 X-7.981 Y4.714 E17.12566
G1 X-7.824 Y3.154 E17.15466
G1 X-7.370 Y1.656 E17.18360
G1 X-6.629 Y0.278 E17.21253
G1 X-5.643 Y-0.934 E17.24141
G1 X-4.675 Y-1.722 E17.26449
G1 X-4.393 Y-1.684 F12000.000
G1 X-3.187 Y0.967 F12000.000
G1 X-3.742 Y1.522 E17.28779 F1200.000
G1 X-4.893 Y3.663 F12000.000
G1 X-1.045 Y-0.185 E17.44947 F1200.000
G1 X0.100 Y-0.340 E17.48380
G1 X-5.056 Y4.816 E17.70043
G1 X-4.972 Y5.721 E17.72745
G1 X1.013 Y-0.264 E17.97890
G1 X1.785 Y-0.045 E18.00272
G1 X-4.753 Y6.493 E18.27741
G1 X-4.443 Y7.173 E18.29960
G1 X2.464 Y0.266 E18.58980
G1 X3.072 Y0.648 E18.61113
G1 X-4.061 Y7.781 E18.91083
G1 X-3.603 Y8.313 E18.93169
G1 X3.604 Y1.105 E19.23450
G1 X4.065 Y1.635 E19.25535
G1 X-3.074 Y8.774 E19.55530
G1 X-2.466 Y9.155 E19.57664
G1 X4.446 Y2.243 E19.86705
G1 X4.755 Y2.925 E19.88928
G1 X-1.784 Y9.463 E20.16400
G1 X-1.013 Y9.682 E20.18781
G1 X4.974 Y3.696 E20.43932
G1 X5.058 Y4.602 E20.46635
G1 X-0.107 Y9.766 E20.68334
G1 X1.045 Y9.604 E20.71791
G1 X4.895 Y5.754 E20.87968
G1 X3.748 Y7.891 F12000.000
G1 X3.182 Y8.457 E20.90347 F1200.000
G1 Z3.475 F12000.000
G1 E20.80347 F2400.00000
G92 E0
G1 X3.755 Y-4.800 F12000.000
G1 E0.10000 F2400.00000
G1 X3.755 Y-6.005 E0.13346 F3600.000
G1 X1.278 Y-6.005 E0.20227
G1 X1.064 Y-5.300 E0.22272
G1 X1.970 Y-5.207 E0.24802
G1 X2.687 Y-4.995 E0.26878
G1 X2.704 Y-5.069 E0.27089
G1 X3.524 Y-4.894 E0.29419
G1 X3.555 Y-4.864 E0.29538
G1 X3.755 Y-4.800 E0.30122
G1 X3.362 Y-5.338 F12000.000
G1 X3.362 Y-5.612 E0.30882 F3600.000
G1 X1.871 Y-5.612 E0.35025
G1 X2.044 Y-5.594 E0.35506
G1 X2.399 Y-5.493 E0.36534
G1 X2.408 Y-5.529 E0.36637
G1 X3.362 Y-5.338 E0.39341
G1 E0.29341 F2400.00000
G92 E0
G1 X2.825 Y-7.784 F12000.000
G1 E0.10000 F2400.00000
G1 X2.914 Y-8.165 E0.11088 F3600.000
G1 X2.582 Y-8.165 E0.12012
G1 X2.507 Y-7.848 E0.12919
G1 X2.825 Y-7.784 E0.13821
G1 X3.403 Y-9.064 F12000.000
G1 X2.849 Y-9.302 E0.15497 F3600.000
G1 X2.684 Y-8.601 E0.17496
G1 X3.015 Y-8.601 E0.18417
G1 X3.052 Y-8.758 E0.18866
G1 X3.838 Y-8.601 E0.21094
G1 X4.927 Y-8.604 E0.24118
G1 X4.785 Y-8.666 E0.24549
G1 X4.765 Y-8.647 E0.24625
G1 X3.403 Y-9.064 E0.28582
G1 E0.18582 F2400.00000
G92 E0
G1 X7.594 Y-11.537 F12000.000
G1 E0.10000 F2400.00000
G1 X7.398 Y-11.537 E0.10546 F3600.000
G1 X7.398 Y-11.101 E0.11756
G1 X7.471 Y-11.101 E0.11960
G1 X7.594 Y-11.537 E0.13217
G1 X7.804 Y-13.405 F12000.000
G1 X7.005 Y-13.671 E0.15556 F3600.000
G1 X7.005 Y-8.755 E0.29213
G1 X6.063 Y-8.755 E0.31830
G1 X6.324 Y-9.616 E0.34329
G1 X5.862 Y-9.762 E0.35675
G1 X5.592 Y-8.806 E0.38433
G1 X5.024 Y-8.985 E0.40088
G1 X4.717 Y-9.139 E0.41043
G1 X4.665 Y-9.091 E0.41239
G1 X3.533 Y-9.435 E0.44525
G1 X2.849 Y-9.729 E0.46593
G1 X3.074 Y-10.249 E0.48168
G1 X3.185 Y-10.570 E0.49111
G1 X2.703 Y-10.704 E0.50501
G1 X2.264 Y-9.255 E0.54708
G1 X2.434 Y-9.255 E0.55182
G1 X2.032 Y-7.542 E0.60068
G1 X3.122 Y-7.324 E0.63156
G1 X3.348 Y-8.299 E0.65935
G1 X4.089 Y-8.146 E0.68036
G1 X4.113 Y-8.122 E0.68131
G1 X4.425 Y-8.024 E0.69039
G1 X4.685 Y-7.908 E0.69830
G1 X4.823 Y-7.872 E0.70227
G1 X4.890 Y-7.934 E0.70481
G1 X5.227 Y-7.766 E0.71525
G1 X5.280 Y-7.766 E0.71673
G1 X5.568 Y-7.608 E0.72588
G1 X6.065 Y-7.442 E0.74041
G1 X5.785 Y-6.326 E0.77238
G1 X6.532 Y-5.899 E0.79629
G1 X6.567 Y-6.034 E0.80018
G1 X6.737 Y-6.013 E0.80495
G1 X7.260 Y-8.098 E0.86466
G1 X7.102 Y-8.151 E0.86929
G1 X7.630 Y-10.246 E0.92932
G1 X8.095 Y-11.866 E0.97612
G1 X7.804 Y-13.405 E1.01964
G1 E0.91964 F2400.00000
G92 E0
G1 X3.255 Y-14.732 F12000.000
G1 E0.10000 F2400.00000
G1 X2.607 Y-14.903 E0.11861 F3600.000
G1 X3.225 Y-12.642 E0.18370
G1 X3.135 Y-12.255 E0.19476
G1 X3.505 Y-12.255 E0.20505
G1 X3.505 Y-13.247 E0.23261
G1 X3.255 Y-13.276 E0.23960
G1 X3.255 Y-14.732 E0.28006
M106 S216.75
G1 Z3.675 F12000.000
G1 E0.18006 F2400.00000
G92 E0
G1 X3.727 Y-16.428 F12000.000
G1 X-9.917 Y-5.156 F12000.000
G1 X-7.721 Y-2.995 F12000.000
G1 X-3.148 Y0.033 F12000.000
G1 E0.10000 F2400.00000
G1 X-2.157 Y-0.502 E0.13129 F900.000
G1 X-1.103 Y-0.822 E0.16190
G1 X0.011 Y-0.930 E0.19298
G1 X0.677 Y-0.868 E0.21156
G1 X1.094 Y-0.825 E0.22321 F900.000
G1 X2.157 Y-0.502 E0.25407
G1 X3.135 Y0.022 E0.28489
G1 X3.994 Y0.722 E0.31565
G1 X4.693 Y1.574 E0.34626
G1 X5.211 Y2.549 E0.37695
G1 X5.536 Y3.612 E0.40782
G1 X5.645 Y4.714 E0.43857
G1 X5.536 Y5.805 E0.46903
G1 X5.211 Y6.868 E0.49992
G1 X4.693 Y7.844 E0.53061
G1 X3.991 Y8.699 E0.56135
G1 X3.135 Y9.401 E0.59209
G1 X2.159 Y9.920 E0.62279
G1 X1.096 Y10.245 E0.65367
G1 X0.005 Y10.353 E0.68413
G1 X-1.097 Y10.245 E0.71489
G1 X-2.159 Y9.920 E0.74575
G1 X-3.135 Y9.401 E0.77644
G1 X-3.987 Y8.702 E0.80705
G1 X-4.686 Y7.844 E0.83781
G1 X-5.211 Y6.866 E0.86863
G1 X-5.533 Y5.805 E0.89944
G1 X-5.644 Y4.714 E0.92991
G1 X-5.532 Y3.612 E0.96067
G1 X-5.211 Y2.551 E0.99145
G1 X-4.686 Y1.574 E1.02227
G1 X-3.990 Y0.719 E1.05290
G1 X-3.206 Y0.080 E1.08097
G1 X-3.562 Y-0.475 F12000.000
G1 X-3.500 Y-0.525 E1.08319 F900.000
G1 X-2.409 Y-1.110 E1.11756
G1 X-1.230 Y-1.467 E1.15178
G1 X0.010 Y-1.587 E1.18639
G1 X0.741 Y-1.519 E1.20679
G1 X1.224 Y-1.469 E1.22028 F900.000
G1 X2.409 Y-1.110 E1.25469
G1 X3.500 Y-0.525 E1.28906
G1 X4.458 Y0.256 E1.32339
G1 X5.240 Y1.209 E1.35764
G1 X5.819 Y2.298 E1.39189
G1 X6.181 Y3.483 E1.42631
G1 X6.302 Y4.714 E1.46068
G1 X6.181 Y5.934 E1.49474
G1 X5.819 Y7.120 E1.52918
G1 X5.240 Y8.208 E1.56343
G1 X4.456 Y9.164 E1.59777
G1 X3.500 Y9.949 E1.63212
G1 X2.411 Y10.527 E1.66637
G1 X1.225 Y10.890 E1.70081
G1 X0.005 Y11.011 E1.73487
G1 X-1.226 Y10.890 E1.76924
G1 X-2.411 Y10.527 E1.80366
G1 X-3.500 Y9.949 E1.83791
G1 X-4.453 Y9.167 E1.87216
G1 X-5.234 Y8.208 E1.90649
G1 X-5.818 Y7.118 E1.94086
G1 X-6.177 Y5.934 E1.97523
G1 X-6.302 Y4.714 E2.00930
G1 X-6.177 Y3.483 E2.04367
G1 X-5.818 Y2.299 E2.07802
G1 X-5.234 Y1.209 E2.11239
G1 X-4.455 Y0.253 E2.14662
G1 X-3.620 Y-0.427 E2.17656
G1 X-3.975 Y-0.982 F12000.000
G1 X-3.865 Y-1.072 E2.18051 F1800.000
G1 X-2.662 Y-1.717 E2.21843
G1 X-1.358 Y-2.112 E2.25627
G1 X0.009 Y-2.245 E2.29441
G1 X0.805 Y-2.170 E2.31662
G1 X1.354 Y-2.114 E2.33195 F1800.000
G1 X2.662 Y-1.717 E2.36991
G1 X3.865 Y-1.072 E2.40783
G1 X4.922 Y-0.210 E2.44573
G1 X5.787 Y0.844 E2.48361
G1 X6.426 Y2.046 E2.52142
G1 X6.826 Y3.354 E2.55941
G1 X6.960 Y4.714 E2.59738
G1 X6.826 Y6.063 E2.63504
G1 X6.426 Y7.371 E2.67304
G1 X5.787 Y8.573 E2.71085
G1 X4.921 Y9.629 E2.74880
G1 X3.865 Y10.496 E2.78675
G1 X2.663 Y11.135 E2.82455
G1 X1.355 Y11.535 E2.86255
G1 X0.005 Y11.669 E2.90021
G1 X-1.355 Y11.535 E2.93819
G1 X-2.663 Y11.135 E2.97617
G1 X-3.865 Y10.496 E3.01398
G1 X-4.919 Y9.631 E3.05186
G1 X-5.781 Y8.573 E3.08976
G1 X-6.426 Y7.370 E3.12768
G1 X-6.822 Y6.063 E3.16562
G1 X-6.960 Y4.714 E3.20329
G1 X-6.822 Y3.354 E3.24127
G1 X-6.426 Y2.047 E3.27919
G1 X-5.781 Y0.844 E3.31711
G1 X-4.920 Y-0.212 E3.35495
G1 X-4.033 Y-0.935 E3.38674
G1 X-4.388 Y-1.489 F12000.000
G1 X-4.229 Y-1.619 E3.39244 F1800.000
G1 X-2.914 Y-2.325 E3.43391
G1 X-1.486 Y-2.758 E3.47535
G1 X0.007 Y-2.902 E3.51702
G1 X0.869 Y-2.822 E3.54105
G1 X1.483 Y-2.758 E3.55822 F1800.000
G1 X2.914 Y-2.325 E3.59973
G1 X4.229 Y-1.619 E3.64120
G1 X5.387 Y-0.676 E3.68267
G1 X6.335 Y0.479 E3.72419
G1 X7.033 Y1.794 E3.76556
G1 X7.471 Y3.224 E3.80710
G1 X7.618 Y4.714 E3.84868
G1 X7.471 Y6.193 E3.88995
G1 X7.033 Y7.623 E3.93150
G1 X6.335 Y8.938 E3.97286
G1 X5.386 Y10.095 E4.01442
G1 X4.229 Y11.043 E4.05597
G1 X2.914 Y11.742 E4.09734
G1 X1.484 Y12.180 E4.13889
G1 X0.006 Y12.326 E4.18015
G1 X-1.484 Y12.180 E4.22173
G1 X-2.914 Y11.742 E4.26328
G1 X-4.229 Y11.043 E4.30464
G1 X-5.385 Y10.095 E4.34616
G1 X-6.328 Y8.938 E4.38763
G1 X-7.033 Y7.622 E4.42910
G1 X-7.467 Y6.193 E4.47060
G1 X-7.617 Y4.714 E4.51188
G1 X-7.467 Y3.224 E4.55347
G1 X-7.033 Y1.795 E4.59496
G1 X-6.328 Y0.479 E4.63643
G1 X-5.386 Y-0.677 E4.67787
G1 X-4.447 Y-1.442 E4.71151
G1 X-4.733 Y-1.912 F12000.000
G1 X-4.533 Y-2.075 E4.71628 F900.000
G1 X-3.124 Y-2.831 E4.74584
G1 X-1.592 Y-3.295 E4.77543
G1 X0.006 Y-3.450 E4.80512
G1 X0.922 Y-3.364 E4.82212
G1 X1.591 Y-3.295 E4.83457 F900.000
G1 X3.124 Y-2.831 E4.86417
G1 X4.533 Y-2.075 E4.89374
G1 X5.773 Y-1.064 E4.92332
G1 X6.790 Y0.176 E4.95296
G1 X7.539 Y1.585 E4.98247
G1 X8.008 Y3.117 E5.01209
G1 X8.165 Y4.714 E5.04177
G1 X8.008 Y6.300 E5.07123
G1 X7.539 Y7.832 E5.10086
G1 X6.790 Y9.242 E5.13036
G1 X5.773 Y10.482 E5.16001
G1 X4.533 Y11.499 E5.18967
G1 X3.124 Y12.248 E5.21917
G1 X1.592 Y12.717 E5.24880
G1 X0.006 Y12.874 E5.27826
G1 X-1.592 Y12.717 E5.30794
G1 X-3.124 Y12.248 E5.33756
G1 X-4.533 Y11.499 E5.36706
G1 X-5.773 Y10.482 E5.39671
G1 X-6.783 Y9.242 E5.42629
G1 X-7.539 Y7.832 E5.45586
G1 X-8.004 Y6.300 E5.48546
G1 X-8.165 Y4.714 E5.51493
G1 X-8.004 Y3.117 E5.54461
G1 X-7.539 Y1.585 E5.57421
G1 X-6.783 Y0.176 E5.60378
G1 X-5.773 Y-1.064 E5.63335
G1 X-4.791 Y-1.865 E5.65678
G1 X-4.492 Y-1.820 F12000.000
G1 X1.047 Y-0.184 F12000.000
G1 X4.896 Y3.665 E5.81850 F1200.000
G1 X5.057 Y4.816 E5.85302
G1 X-0.101 Y-0.342 E6.06972
G1 X-1.010 Y-0.261 E6.09683
G1 X4.974 Y5.723 E6.34821
G1 X4.754 Y6.493 E6.37202
G1 X-1.784 Y-0.045 E6.64672
G1 X-2.463 Y0.265 E6.66892
G1 X4.446 Y7.175 E6.95921
G1 X4.065 Y7.783 E6.98055
G1 X-3.072 Y0.647 E7.28038
G1 X-3.603 Y1.105 E7.30123
G1 X3.604 Y8.313 E7.60405
G1 X3.075 Y8.773 E7.62489
G1 X-4.062 Y1.637 E7.92472
G1 X-4.443 Y2.245 E7.94605
G1 X2.466 Y9.155 E8.23635
G1 X1.785 Y9.463 E8.25858
G1 X-4.754 Y2.925 E8.53328
G1 X-4.971 Y3.697 E8.55712
G1 X1.014 Y9.682 E8.80859
G1 X0.107 Y9.765 E8.83564
G1 X-5.057 Y4.601 E9.05261
G1 X-4.893 Y5.755 E9.08724
G1 X-1.044 Y9.605 E9.24896
G1 X-3.177 Y8.462 F12000.000
G1 X-3.737 Y7.901 E9.27250 F1200.000
G1 X3.192 Y0.971 F12000.000
G1 X3.753 Y1.532 E9.29605 F1200.000
M106 S211.65
G1 Z3.975 F12000.000
G1 X-3.264 Y-0.110 F12000.000
G1 X-2.229 Y-0.672 E9.32874 F900.000
G1 X-1.138 Y-1.002 E9.36041
G1 X0.013 Y-1.115 E9.39253
G1 X0.494 Y-1.070 E9.40597
G1 X1.131 Y-1.004 E9.42375 F900.000
G1 X2.229 Y-0.672 E9.45562
G1 X3.237 Y-0.132 E9.48738
G1 X4.123 Y0.591 E9.51914
G1 X4.845 Y1.472 E9.55078
G1 X5.381 Y2.479 E9.58249
G1 X5.717 Y3.575 E9.61432
G1 X5.829 Y4.714 E9.64610
G1 X5.718 Y5.841 E9.67758
G1 X5.381 Y6.938 E9.70944
G1 X4.845 Y7.946 E9.74115
G1 X4.121 Y8.830 E9.77289
G1 X3.237 Y9.554 E9.80464
G1 X2.229 Y10.090 E9.83635
G1 X1.133 Y10.426 E9.86820
G1 X0.005 Y10.537 E9.89968
G1 X-1.134 Y10.426 E9.93146
G1 X-2.229 Y10.090 E9.96329
G1 X-3.237 Y9.554 E9.99500
G1 X-4.118 Y8.832 E10.02664
G1 X-4.840 Y7.946 E10.05840
G1 X-5.380 Y6.938 E10.09016
G1 X-5.713 Y5.841 E10.12199
G1 X-5.828 Y4.714 E10.15348
G1 X-5.712 Y3.575 E10.18527
G1 X-5.380 Y2.479 E10.21706
G1 X-4.840 Y1.472 E10.24882
G1 X-4.120 Y0.588 E10.28048
G1 X-3.322 Y-0.063 E10.30910
G1 X-3.677 Y-0.618 F12000.000
G1 X-3.602 Y-0.679 E10.31181 F900.000
G1 X-2.481 Y-1.279 E10.34712
G1 X-1.266 Y-1.647 E10.38238
G1 X0.011 Y-1.772 E10.41803
G1 X0.558 Y-1.721 E10.43330
G1 X1.261 Y-1.649 E10.45292 F900.000
G1 X2.481 Y-1.279 E10.48833
G1 X3.602 Y-0.679 E10.52365
G1 X4.588 Y0.125 E10.55899
G1 X5.393 Y1.107 E10.59426
G1 X5.989 Y2.228 E10.62952
G1 X6.362 Y3.446 E10.66491
G1 X6.486 Y4.714 E10.70030
G1 X6.362 Y5.971 E10.73538
G1 X5.989 Y7.190 E10.77080
G1 X5.393 Y8.310 E10.80606
G1 X4.586 Y9.295 E10.84141
G1 X3.602 Y10.101 E10.87676
G1 X2.481 Y10.697 E10.91202
G1 X1.262 Y11.071 E10.94744
G1 X0.005 Y11.195 E10.98252
G1 X-1.263 Y11.071 E11.01791
G1 X-2.481 Y10.697 E11.05330
G1 X-3.602 Y10.101 E11.08856
G1 X-4.584 Y9.296 E11.12383
G1 X-5.388 Y8.310 E11.15917
G1 X-5.988 Y7.190 E11.19449
G1 X-6.357 Y5.971 E11.22987
G1 X-6.486 Y4.714 E11.26496
G1 X-6.357 Y3.446 E11.30036
G1 X-5.988 Y2.228 E11.33572
G1 X-5.388 Y1.107 E11.37104
G1 X-4.586 Y0.123 E11.40630
G1 X-3.735 Y-0.570 E11.43677
G1 X-4.091 Y-1.125 F12000.000
G1 X-3.966 Y-1.226 E11.44123 F1800.000
G1 X-2.733 Y-1.887 E11.48010
G1 X-1.394 Y-2.292 E11.51895
G1 X0.009 Y-2.430 E11.55813
G1 X0.622 Y-2.373 E11.57523
G1 X1.391 Y-2.294 E11.59668 F1800.000
G1 X2.733 Y-1.887 E11.63564
G1 X3.966 Y-1.226 E11.67452
G1 X5.052 Y-0.341 E11.71343
G1 X5.940 Y0.742 E11.75233
G1 X6.596 Y1.976 E11.79114
G1 X7.007 Y3.317 E11.83010
G1 X7.144 Y4.714 E11.86910
G1 X7.007 Y6.100 E11.90779
G1 X6.596 Y7.442 E11.94676
G1 X5.940 Y8.675 E11.98557
G1 X5.051 Y9.760 E12.02453
G1 X3.966 Y10.649 E12.06348
G1 X2.733 Y11.305 E12.10229
G1 X1.391 Y11.716 E12.14127
G1 X0.005 Y11.853 E12.17996
G1 X-1.392 Y11.716 E12.21895
G1 X-2.733 Y11.305 E12.25792
G1 X-3.966 Y10.649 E12.29673
G1 X-5.049 Y9.761 E12.33563
G1 X-5.935 Y8.675 E12.37454
G1 X-6.596 Y7.442 E12.41341
G1 X-7.002 Y6.100 E12.45235
G1 X-7.143 Y4.714 E12.49105
G1 X-7.002 Y3.317 E12.53006
G1 X-6.596 Y1.976 E12.56898
G1 X-5.935 Y0.742 E12.60786
G1 X-5.051 Y-0.342 E12.64672
G1 X-4.149 Y-1.077 E12.67904
G1 X-4.504 Y-1.632 F12000.000
G1 X-4.331 Y-1.773 E12.68525 F1800.000
G1 X-2.985 Y-2.495 E12.72768
G1 X-1.522 Y-2.938 E12.77012
G1 X0.008 Y-3.087 E12.81283
G1 X0.686 Y-3.024 E12.83175
G1 X1.520 Y-2.938 E12.85504 F1800.000
G1 X2.985 Y-2.495 E12.89755
G1 X4.331 Y-1.773 E12.93998
G1 X5.517 Y-0.807 E12.98247
G1 X6.487 Y0.378 E13.02500
G1 X7.203 Y1.724 E13.06736
G1 X7.652 Y3.188 E13.10989
G1 X7.802 Y4.714 E13.15250
G1 X7.652 Y6.229 E13.19479
G1 X7.203 Y7.693 E13.23732
G1 X6.487 Y9.040 E13.27968
G1 X5.516 Y10.225 E13.32224
G1 X4.331 Y11.196 E13.36481
G1 X2.985 Y11.912 E13.40717
G1 X1.521 Y12.361 E13.44970
G1 X0.006 Y12.510 E13.49199
G1 X-1.521 Y12.361 E13.53460
G1 X-2.985 Y11.912 E13.57713
G1 X-4.331 Y11.196 E13.61949
G1 X-5.515 Y10.225 E13.66202
G1 X-6.482 Y9.040 E13.70451
G1 X-7.203 Y7.693 E13.74694
G1 X-7.647 Y6.229 E13.78943
G1 X-7.801 Y4.714 E13.83174
G1 X-7.647 Y3.188 E13.87436
G1 X-7.203 Y1.724 E13.91684
G1 X-6.482 Y0.378 E13.95927
G1 X-5.516 Y-0.807 E14.00173
G1 X-4.562 Y-1.585 E14.03591
G1 X-4.849 Y-2.054 F12000.000
G1 X-4.635 Y-2.229 E14.04101 F900.000
G1 X-3.194 Y-3.000 E14.07122
G1 X-1.629 Y-3.475 E14.10146
G1 X0.006 Y-3.635 E14.13184
G1 X0.739 Y-3.567 E14.14545
G1 X1.628 Y-3.475 E14.16197 F900.000
G1 X3.194 Y-3.000 E14.19223
G1 X4.635 Y-2.229 E14.22244
G1 X5.904 Y-1.194 E14.25270
G1 X6.943 Y0.074 E14.28302
G1 X7.709 Y1.514 E14.31319
G1 X8.189 Y3.080 E14.34347
G1 X8.349 Y4.714 E14.37383
G1 X8.189 Y6.337 E14.40397
G1 X7.709 Y7.903 E14.43426
G1 X6.943 Y9.343 E14.46442
G1 X5.903 Y10.612 E14.49474
G1 X4.635 Y11.652 E14.52507
G1 X3.194 Y12.418 E14.55523
G1 X1.628 Y12.898 E14.58552
G1 X0.006 Y13.058 E14.61566
G1 X-1.628 Y12.898 E14.64602
G1 X-3.194 Y12.418 E14.67630
G1 X-4.635 Y11.652 E14.70646
G1 X-5.903 Y10.612 E14.73678
G1 X-6.938 Y9.343 E14.76705
G1 X-7.709 Y7.903 E14.79726
G1 X-8.184 Y6.337 E14.82751
G1 X-8.349 Y4.714 E14.85767
G1 X-8.184 Y3.080 E14.88804
G1 X-7.709 Y1.514 E14.91829
G1 X-6.938 Y0.074 E14.94850
G1 X-5.903 Y-1.195 E14.97876
G1 X-4.907 Y-2.007 E15.00253
G1 X-4.591 Y-1.956 F12000.000
G1 X-3.187 Y0.967 F12000.000
G1 X-3.742 Y1.522 E15.02582 F1200.000
G1 X-4.893 Y3.663 F12000.000
G1 X-1.045 Y-0.185 E15.18751 F1200.000
G1 X0.100 Y-0.340 E15.22184
G1 X-5.056 Y4.816 E15.43846
G1 X-4.972 Y5.721 E15.46548
G1 X1.013 Y-0.264 E15.71693
G1 X1.785 Y-0.045 E15.74075
G1 X-4.753 Y6.493 E16.01544
G1 X-4.443 Y7.173 E16.03763
G1 X2.464 Y0.266 E16.32782
G1 X3.072 Y0.648 E16.34915
G1 X-4.061 Y7.781 E16.64885
G1 X-3.603 Y8.313 E16.66971
G1 X3.604 Y1.105 E16.97252
G1 X4.065 Y1.635 E16.99337
G1 X-3.074 Y8.774 E17.29332
G1 X-2.466 Y9.155 E17.31466
G1 X4.446 Y2.243 E17.60506
G1 X4.755 Y2.925 E17.62729
G1 X-1.784 Y9.463 E17.90201
G1 X-1.013 Y9.682 E17.92582
G1 X4.974 Y3.696 E18.17733
G1 X5.058 Y4.602 E18.20436
G1 X-0.107 Y9.766 E18.42135
G1 X1.045 Y9.604 E18.45592
G1 X4.895 Y5.754 E18.61768
G1 X3.748 Y7.891 F12000.000
G1 X3.182 Y8.457 E18.64148 F1200.000
G1 Z3.975 F12000.000
G1 E18.54148 F2400.00000
G92 E0
G1 X4.005 Y-4.692 F12000.000
G1 E0.10000 F2400.00000
G1 X4.005 Y-6.255 E0.14341 F3600.000
G1 X1.354 Y-6.255 E0.21705
G1 X1.064 Y-5.300 E0.24476
G1 X1.970 Y-5.207 E0.27006
G1 X2.687 Y-4.995 E0.29082
G1 X2.704 Y-5.069 E0.29293
G1 X3.287 Y-4.953 E0.30944
G1 X3.358 Y-4.922 E0.31160
G1 X3.524 Y-4.894 E0.31628
G1 X3.555 Y-4.864 E0.31747
G1 X3.834 Y-4.777 E0.32560
G1 X4.005 Y-4.692 E0.33090
G1 X3.612 Y-5.278 F12000.000
G1 X3.612 Y-5.862 E0.34712 F3600.000
G1 X1.645 Y-5.862 E0.40177
G1 X1.578 Y-5.642 E0.40815
G1 X2.044 Y-5.594 E0.42114
G1 X2.399 Y-5.493 E0.43142
G1 X2.408 Y-5.529 E0.43245
G1 X3.612 Y-5.278 E0.46662
G1 E0.36662 F2400.00000
G92 E0
G1 X2.825 Y-7.784 F12000.000
G1 E0.10000 F2400.00000
G1 X2.914 Y-8.165 E0.11088 F3600.000
G1 X2.582 Y-8.165 E0.12012
G1 X2.507 Y-7.848 E0.12919
G1 X2.825 Y-7.784 E0.13821
G1 X3.403 Y-9.064 F12000.000
G1 X2.849 Y-9.302 E0.15497 F3600.000
G1 X2.684 Y-8.601 E0.17496
G1 X3.015 Y-8.601 E0.18417
G1 X3.052 Y-8.758 E0.18866
G1 X3.838 Y-8.601 E0.21094
G1 X4.927 Y-8.604 E0.24118
G1 X4.785 Y-8.666 E0.24549
G1 X4.765 Y-8.647 E0.24625
G1 X3.403 Y-9.064 E0.28582
G1 E0.18582 F2400.00000
G92 E0
G1 X7.594 Y-11.537 F12000.000
G1 E0.10000 F2400.00000
G1 X7.398 Y-11.537 E0.10546 F3600.000
G1 X7.398 Y-11.101 E0.11756
G1 X7.471 Y-11.101 E0.11960
G1 X7.594 Y-11.537 E0.13217
G1 X7.804 Y-13.405 F12000.000
G1 X7.005 Y-13.671 E0.15556 F3600.000
G1 X7.005 Y-8.755 E0.29213
G1 X6.063 Y-8.755 E0.31830
G1 X6.324 Y-9.616 E0.34329
G1 X5.862 Y-9.762 E0.35675
G1 X5.592 Y-8.806 E0.38433
G1 X5.024 Y-8.985 E0.40088
G1 X4.717 Y-9.139 E0.41043
G1 X4.665 Y-9.091 E0.41239
G1 X3.533 Y-9.435 E0.44525
G1 X2.849 Y-9.729 E0.46593
G1 X3.074 Y-10.249 E0.48168
G1 X3.185 Y-10.570 E0.49111
G1 X2.703 Y-10.704 E0.50501
G1 X2.264 Y-9.255 E0.54708
G1 X2.434 Y-9.255 E0.55182
G1 X2.032 Y-7.542 E0.60068
G1 X3.122 Y-7.324 E0.63156
G1 X3.348 Y-8.299 E0.65935
G1 X4.089 Y-8.146 E0.68036
G1 X4.113 Y-8.122 E0.68131
G1 X4.425 Y-8.024 E0.69039
G1 X4.685 Y-7.908 E0.69830
G1 X4.823 Y-7.872 E0.70227
G1 X4.890 Y-7.934 E0.70481
G1 X5.227 Y-7.766 E0.71525
G1 X5.280 Y-7.766 E0.71673
G1 X5.568 Y-7.608 E0.72588
G1 X6.065 Y-7.442 E0.74041
G1 X5.785 Y-6.326 E0.77238
G1 X6.532 Y-5.899 E0.79629
G1 X6.567 Y-6.034 E0.80018
G1 X6.737 Y-6.013 E0.80495
G1 X7.260 Y-8.098 E0.86466
G1 X7.102 Y-8.151 E0.86929
G1 X7.630 Y-10.246 E0.92932
G1 X8.095 Y-11.866 E0.97612
G1 X7.804 Y-13.405 E1.01964
G1 E0.91964 F2400.00000
G92 E0
G1 X3.505 Y-14.666 F12000.000
G1 E0.10000 F2400.00000
G1 X2.607 Y-14.903 E0.12579 F3600.000
G1 X3.225 Y-12.642 E0.19088
G1 X3.076 Y-12.005 E0.20907
G1 X3.755 Y-12.005 E0.22792
G1 X3.755 Y-13.470 E0.26862
G1 X3.505 Y-13.499 E0.27561
G1 X3.505 Y-14.666 E0.30804
M106 S214.2
G1 Z4.275 F12000.000
G1 E0.20804 F2400.00000
G92 E0
G1 X3.727 Y-16.428 F12000.000
G1 X-9.917 Y-5.156 F12000.000
G1 X-7.721 Y-2.995 F12000.000
G1 X-3.379 Y-0.253 F12000.000
G1 E0.10000 F2400.00000
G1 X-2.301 Y-0.841 E0.13411 F900.000
G1 X-1.174 Y-1.182 E0.16682
G1 X0.014 Y-1.300 E0.19998
G1 X0.312 Y-1.272 E0.20829
G1 X1.168 Y-1.184 E0.23220 F900.000
G1 X2.301 Y-0.841 E0.26507
G1 X3.339 Y-0.286 E0.29778
G1 X4.253 Y0.460 E0.33054
G1 X4.998 Y1.370 E0.36321
G1 X5.552 Y2.410 E0.39593
G1 X5.898 Y3.538 E0.42873
G1 X6.013 Y4.714 E0.46153
G1 X5.899 Y5.878 E0.49404
G1 X5.552 Y7.008 E0.52686
G1 X4.998 Y8.048 E0.55958
G1 X4.251 Y8.960 E0.59233
G1 X3.339 Y9.707 E0.62508
G1 X2.299 Y10.260 E0.65781
G1 X1.169 Y10.607 E0.69063
G1 X0.005 Y10.721 E0.72313
G1 X-1.170 Y10.607 E0.75594
G1 X-2.299 Y10.260 E0.78873
G1 X-3.339 Y9.707 E0.82146
G1 X-4.249 Y8.961 E0.85413
G1 X-4.995 Y8.048 E0.88689
G1 X-5.550 Y7.010 E0.91959
G1 X-5.892 Y5.878 E0.95243
G1 X-6.012 Y4.714 E0.98495
G1 X-5.892 Y3.538 E1.01776
G1 X-5.550 Y2.408 E1.05058
G1 X-4.995 Y1.370 E1.08328
G1 X-4.251 Y0.458 E1.11596
G1 X-3.437 Y-0.206 E1.14513
G1 X-3.793 Y-0.760 F12000.000
G1 X-3.704 Y-0.833 E1.14832 F1800.000
G1 X-2.553 Y-1.449 E1.18459
G1 X-1.302 Y-1.827 E1.22088
G1 X0.012 Y-1.958 E1.25757
G1 X0.376 Y-1.924 E1.26771
G1 X1.298 Y-1.829 E1.29346 F1800.000
G1 X2.553 Y-1.449 E1.32987
G1 X3.704 Y-0.833 E1.36614
G1 X4.717 Y-0.006 E1.40248
G1 X5.546 Y1.005 E1.43878
G1 X6.159 Y2.158 E1.47505
G1 X6.543 Y3.409 E1.51142
G1 X6.670 Y4.714 E1.54783
G1 X6.543 Y6.007 E1.58394
G1 X6.159 Y7.260 E1.62033
G1 X5.546 Y8.412 E1.65659
G1 X4.716 Y9.425 E1.69295
G1 X3.704 Y10.254 E1.72930
G1 X2.551 Y10.868 E1.76557
G1 X1.299 Y11.252 E1.80196
G1 X0.005 Y11.379 E1.83807
G1 X-1.299 Y11.252 E1.87448
G1 X-2.551 Y10.868 E1.91085
G1 X-3.704 Y10.254 E1.94712
G1 X-4.714 Y9.426 E1.98341
G1 X-5.542 Y8.412 E2.01976
G1 X-6.158 Y7.261 E2.05602
G1 X-6.537 Y6.007 E2.09241
G1 X-6.670 Y4.714 E2.12853
G1 X-6.537 Y3.409 E2.16496
G1 X-6.158 Y2.156 E2.20133
G1 X-5.542 Y1.005 E2.23759
G1 X-4.716 Y-0.007 E2.27388
G1 X-3.851 Y-0.713 E2.30489
G1 X-4.207 Y-1.267 F12000.000
G1 X-4.068 Y-1.380 E2.30984 F1800.000
G1 X-2.804 Y-2.057 E2.34967
G1 X-1.430 Y-2.472 E2.38954
G1 X0.010 Y-2.615 E2.42975
G1 X0.440 Y-2.575 E2.44173
G1 X1.428 Y-2.473 E2.46932 F1800.000
G1 X2.804 Y-2.057 E2.50927
G1 X4.068 Y-1.380 E2.54910
G1 X5.182 Y-0.471 E2.58903
G1 X6.093 Y0.640 E2.62895
G1 X6.766 Y1.905 E2.66876
G1 X7.188 Y3.280 E2.70870
G1 X7.328 Y4.714 E2.74873
G1 X7.188 Y6.137 E2.78843
G1 X6.766 Y7.512 E2.82839
G1 X6.093 Y8.777 E2.86820
G1 X5.181 Y9.890 E2.90816
G1 X4.068 Y10.802 E2.94812
G1 X2.803 Y11.475 E2.98793
G1 X1.428 Y11.897 E3.02789
G1 X0.005 Y12.037 E3.06760
G1 X-1.429 Y11.897 E3.10762
G1 X-2.803 Y11.475 E3.14757
G1 X-4.068 Y10.802 E3.18738
G1 X-5.180 Y9.891 E3.22730
G1 X-6.089 Y8.777 E3.26723
G1 X-6.765 Y7.513 E3.30705
G1 X-7.182 Y6.137 E3.34699
G1 X-7.327 Y4.714 E3.38672
G1 X-7.182 Y3.280 E3.42675
G1 X-6.765 Y1.904 E3.46668
G1 X-6.089 Y0.640 E3.50650
G1 X-5.181 Y-0.472 E3.54639
G1 X-4.265 Y-1.220 E3.57925
G1 X-4.620 Y-1.775 F12000.000
G1 X-4.433 Y-1.927 E3.58596 F1800.000
G1 X-3.056 Y-2.664 E3.62935
G1 X-1.559 Y-3.117 E3.67280
G1 X0.008 Y-3.273 E3.71654
G1 X0.504 Y-3.227 E3.73036
G1 X1.557 Y-3.118 E3.75978 F1800.000
G1 X3.056 Y-2.664 E3.80327
G1 X4.433 Y-1.927 E3.84666
G1 X5.647 Y-0.937 E3.89017
G1 X6.640 Y0.276 E3.93372
G1 X7.373 Y1.653 E3.97707
G1 X7.833 Y3.151 E4.02059
G1 X7.986 Y4.714 E4.06422
G1 X7.833 Y6.266 E4.10753
G1 X7.373 Y7.764 E4.15106
G1 X6.640 Y9.142 E4.19441
G1 X5.646 Y10.355 E4.23798
G1 X4.433 Y11.349 E4.28154
G1 X3.055 Y12.082 E4.32490
G1 X1.557 Y12.542 E4.36842
G1 X0.006 Y12.694 E4.41173
G1 X-1.558 Y12.542 E4.45536
G1 X-3.055 Y12.082 E4.49888
G1 X-4.433 Y11.349 E4.54223
G1 X-5.646 Y10.355 E4.58578
G1 X-6.636 Y9.142 E4.62929
G1 X-7.373 Y7.764 E4.67268
G1 X-7.826 Y6.266 E4.71617
G1 X-7.985 Y4.714 E4.75950
G1 X-7.826 Y3.151 E4.80315
G1 X-7.373 Y1.653 E4.84662
G1 X-6.636 Y0.276 E4.89001
G1 X-5.646 Y-0.937 E4.93351
G1 X-4.678 Y-1.727 E4.96820
G1 X-4.965 Y-2.197 F12000.000
G1 X-4.737 Y-2.383 E4.97365 F900.000
G1 X-3.265 Y-3.170 E5.00450
G1 X-1.666 Y-3.655 E5.03540
G1 X0.007 Y-3.820 E5.06647
G1 X0.557 Y-3.769 E5.07668
G1 X1.665 Y-3.655 E5.09728 F900.000
G1 X3.265 Y-3.170 E5.12819
G1 X4.737 Y-2.383 E5.15905
G1 X6.034 Y-1.325 E5.18999
G1 X7.096 Y-0.028 E5.22099
G1 X7.879 Y1.443 E5.25180
G1 X8.370 Y3.043 E5.28275
G1 X8.533 Y4.714 E5.31379
G1 X8.370 Y6.374 E5.34461
G1 X7.879 Y7.974 E5.37556
G1 X7.096 Y9.445 E5.40638
G1 X6.034 Y10.742 E5.43737
G1 X4.737 Y11.805 E5.46837
G1 X3.265 Y12.588 E5.49919
G1 X1.665 Y13.079 E5.53013
G1 X0.006 Y13.242 E5.56096
G1 X-1.665 Y13.079 E5.59200
G1 X-3.265 Y12.588 E5.62294
G1 X-4.737 Y11.805 E5.65376
G1 X-6.033 Y10.742 E5.68475
G1 X-7.092 Y9.445 E5.71570
G1 X-7.879 Y7.974 E5.74656
G1 X-8.363 Y6.374 E5.77747
G1 X-8.533 Y4.714 E5.80830
G1 X-8.363 Y3.043 E5.83936
G1 X-7.879 Y1.443 E5.87027
G1 X-7.092 Y-0.028 E5.90112
G1 X-6.034 Y-1.325 E5.93206
G1 X-5.023 Y-2.149 E5.95618
G1 X-4.690 Y-2.092 F12000.000
G1 X1.047 Y-0.184 F12000.000
G1 X4.896 Y3.665 E6.11790 F1200.000
G1 X5.057 Y4.816 E6.15242
G1 X-0.101 Y-0.342 E6.36912
G1 X-1.010 Y-0.261 E6.39623
G1 X4.974 Y5.723 E6.64761
G1 X4.754 Y6.493 E6.67142
G1 X-1.784 Y-0.045 E6.94612
G1 X-2.463 Y0.265 E6.96831
G1 X4.446 Y7.175 E7.25861
G1 X4.065 Y7.783 E7.27995
G1 X-3.072 Y0.647 E7.57978
G1 X-3.603 Y1.105 E7.60063
G1 X3.604 Y8.313 E7.90344
G1 X3.075 Y8.773 E7.92429
G1 X-4.062 Y1.637 E8.22412
G1 X-4.443 Y2.245 E8.24545
G1 X2.466 Y9.155 E8.53575
G1 X1.785 Y9.463 E8.55798
G1 X-4.754 Y2.925 E8.83268
G1 X-4.971 Y3.697 E8.85652
G1 X1.014 Y9.682 E9.10799
G1 X0.107 Y9.765 E9.13504
G1 X-5.057 Y4.601 E9.35201
G1 X-4.893 Y5.755 E9.38664
G1 X-1.044 Y9.605 E9.54836
G1 X-3.177 Y8.462 F12000.000
G1 X-3.737 Y7.901 E9.57190 F1200.000
G1 X3.192 Y0.971 F12000.000
G1 X3.753 Y1.532 E9.59545 F1200.000
G1 Z4.475 F12000.000
G1 E9.49545 F2400.00000
G92 E0
G1 X4.255 Y-4.691 F12000.000
G1 E0.10000 F2400.00000
G1 X4.255 Y-6.505 E0.15038 F3600.000
G1 X1.430 Y-6.505 E0.22886
G1 X1.064 Y-5.300 E0.26382
G1 X1.970 Y-5.207 E0.28913
G1 X2.687 Y-4.995 E0.30988
G1 X2.704 Y-5.069 E0.31200
G1 X3.287 Y-4.953 E0.32850
G1 X3.358 Y-4.922 E0.33066
G1 X3.524 Y-4.894 E0.33534
G1 X3.555 Y-4.864 E0.33653
G1 X3.834 Y-4.777 E0.34466
G1 X4.113 Y-4.632 E0.35339
G1 X4.204 Y-4.717 E0.35683
G1 X4.255 Y-4.691 E0.35842
G1 X3.862 Y-5.184 F12000.000
G1 X3.862 Y-6.112 E0.38420 F3600.000
G1 X1.721 Y-6.112 E0.44368
G1 X1.578 Y-5.642 E0.45732
G1 X2.044 Y-5.594 E0.47031
G1 X2.399 Y-5.493 E0.48059
G1 X2.408 Y-5.529 E0.48162
G1 X3.404 Y-5.330 E0.50984
G1 X3.469 Y-5.302 E0.51181
G1 X3.713 Y-5.261 E0.51868
G1 X3.754 Y-5.220 E0.52029
G1 X3.862 Y-5.184 E0.52345
G1 E0.42345 F2400.00000
G92 E0
G1 X2.825 Y-7.784 F12000.000
G1 E0.10000 F2400.00000
G1 X2.914 Y-8.165 E0.11088 F3600.000
G1 X2.582 Y-8.165 E0.12012
G1 X2.507 Y-7.848 E0.12919
G1 X2.825 Y-7.784 E0.13821
G1 X3.403 Y-9.064 F12000.000
G1 X2.849 Y-9.302 E0.15497 F3600.000
G1 X2.684 Y-8.601 E0.17496
G1 X3.015 Y-8.601 E0.18417
G1 X3.052 Y-8.758 E0.18866
G1 X3.838 Y-8.601 E0.21094
G1 X4.927 Y-8.604 E0.24118
G1 X4.785 Y-8.666 E0.24549
G1 X4.765 Y-8.647 E0.24625
G1 X3.403 Y-9.064 E0.28582
G1 E0.18582 F2400.00000
G92 E0
G1 X3.612 Y-12.147 F12000.000
G1 E0.10000 F2400.00000
G1 X3.612 Y-12.575 E0.11188 F3600.000
G1 X3.513 Y-12.147 E0.12408
G1 X3.612 Y-12.147 E0.12684
G1 X3.612 Y-13.343 F12000.000
G1 X3.435 Y-13.363 E0.13180 F3600.000
G1 X3.612 Y-12.714 E0.15048
G1 X3.612 Y-13.343 E0.16793
G1 X3.362 Y-13.629 F12000.000
G1 X3.362 Y-14.037 E0.17927 F3600.000
G1 X3.251 Y-14.037 E0.18236
G1 X3.362 Y-13.629 E0.19411
G1 X3.755 Y-14.600 F12000.000
G1 X2.607 Y-14.903 E0.22709 F3600.000
G1 X3.225 Y-12.642 E0.29217
G1 X3.018 Y-11.755 E0.31749
G1 X4.005 Y-11.755 E0.34490
G1 X4.005 Y-13.693 E0.39874
G1 X3.755 Y-13.722 E0.40573
G1 X3.755 Y-14.600 E0.43014
G1 E0.33014 F2400.00000
G92 E0
G1 X7.804 Y-13.405 F12000.000
G1 E0.10000 F2400.00000
G1 X7.005 Y-13.671 E0.12339 F3600.000
G1 X7.005 Y-8.755 E0.25996
G1 X6.063 Y-8.755 E0.28613
G1 X6.324 Y-9.616 E0.31112
G1 X5.862 Y-9.762 E0.32458
G1 X5.592 Y-8.806 E0.35216
G1 X5.024 Y-8.985 E0.36871
G1 X4.717 Y-9.139 E0.37826
G1 X4.665 Y-9.091 E0.38022
G1 X3.533 Y-9.435 E0.41308
G1 X2.849 Y-9.729 E0.43376
G1 X3.074 Y-10.249 E0.44951
G1 X3.185 Y-10.570 E0.45894
G1 X2.703 Y-10.704 E0.47284
G1 X2.264 Y-9.255 E0.51491
G1 X2.434 Y-9.255 E0.51965
G1 X2.032 Y-7.542 E0.56851
G1 X3.122 Y-7.324 E0.59939
G1 X3.348 Y-8.299 E0.62718
G1 X4.089 Y-8.146 E0.64819
G1 X4.113 Y-8.122 E0.64914
G1 X4.425 Y-8.024 E0.65822
G1 X4.685 Y-7.908 E0.66613
G1 X4.823 Y-7.872 E0.67010
G1 X4.890 Y-7.934 E0.67264
G1 X5.227 Y-7.766 E0.68308
G1 X5.280 Y-7.766 E0.68456
G1 X5.568 Y-7.608 E0.69371
G1 X6.065 Y-7.442 E0.70824
G1 X5.785 Y-6.326 E0.74021
G1 X6.532 Y-5.899 E0.76412
G1 X6.567 Y-6.034 E0.76801
G1 X6.737 Y-6.013 E0.77278
G1 X7.260 Y-8.098 E0.83249
G1 X7.102 Y-8.151 E0.83712
G1 X7.630 Y-10.246 E0.89714
G1 X8.095 Y-11.866 E0.94395
G1 X7.804 Y-13.405 E0.98747
G1 X7.594 Y-11.537 F12000.000
G1 X7.398 Y-11.537 E0.99293 F3600.000
G1 X7.398 Y-11.101 E1.00503
G1 X7.471 Y-11.101 E1.00707
G1 X7.594 Y-11.537 E1.01964
M106 S232.05
G1 Z4.575 F12000.000
G1 E0.91964 F2400.00000
G92 E0
G1 X-3.494 Y-0.396 F12000.000
G1 E0.10000 F2400.00000
G1 X-3.441 Y-0.440 E0.10191 F900.000
G1 X-2.373 Y-1.011 E0.13556
G1 X-1.209 Y-1.363 E0.16932
G1 X0.016 Y-1.485 E0.20352
G1 X0.129 Y-1.475 E0.20669
G1 X1.205 Y-1.364 E0.23674 F900.000
G1 X2.373 Y-1.011 E0.27061
G1 X3.441 Y-0.440 E0.30426
G1 X4.382 Y0.329 E0.33802
G1 X5.151 Y1.268 E0.37172
G1 X5.722 Y2.340 E0.40546
G1 X6.079 Y3.502 E0.43923
G1 X6.197 Y4.714 E0.47305
G1 X6.080 Y5.915 E0.50658
G1 X5.722 Y7.078 E0.54037
G1 X5.151 Y8.150 E0.57411
G1 X4.381 Y9.090 E0.60786
G1 X3.441 Y9.860 E0.64162
G1 X2.369 Y10.430 E0.67536
G1 X1.206 Y10.788 E0.70915
G1 X0.005 Y10.906 E0.74267
G1 X-1.207 Y10.788 E0.77650
G1 X-2.369 Y10.430 E0.81027
G1 X-3.441 Y9.860 E0.84400
G1 X-4.380 Y9.091 E0.87771
G1 X-5.149 Y8.150 E0.91147
G1 X-5.719 Y7.081 E0.94511
G1 X-6.072 Y5.915 E0.97897
G1 X-6.195 Y4.714 E1.01251
G1 X-6.072 Y3.502 E1.04635
G1 X-5.719 Y2.336 E1.08018
G1 X-5.149 Y1.268 E1.11382
G1 X-4.381 Y0.328 E1.14753
G1 X-3.552 Y-0.349 E1.17725
G1 X-3.908 Y-0.903 F12000.000
G1 X-3.806 Y-0.987 E1.18093 F1800.000
G1 X-2.624 Y-1.618 E1.21814
G1 X-1.338 Y-2.007 E1.25547
G1 X0.013 Y-2.143 E1.29319
G1 X0.193 Y-2.126 E1.29821
G1 X1.335 Y-2.008 E1.33009 F1800.000
G1 X2.624 Y-1.618 E1.36750
G1 X3.806 Y-0.987 E1.40472
G1 X4.847 Y-0.136 E1.44207
G1 X5.698 Y0.903 E1.47939
G1 X6.329 Y2.087 E1.51667
G1 X6.724 Y3.372 E1.55401
G1 X6.854 Y4.714 E1.59145
G1 X6.725 Y6.044 E1.62857
G1 X6.329 Y7.330 E1.66594
G1 X5.698 Y8.514 E1.70321
G1 X4.846 Y9.555 E1.74058
G1 X3.806 Y10.407 E1.77794
G1 X2.621 Y11.038 E1.81521
G1 X1.335 Y11.433 E1.85258
G1 X0.005 Y11.563 E1.88970
G1 X-1.336 Y11.433 E1.92714
G1 X-2.621 Y11.038 E1.96449
G1 X-3.806 Y10.407 E2.00176
G1 X-4.845 Y9.556 E2.03908
G1 X-5.696 Y8.514 E2.07643
G1 X-6.327 Y7.333 E2.11365
G1 X-6.717 Y6.044 E2.15104
G1 X-6.853 Y4.714 E2.18819
G1 X-6.717 Y3.372 E2.22564
G1 X-6.327 Y2.085 E2.26302
G1 X-5.696 Y0.903 E2.30023
G1 X-4.846 Y-0.137 E2.33754
G1 X-3.966 Y-0.856 E2.36909
G1 X-4.322 Y-1.410 F12000.000
G1 X-4.170 Y-1.534 E2.37455 F1800.000
G1 X-2.875 Y-2.226 E2.41533
G1 X-1.467 Y-2.652 E2.45621
G1 X0.011 Y-2.800 E2.49746
G1 X0.257 Y-2.778 E2.50433
G1 X1.464 Y-2.653 E2.53804 F1800.000
G1 X2.875 Y-2.226 E2.57899
G1 X4.170 Y-1.534 E2.61977
G1 X5.312 Y-0.602 E2.66072
G1 X6.246 Y0.538 E2.70166
G1 X6.936 Y1.835 E2.74247
G1 X7.369 Y3.243 E2.78339
G1 X7.512 Y4.714 E2.82444
G1 X7.369 Y6.173 E2.86517
G1 X6.936 Y7.582 E2.90611
G1 X6.246 Y8.879 E2.94692
G1 X5.311 Y10.020 E2.98789
G1 X4.170 Y10.954 E3.02885
G1 X2.873 Y11.645 E3.06966
G1 X1.465 Y12.078 E3.11060
G1 X0.005 Y12.221 E3.15133
G1 X-1.465 Y12.078 E3.19238
G1 X-2.873 Y11.645 E3.23330
G1 X-4.170 Y10.954 E3.27411
G1 X-5.311 Y10.021 E3.31505
G1 X-6.243 Y8.879 E3.35600
G1 X-6.935 Y7.584 E3.39678
G1 X-7.361 Y6.173 E3.43772
G1 X-7.511 Y4.714 E3.47847
G1 X-7.361 Y3.243 E3.51953
G1 X-6.935 Y1.833 E3.56046
G1 X-6.243 Y0.538 E3.60124
G1 X-5.311 Y-0.603 E3.64215
G1 X-4.380 Y-1.363 E3.67554
G1 X-4.736 Y-1.917 F12000.000
G1 X-4.535 Y-2.082 E3.68276 F1800.000
G1 X-3.127 Y-2.834 E3.72711
G1 X-1.595 Y-3.297 E3.77156
G1 X0.009 Y-3.458 E3.81633
G1 X0.321 Y-3.429 E3.82505
G1 X1.594 Y-3.298 E3.86059 F1800.000
G1 X3.127 Y-2.834 E3.90508
G1 X4.535 Y-2.082 E3.94943
G1 X5.777 Y-1.067 E3.99396
G1 X6.793 Y0.174 E4.03852
G1 X7.543 Y1.583 E4.08287
G1 X8.014 Y3.114 E4.12737
G1 X8.170 Y4.714 E4.17203
G1 X8.014 Y6.303 E4.21636
G1 X7.543 Y7.834 E4.26087
G1 X6.793 Y9.244 E4.30522
G1 X5.776 Y10.485 E4.34979
G1 X4.535 Y11.502 E4.39437
G1 X3.126 Y12.252 E4.43871
G1 X1.594 Y12.723 E4.48322
G1 X0.006 Y12.878 E4.52756
G1 X-1.594 Y12.723 E4.57222
G1 X-3.126 Y12.252 E4.61672
G1 X-4.535 Y11.502 E4.66106
G1 X-5.776 Y10.485 E4.70562
G1 X-6.790 Y9.244 E4.75016
G1 X-7.543 Y7.835 E4.79451
G1 X-8.006 Y6.303 E4.83899
G1 X-8.169 Y4.714 E4.88335
G1 X-8.006 Y3.114 E4.92802
G1 X-7.543 Y1.582 E4.97249
G1 X-6.790 Y0.174 E5.01684
G1 X-5.776 Y-1.068 E5.06136
G1 X-4.794 Y-1.870 E5.09658
G1 X-5.081 Y-2.339 F12000.000
G1 X-4.839 Y-2.537 E5.10237 F900.000
G1 X-3.336 Y-3.340 E5.13386
G1 X-1.702 Y-3.834 E5.16542
G1 X0.007 Y-4.006 E5.19718
G1 X0.374 Y-3.971 E5.20400
G1 X1.702 Y-3.834 E5.22868 F900.000
G1 X3.336 Y-3.340 E5.26024
G1 X4.839 Y-2.537 E5.29174
G1 X6.164 Y-1.455 E5.32337
G1 X7.249 Y-0.130 E5.35504
G1 X8.049 Y1.373 E5.38651
G1 X8.552 Y3.007 E5.41811
G1 X8.717 Y4.714 E5.44984
G1 X8.552 Y6.411 E5.48134
G1 X8.049 Y8.044 E5.51295
G1 X7.249 Y9.547 E5.54443
G1 X6.164 Y10.872 E5.57609
G1 X4.839 Y11.958 E5.60776
G1 X3.336 Y12.758 E5.63923
G1 X1.702 Y13.260 E5.67084
G1 X0.006 Y13.426 E5.70235
G1 X-1.702 Y13.260 E5.73407
G1 X-3.336 Y12.758 E5.76567
G1 X-4.839 Y11.958 E5.79715
G1 X-6.164 Y10.872 E5.82881
G1 X-7.246 Y9.547 E5.86045
G1 X-8.049 Y8.045 E5.89194
G1 X-8.543 Y6.411 E5.92351
G1 X-8.717 Y4.714 E5.95503
G1 X-8.543 Y3.007 E5.98677
G1 X-8.049 Y1.372 E6.01833
G1 X-7.246 Y-0.130 E6.04983
G1 X-6.164 Y-1.455 E6.08146
G1 X-5.139 Y-2.292 E6.10591
G1 X-4.788 Y-2.228 F12000.000
G1 X0.075 Y-0.921 F12000.000
G1 X1.095 Y-0.816 E6.13440 F3000.000
G1 X2.159 Y-0.494 E6.16527
G1 X3.131 Y0.025 E6.19589
G1 X3.987 Y0.725 E6.22660
G1 X4.334 Y1.148 E6.24181
G1 X3.774 Y1.709 E6.26383
G1 X-0.241 Y0.633 E6.37929
G1 X-0.641 Y-0.860 E6.42224
G1 X0.075 Y-0.921 E6.44222
G1 X3.604 Y2.341 F12000.000
G1 X4.387 Y5.261 E6.52619 F3000.000
G1 X5.554 Y5.574 E6.55975
G1 X5.531 Y5.805 E6.56620
G1 X5.406 Y6.212 E6.57803
G1 X4.217 Y5.893 E6.61221
G1 X2.080 Y8.031 E6.69619
G1 X-1.935 Y6.955 E6.81165
G1 X-2.718 Y4.035 E6.89562
G1 X-5.432 Y3.308 E6.97368
G1 X-5.242 Y2.681 E6.99187
G1 X-2.548 Y3.403 E7.06935
G1 X-0.411 Y1.265 E7.15332
G1 X3.604 Y2.341 E7.26878
G1 X1.910 Y8.663 F12000.000
G1 X2.234 Y9.872 E7.30355 F3000.000
G1 X2.154 Y9.914 E7.30606
G1 X1.096 Y10.240 E7.33681
G1 X0.005 Y10.347 E7.36727
G1 X-1.097 Y10.240 E7.39803
G1 X-2.154 Y9.914 E7.42876
G1 X-3.131 Y9.395 E7.45949
G1 X-3.560 Y9.043 E7.47490
G1 X-2.105 Y7.587 E7.53209
G1 X1.910 Y8.663 E7.64755
M106 S226.95
G1 Z4.875 F12000.000
G1 X-3.610 Y-0.539 F12000.000
G1 X-3.543 Y-0.594 E7.64995 F900.000
G1 X-2.444 Y-1.180 E7.68454
G1 X-1.245 Y-1.543 E7.71934
G1 X0.014 Y-1.670 E7.75449
G1 X1.242 Y-1.543 E7.78880
G1 X2.444 Y-1.180 E7.82368 F900.000
G1 X3.543 Y-0.594 E7.85827
G1 X4.512 Y0.198 E7.89303
G1 X5.304 Y1.166 E7.92776
G1 X5.892 Y2.270 E7.96251
G1 X6.260 Y3.465 E7.99725
G1 X6.381 Y4.714 E8.03210
G1 X6.261 Y5.952 E8.06665
G1 X5.892 Y7.147 E8.10141
G1 X5.304 Y8.252 E8.13616
G1 X4.511 Y9.220 E8.17092
G1 X3.543 Y10.013 E8.20568
G1 X2.439 Y10.601 E8.24043
G1 X1.243 Y10.969 E8.27519
G1 X0.005 Y11.090 E8.30974
G1 X-1.244 Y10.969 E8.34459
G1 X-2.439 Y10.601 E8.37933
G1 X-3.543 Y10.013 E8.41407
G1 X-4.511 Y9.221 E8.44881
G1 X-5.303 Y8.252 E8.48357
G1 X-5.889 Y7.153 E8.51816
G1 X-6.252 Y5.952 E8.55303
G1 X-6.379 Y4.714 E8.58760
G1 X-6.252 Y3.465 E8.62246
G1 X-5.889 Y2.264 E8.65730
G1 X-5.303 Y1.166 E8.69189
G1 X-4.511 Y0.197 E8.72663
G1 X-3.668 Y-0.492 E8.75688
G1 X-4.024 Y-1.046 F12000.000
G1 X-3.908 Y-1.141 E8.76106 F1800.000
G1 X-2.696 Y-1.788 E8.79922
G1 X-1.374 Y-2.187 E8.83758
G1 X0.014 Y-2.328 E8.87634
G1 X1.372 Y-2.188 E8.91425
G1 X2.696 Y-1.788 E8.95266 F1800.000
G1 X3.908 Y-1.141 E8.99082
G1 X4.977 Y-0.267 E9.02918
G1 X5.851 Y0.801 E9.06753
G1 X6.499 Y2.017 E9.10581
G1 X6.905 Y3.336 E9.14413
G1 X7.038 Y4.714 E9.18259
G1 X6.906 Y6.081 E9.22074
G1 X6.499 Y7.400 E9.25908
G1 X5.851 Y8.616 E9.29736
G1 X4.976 Y9.685 E9.33573
G1 X3.908 Y10.560 E9.37409
G1 X2.691 Y11.208 E9.41237
G1 X1.372 Y11.614 E9.45071
G1 X0.005 Y11.747 E9.48887
G1 X-1.373 Y11.614 E9.52732
G1 X-2.691 Y11.208 E9.56565
G1 X-3.908 Y10.560 E9.60393
G1 X-4.976 Y9.686 E9.64227
G1 X-5.850 Y8.616 E9.68063
G1 X-6.497 Y7.404 E9.71880
G1 X-6.897 Y6.081 E9.75720
G1 X-7.037 Y4.714 E9.79537
G1 X-6.896 Y3.336 E9.83385
G1 X-6.497 Y2.013 E9.87223
G1 X-5.850 Y0.801 E9.91039
G1 X-4.976 Y-0.268 E9.94874
G1 X-4.082 Y-0.999 E9.98082
G1 X-4.438 Y-1.553 F12000.000
G1 X-4.272 Y-1.689 E9.98677 F1800.000
G1 X-2.947 Y-2.396 E10.02851
G1 X-1.503 Y-2.832 E10.07041
G1 X0.075 Y-2.980 E10.11442
G1 X1.501 Y-2.833 E10.15426 F1800.000
G1 X2.947 Y-2.396 E10.19620
G1 X4.272 Y-1.689 E10.23794
G1 X5.442 Y-0.732 E10.27990
G1 X6.399 Y0.436 E10.32186
G1 X7.106 Y1.765 E10.36367
G1 X7.550 Y3.207 E10.40557
G1 X7.696 Y4.714 E10.44764
G1 X7.551 Y6.210 E10.48940
G1 X7.106 Y7.652 E10.53132
G1 X6.399 Y8.981 E10.57313
G1 X5.441 Y10.150 E10.61510
G1 X4.272 Y11.107 E10.65707
G1 X2.944 Y11.815 E10.69888
G1 X1.502 Y12.259 E10.74080
G1 X0.005 Y12.405 E10.78256
G1 X-1.502 Y12.259 E10.82463
G1 X-2.944 Y11.815 E10.86653
G1 X-4.272 Y11.107 E10.90834
G1 X-5.441 Y10.150 E10.95030
G1 X-6.397 Y8.981 E10.99226
G1 X-7.104 Y7.655 E11.03400
G1 X-7.541 Y6.210 E11.07593
G1 X-7.695 Y4.714 E11.11771
G1 X-7.541 Y3.207 E11.15981
G1 X-7.104 Y1.762 E11.20173
G1 X-6.397 Y0.436 E11.24346
G1 X-5.441 Y-0.733 E11.28541
G1 X-4.496 Y-1.505 E11.31932
G1 X-4.853 Y-2.059 F12000.000
G1 X-4.637 Y-2.236 E11.32705 F1800.000
G1 X-3.198 Y-3.004 E11.37236
G1 X-1.632 Y-3.477 E11.41781
G1 X0.009 Y-3.643 E11.46362
G1 X0.139 Y-3.631 E11.46723
G1 X1.631 Y-3.477 E11.50890 F1800.000
G1 X3.198 Y-3.004 E11.55438
G1 X4.637 Y-2.236 E11.59968
G1 X5.907 Y-1.198 E11.64525
G1 X6.946 Y0.072 E11.69082
G1 X7.713 Y1.512 E11.73616
G1 X8.195 Y3.077 E11.78165
G1 X8.354 Y4.714 E11.82733
G1 X8.196 Y6.340 E11.87269
G1 X7.713 Y7.905 E11.91819
G1 X6.946 Y9.346 E11.96352
G1 X5.907 Y10.615 E12.00910
G1 X4.637 Y11.655 E12.05469
G1 X3.196 Y12.422 E12.10002
G1 X1.631 Y12.904 E12.14552
G1 X0.006 Y13.062 E12.19088
G1 X-1.631 Y12.904 E12.23656
G1 X-3.196 Y12.422 E12.28205
G1 X-4.637 Y11.655 E12.32739
G1 X-5.906 Y10.615 E12.37296
G1 X-6.944 Y9.346 E12.41852
G1 X-7.712 Y7.907 E12.46383
G1 X-8.186 Y6.340 E12.50930
G1 X-8.353 Y4.714 E12.55469
G1 X-8.186 Y3.077 E12.60039
G1 X-7.712 Y1.511 E12.64585
G1 X-6.944 Y0.072 E12.69116
G1 X-5.907 Y-1.198 E12.73671
G1 X-4.911 Y-2.012 E12.77245
G1 X-5.198 Y-2.481 F12000.000
G1 X-4.941 Y-2.692 E12.77858 F900.000
G1 X-3.407 Y-3.510 E12.81072
G1 X-1.739 Y-4.014 E12.84294
G1 X0.007 Y-4.191 E12.87538
G1 X0.192 Y-4.174 E12.87881
G1 X1.739 Y-4.014 E12.90756 F900.000
G1 X3.407 Y-3.510 E12.93979
G1 X4.941 Y-2.692 E12.97192
G1 X6.294 Y-1.585 E13.00424
G1 X7.402 Y-0.232 E13.03658
G1 X8.219 Y1.302 E13.06871
G1 X8.733 Y2.970 E13.10097
G1 X8.901 Y4.714 E13.13338
G1 X8.733 Y6.447 E13.16557
G1 X8.219 Y8.115 E13.19783
G1 X7.402 Y9.649 E13.22997
G1 X6.294 Y11.003 E13.26230
G1 X4.941 Y12.110 E13.29464
G1 X3.407 Y12.927 E13.32677
G1 X1.739 Y13.441 E13.35904
G1 X0.006 Y13.610 E13.39123
G1 X-1.739 Y13.441 E13.42363
G1 X-3.407 Y12.927 E13.45589
G1 X-4.941 Y12.110 E13.48803
G1 X-6.294 Y11.003 E13.52036
G1 X-7.400 Y9.649 E13.55268
G1 X-8.218 Y8.116 E13.58482
G1 X-8.723 Y6.447 E13.61704
G1 X-8.901 Y4.714 E13.64925
G1 X-8.723 Y2.970 E13.68167
G1 X-8.218 Y1.302 E13.71389
G1 X-7.400 Y-0.232 E13.74603
G1 X-6.294 Y-1.585 E13.77834
G1 X-5.256 Y-2.434 E13.80314
G1 X-4.887 Y-2.364 F12000.000
G1 X1.132 Y-0.996 F12000.000
G1 X2.231 Y-0.664 E13.83501 F3000.000
G1 X3.233 Y-0.129 E13.86657
G1 X4.117 Y0.594 E13.89827
G1 X4.256 Y0.764 E13.90438
G1 X3.142 Y1.878 E13.94816
G1 X0.222 Y1.096 E14.03213
G1 X-2.718 Y4.035 E14.14760
G1 X-1.935 Y6.955 E14.23157
G1 X-3.945 Y8.965 E14.31051
G1 X-4.115 Y8.825 E14.31662
G1 X-4.837 Y7.942 E14.34833
G1 X-5.372 Y6.940 E14.37988
G1 X-5.704 Y5.842 E14.41174
G1 X-5.820 Y4.713 E14.44325
G1 X-5.704 Y3.575 E14.47504
G1 X-5.514 Y2.947 E14.49326
G1 X-3.180 Y3.572 E14.56036
G1 X-0.241 Y0.633 E14.67583
G1 X-0.690 Y-1.040 E14.72393
G1 X0.013 Y-1.111 E14.74356
G1 X1.132 Y-0.996 E14.77481
G1 X4.839 Y1.476 F12000.000
G1 X5.376 Y2.484 E14.80656 F3000.000
G1 X5.712 Y3.575 E14.83825
G1 X5.822 Y4.713 E14.87003
G1 X5.712 Y5.842 E14.90151
G1 X5.680 Y5.946 E14.90456
G1 X4.850 Y5.724 E14.92844
G1 X1.910 Y8.663 E15.04390
G1 X2.283 Y10.053 E15.08389
G1 X1.133 Y10.421 E15.11742
G1 X0.005 Y10.531 E15.14891
G1 X-1.134 Y10.421 E15.18069
G1 X-2.224 Y10.085 E15.21238
G1 X-3.233 Y9.547 E15.24413
G1 X-3.436 Y9.381 E15.25141
G1 X-1.472 Y7.418 E15.32854
G1 X1.448 Y8.200 E15.41251
G1 X4.387 Y5.261 E15.52798
G1 X3.604 Y2.341 E15.61195
G1 X4.673 Y1.273 E15.65392
G1 X4.839 Y1.476 E15.66120
G1 Z4.975 F12000.000
G1 E15.56120 F2400.00000
G92 E0
G1 X4.505 Y-4.566 F12000.000
G1 E0.10000 F2400.00000
G1 X4.505 Y-6.755 E0.16079 F3600.000
G1 X1.505 Y-6.755 E0.24411
G1 X1.064 Y-5.300 E0.28634
G1 X1.970 Y-5.207 E0.31164
G1 X2.687 Y-4.995 E0.33239
G1 X2.704 Y-5.069 E0.33451
G1 X3.287 Y-4.953 E0.35101
G1 X3.358 Y-4.922 E0.35317
G1 X3.524 Y-4.894 E0.35785
G1 X3.555 Y-4.864 E0.35905
G1 X3.834 Y-4.777 E0.36717
G1 X4.113 Y-4.632 E0.37590
G1 X4.204 Y-4.717 E0.37934
G1 X4.505 Y-4.566 E0.38870
G1 X4.112 Y-5.169 F12000.000
G1 X4.112 Y-6.362 E0.42185 F3600.000
G1 X1.797 Y-6.362 E0.48617
G1 X1.578 Y-5.642 E0.50706
G1 X2.044 Y-5.594 E0.52006
G1 X2.399 Y-5.493 E0.53033
G1 X2.408 Y-5.529 E0.53136
G1 X3.404 Y-5.330 E0.55958
G1 X3.469 Y-5.302 E0.56156
G1 X3.713 Y-5.261 E0.56842
G1 X3.754 Y-5.220 E0.57003
G1 X4.049 Y-5.109 E0.57877
G1 X4.112 Y-5.169 E0.58119
G1 E0.48119 F2400.00000
G92 E0
G1 X2.825 Y-7.784 F12000.000
G1 E0.10000 F2400.00000
G1 X2.914 Y-8.165 E0.11088 F3600.000
G1 X2.582 Y-8.165 E0.12012
G1 X2.507 Y-7.848 E0.12919
G1 X2.825 Y-7.784 E0.13821
G1 X3.403 Y-9.064 F12000.000
G1 X2.849 Y-9.302 E0.15497 F3600.000
G1 X2.684 Y-8.601 E0.17496
G1 X3.015 Y-8.601 E0.18417
G1 X3.052 Y-8.758 E0.18866
G1 X3.838 Y-8.601 E0.21094
G1 X4.927 Y-8.604 E0.24118
G1 X4.785 Y-8.666 E0.24549
G1 X4.765 Y-8.647 E0.24625
G1 X3.403 Y-9.064 E0.28582
G1 E0.18582 F2400.00000
G92 E0
G1 X3.612 Y-13.594 F12000.000
G1 E0.10000 F2400.00000
G1 X3.612 Y-14.037 E0.11229 F3600.000
G1 X3.251 Y-14.037 E0.12233
G1 X3.630 Y-12.650 E0.16226
G1 X3.455 Y-11.897 E0.18373
G1 X3.862 Y-11.897 E0.19505
G1 X3.862 Y-13.566 E0.24139
G1 X3.612 Y-13.594 E0.24838
G1 X4.005 Y-14.535 F12000.000
G1 X2.607 Y-14.903 E0.28854 F3600.000
G1 X3.225 Y-12.642 E0.35362
G1 X2.960 Y-11.505 E0.38607
G1 X4.255 Y-11.505 E0.42204
G1 X4.255 Y-13.916 E0.48901
G1 X4.005 Y-13.944 E0.49600
G1 X4.005 Y-14.535 E0.51240
G1 E0.41240 F2400.00000
G92 E0
G1 X7.804 Y-13.405 F12000.000
G1 E0.10000 F2400.00000
G1 X7.005 Y-13.671 E0.12339 F3600.000
G1 X7.005 Y-8.755 E0.25996
G1 X6.063 Y-8.755 E0.28613
G1 X6.324 Y-9.616 E0.31112
G1 X5.862 Y-9.762 E0.32458
G1 X5.592 Y-8.806 E0.35216
G1 X5.024 Y-8.985 E0.36871
G1 X4.717 Y-9.139 E0.37826
G1 X4.665 Y-9.091 E0.38022
G1 X3.533 Y-9.435 E0.41308
G1 X2.849 Y-9.729 E0.43376
G1 X3.074 Y-10.249 E0.44951
G1 X3.185 Y-10.570 E0.45894
G1 X2.703 Y-10.704 E0.47284
G1 X2.264 Y-9.255 E0.51491
G1 X2.434 Y-9.255 E0.51965
G1 X2.032 Y-7.542 E0.56851
G1 X3.122 Y-7.324 E0.59939
G1 X3.348 Y-8.299 E0.62718
G1 X4.089 Y-8.146 E0.64819
G1 X4.113 Y-8.122 E0.64914
G1 X4.425 Y-8.024 E0.65822
G1 X4.685 Y-7.908 E0.66613
G1 X4.823 Y-7.872 E0.67010
G1 X4.890 Y-7.934 E0.67264
G1 X5.227 Y-7.766 E0.68308
G1 X5.280 Y-7.766 E0.68456
G1 X5.568 Y-7.608 E0.69371
G1 X6.065 Y-7.442 E0.70824
G1 X5.785 Y-6.326 E0.74021
G1 X6.532 Y-5.899 E0.76412
G1 X6.567 Y-6.034 E0.76801
G1 X6.737 Y-6.013 E0.77278
G1 X7.260 Y-8.098 E0.83249
G1 X7.102 Y-8.151 E0.83712
G1 X7.630 Y-10.246 E0.89714
G1 X8.095 Y-11.866 E0.94395
G1 X7.804 Y-13.405 E0.98747
G1 X7.594 Y-11.537 F12000.000
G1 X7.398 Y-11.537 E0.99293 F3600.000
G1 X7.398 Y-11.101 E1.00503
G1 X7.471 Y-11.101 E1.00707
G1 X7.594 Y-11.537 E1.01964
G1 Z5.175 F12000.000
G1 E0.91964 F2400.00000
G92 E0
G1 X-3.725 Y-0.682 F12000.000
G1 E0.10000 F2400.00000
G1 X-3.645 Y-0.748 E0.10289 F1800.000
G1 X-2.516 Y-1.350 E0.13842
G1 X-1.284 Y-1.722 E0.17416
G1 X0.028 Y-1.852 E0.21081
G1 X1.280 Y-1.723 E0.24575
G1 X2.516 Y-1.350 E0.28163 F1800.000
G1 X3.645 Y-0.748 E0.31716
G1 X4.642 Y0.067 E0.35293
G1 X5.457 Y1.064 E0.38869
G1 X6.062 Y2.200 E0.42445
G1 X6.441 Y3.428 E0.46016
G1 X6.565 Y4.714 E0.49603
G1 X6.442 Y5.988 E0.53160
G1 X6.062 Y7.217 E0.56733
G1 X5.457 Y8.354 E0.60310
G1 X4.641 Y9.350 E0.63886
G1 X3.645 Y10.165 E0.67463
G1 X2.509 Y10.771 E0.71039
G1 X1.280 Y11.150 E0.74612
G1 X0.005 Y11.274 E0.78169
G1 X-1.280 Y11.150 E0.81756
G1 X-2.509 Y10.771 E0.85327
G1 X-3.645 Y10.165 E0.88903
G1 X-4.641 Y9.350 E0.92480
G1 X-5.457 Y8.354 E0.96056
G1 X-6.058 Y7.225 E0.99610
G1 X-6.432 Y5.988 E1.03197
G1 X-6.563 Y4.714 E1.06757
G1 X-6.431 Y3.428 E1.10346
G1 X-6.058 Y2.193 E1.13932
G1 X-5.457 Y1.064 E1.17485
G1 X-4.641 Y0.067 E1.21061
G1 X-3.784 Y-0.635 E1.24140
G1 X-4.140 Y-1.189 F12000.000
G1 X-4.010 Y-1.295 E1.24608 F1800.000
G1 X-2.767 Y-1.958 E1.28519
G1 X-1.413 Y-2.367 E1.32449
G1 X0.030 Y-2.510 E1.36475
G1 X1.409 Y-2.368 E1.40327
G1 X2.767 Y-1.958 E1.44268 F1800.000
G1 X4.010 Y-1.295 E1.48179
G1 X5.107 Y-0.398 E1.52116
G1 X6.004 Y0.699 E1.56053
G1 X6.669 Y1.947 E1.59981
G1 X7.086 Y3.299 E1.63911
G1 X7.223 Y4.714 E1.67859
G1 X7.087 Y6.118 E1.71777
G1 X6.669 Y7.470 E1.75709
G1 X6.004 Y8.718 E1.79637
G1 X5.107 Y9.815 E1.83574
G1 X4.010 Y10.713 E1.87512
G1 X2.761 Y11.378 E1.91440
G1 X1.409 Y11.795 E1.95372
G1 X0.005 Y11.931 E1.99289
G1 X-1.410 Y11.795 E2.03238
G1 X-2.761 Y11.378 E2.07167
G1 X-4.010 Y10.713 E2.11096
G1 X-5.106 Y9.815 E2.15033
G1 X-6.004 Y8.718 E2.18970
G1 X-6.666 Y7.476 E2.22881
G1 X-7.076 Y6.118 E2.26822
G1 X-7.221 Y4.714 E2.30742
G1 X-7.076 Y3.299 E2.34693
G1 X-6.666 Y1.942 E2.38631
G1 X-6.004 Y0.699 E2.42542
G1 X-5.107 Y-0.398 E2.46479
G1 X-4.198 Y-1.141 E2.49740
G1 X-4.554 Y-1.695 F12000.000
G1 X-4.374 Y-1.843 E2.50387 F1800.000
G1 X-3.018 Y-2.565 E2.54656
G1 X-1.541 Y-3.012 E2.58942
G1 X0.031 Y-3.168 E2.63329
G1 X1.538 Y-3.012 E2.67539
G1 X3.018 Y-2.565 E2.71832 F1800.000
G1 X4.374 Y-1.843 E2.76101
G1 X5.572 Y-0.863 E2.80399
G1 X6.551 Y0.334 E2.84697
G1 X7.276 Y1.695 E2.88978
G1 X7.732 Y3.170 E2.93267
G1 X7.880 Y4.714 E2.97576
G1 X7.732 Y6.247 E3.01854
G1 X7.276 Y7.723 E3.06144
G1 X6.551 Y9.083 E3.10425
G1 X5.572 Y10.280 E3.14723
G1 X4.374 Y11.260 E3.19021
G1 X3.014 Y11.985 E3.23301
G1 X1.538 Y12.440 E3.27592
G1 X0.005 Y12.589 E3.31870
G1 X-1.539 Y12.440 E3.36179
G1 X-3.014 Y11.985 E3.40468
G1 X-4.374 Y11.260 E3.44748
G1 X-5.572 Y10.280 E3.49046
G1 X-6.551 Y9.083 E3.53344
G1 X-7.274 Y7.727 E3.57613
G1 X-7.721 Y6.247 E3.61906
G1 X-7.879 Y4.714 E3.66187
G1 X-7.721 Y3.170 E3.70499
G1 X-7.274 Y1.691 E3.74791
G1 X-6.551 Y0.334 E3.79060
G1 X-5.572 Y-0.863 E3.83358
G1 X-4.612 Y-1.648 E3.86801
G1 X-4.969 Y-2.202 F12000.000
G1 X-4.739 Y-2.390 E3.87626 F1800.000
G1 X-3.269 Y-3.173 E3.92253
G1 X-1.669 Y-3.657 E3.96895
G1 X0.032 Y-3.826 E4.01644
G1 X1.668 Y-3.657 E4.06211
G1 X3.269 Y-3.173 E4.10857 F1800.000
G1 X4.739 Y-2.390 E4.15484
G1 X6.037 Y-1.328 E4.20142
G1 X7.099 Y-0.030 E4.24801
G1 X7.883 Y1.442 E4.29434
G1 X8.377 Y3.041 E4.34082
G1 X8.538 Y4.714 E4.38752
G1 X8.377 Y6.376 E4.43391
G1 X7.883 Y7.975 E4.48039
G1 X7.099 Y9.447 E4.52672
G1 X6.037 Y10.745 E4.57331
G1 X4.739 Y11.807 E4.61990
G1 X3.267 Y12.592 E4.66623
G1 X1.668 Y13.085 E4.71271
G1 X0.006 Y13.246 E4.75910
G1 X-1.668 Y13.085 E4.80580
G1 X-3.267 Y12.592 E4.85228
G1 X-4.739 Y11.807 E4.89861
G1 X-6.037 Y10.745 E4.94520
G1 X-7.099 Y9.447 E4.99178
G1 X-7.882 Y7.978 E5.03805
G1 X-8.366 Y6.376 E5.08451
G1 X-8.537 Y4.714 E5.13092
G1 X-8.366 Y3.041 E5.17766
G1 X-7.882 Y1.440 E5.22411
G1 X-7.099 Y-0.030 E5.27038
G1 X-6.037 Y-1.328 E5.31696
G1 X-5.027 Y-2.154 E5.35321
G1 X-5.314 Y-2.624 F12000.000
G1 X-5.042 Y-2.846 E5.35969 F900.000
G1 X-3.478 Y-3.680 E5.39247
G1 X-1.776 Y-4.194 E5.42534
G1 X0.033 Y-4.374 E5.45895
G1 X1.775 Y-4.194 E5.49133
G1 X3.478 Y-3.680 E5.52421 F900.000
G1 X5.042 Y-2.846 E5.55699
G1 X6.424 Y-1.715 E5.58999
G1 X7.555 Y-0.334 E5.62300
G1 X8.389 Y1.231 E5.65579
G1 X8.914 Y2.933 E5.68872
G1 X9.085 Y4.714 E5.72180
G1 X8.914 Y6.484 E5.75467
G1 X8.389 Y8.186 E5.78760
G1 X7.555 Y9.751 E5.82039
G1 X6.424 Y11.133 E5.85340
G1 X5.042 Y12.263 E5.88640
G1 X3.477 Y13.097 E5.91919
G1 X1.775 Y13.622 E5.95212
G1 X0.006 Y13.794 E5.98499
G1 X-1.776 Y13.622 E6.01808
G1 X-3.477 Y13.097 E6.05100
G1 X-5.042 Y12.263 E6.08379
G1 X-6.424 Y11.133 E6.11680
G1 X-7.554 Y9.751 E6.14980
G1 X-8.388 Y8.187 E6.18258
G1 X-8.902 Y6.484 E6.21546
G1 X-9.085 Y4.714 E6.24835
G1 X-8.902 Y2.933 E6.28145
G1 X-8.388 Y1.231 E6.31433
G1 X-7.554 Y-0.334 E6.34711
G1 X-6.424 Y-1.715 E6.38011
G1 X-5.372 Y-2.576 E6.40525
G1 X-4.986 Y-2.500 F12000.000
G1 X-3.895 Y0.298 F12000.000
M106 S255
G1 X-4.411 Y0.814 E6.42630 F3600.000
M106 S226.95
G1 X-1.880 Y-0.927 F12000.000
M106 S255
G1 X-5.635 Y2.829 E6.57940 F3600.000
G1 X-5.914 Y3.899 E6.61128
G1 X-0.810 Y-1.205 E6.81937
G1 X0.070 Y-1.294 E6.84488
G1 X-6.004 Y4.780 E7.09252
G1 X-5.940 Y5.507 E7.11355
G1 X0.798 Y-1.231 E7.38825
G1 X1.477 Y-1.119 E7.40808
G1 X-5.827 Y6.186 E7.70586
G1 X-5.644 Y6.793 E7.72415
G1 X2.084 Y-0.935 E8.03921
G1 X2.644 Y-0.704 E8.05667
G1 X-5.413 Y7.353 E8.38512
G1 X-5.137 Y7.868 E8.40198
G1 X3.160 Y-0.429 E8.74023
G1 X3.631 Y-0.109 E8.75665
G1 X-4.817 Y8.340 E9.10108
G1 X-4.462 Y8.775 E9.11728
G1 X4.066 Y0.247 E9.46495
G1 X4.462 Y0.642 E9.48108
G1 X-4.066 Y9.171 E9.82877
G1 X-3.631 Y9.527 E9.84497
G1 X4.818 Y1.077 E10.18945
G1 X5.138 Y1.548 E10.20586
G1 X-3.160 Y9.847 E10.54417
G1 X-2.644 Y10.122 E10.56103
G1 X5.413 Y2.064 E10.88951
G1 X5.647 Y2.622 E10.90693
G1 X-2.087 Y10.355 E11.22220
G1 X-1.482 Y10.542 E11.24044
G1 X5.833 Y3.227 E11.53866
G1 X5.945 Y3.906 E11.55851
G1 X-0.803 Y10.653 E11.83358
G1 X-0.075 Y10.716 E11.85464
G1 X6.008 Y4.634 E12.10260
G1 X5.922 Y5.510 E12.12798
G1 X0.802 Y10.631 E12.33674
G1 X1.875 Y10.349 E12.36875
G1 X5.640 Y6.584 E12.52222
M106 S226.95
G1 X4.412 Y8.603 F12000.000
M106 S255
G1 X3.894 Y9.121 E12.54335 F3600.000
M106 S226.95
M106 S206.55
G1 Z5.475 F12000.000
G1 X-3.743 Y-0.704 F12000.000
G1 X-3.660 Y-0.771 E12.54632 F1800.000
G1 X-2.527 Y-1.375 E12.58200
G1 X-1.288 Y-1.749 E12.61793
G1 X0.019 Y-1.881 E12.65443
G1 X1.285 Y-1.750 E12.68979
G1 X2.527 Y-1.375 E12.72582 F1800.000
G1 X3.660 Y-0.771 E12.76150
G1 X4.661 Y0.047 E12.79742
G1 X5.480 Y1.048 E12.83334
G1 X6.088 Y2.189 E12.86925
G1 X6.469 Y3.423 E12.90511
G1 X6.593 Y4.714 E12.94114
G1 X6.469 Y5.994 E12.97686
G1 X6.088 Y7.228 E13.01274
G1 X5.480 Y8.369 E13.04866
G1 X4.661 Y9.370 E13.08458
G1 X3.660 Y10.189 E13.12050
G1 X2.519 Y10.797 E13.15641
G1 X1.285 Y11.178 E13.19229
G1 X0.005 Y11.302 E13.22802
G1 X-1.286 Y11.177 E13.26404
G1 X-2.519 Y10.797 E13.29990
G1 X-3.660 Y10.189 E13.33581
G1 X-4.661 Y9.370 E13.37173
G1 X-5.480 Y8.369 E13.40765
G1 X-6.084 Y7.236 E13.44333
G1 X-6.459 Y5.994 E13.47936
G1 X-6.591 Y4.714 E13.51511
G1 X-6.459 Y3.423 E13.55116
G1 X-6.084 Y2.182 E13.58717
G1 X-5.480 Y1.048 E13.62285
G1 X-4.661 Y0.047 E13.65876
G1 X-3.801 Y-0.656 E13.68964
G1 X-4.157 Y-1.210 F12000.000
G1 X-4.025 Y-1.319 E13.69439 F1800.000
G1 X-2.778 Y-1.983 E13.73364
G1 X-1.417 Y-2.394 E13.77313
G1 X0.020 Y-2.539 E13.81324
G1 X1.415 Y-2.395 E13.85219
G1 X2.778 Y-1.983 E13.89175 F1800.000
G1 X4.025 Y-1.319 E13.93101
G1 X5.126 Y-0.418 E13.97053
G1 X6.027 Y0.684 E14.01006
G1 X6.695 Y1.937 E14.04950
G1 X7.114 Y3.293 E14.08894
G1 X7.251 Y4.714 E14.12858
G1 X7.114 Y6.123 E14.16791
G1 X6.695 Y7.481 E14.20738
G1 X6.027 Y8.734 E14.24681
G1 X5.126 Y9.835 E14.28634
G1 X4.025 Y10.736 E14.32587
G1 X2.772 Y11.404 E14.36530
G1 X1.415 Y11.823 E14.40477
G1 X0.005 Y11.959 E14.44410
G1 X-1.415 Y11.823 E14.48374
G1 X-2.772 Y11.404 E14.52319
G1 X-4.025 Y10.736 E14.56262
G1 X-5.126 Y9.835 E14.60215
G1 X-6.027 Y8.734 E14.64167
G1 X-6.692 Y7.486 E14.68093
G1 X-7.104 Y6.123 E14.72049
G1 X-7.249 Y4.714 E14.75984
G1 X-7.103 Y3.293 E14.79951
G1 X-6.692 Y1.931 E14.83905
G1 X-6.027 Y0.684 E14.87830
G1 X-5.126 Y-0.418 E14.91783
G1 X-4.216 Y-1.163 E14.95052
G1 X-4.572 Y-1.717 F12000.000
G1 X-4.390 Y-1.866 E14.95706 F1800.000
G1 X-3.029 Y-2.591 E14.99989
G1 X-1.546 Y-3.039 E15.04293
G1 X0.021 Y-3.197 E15.08665
G1 X1.544 Y-3.040 E15.12920
G1 X3.029 Y-2.591 E15.17228 F1800.000
G1 X4.390 Y-1.866 E15.21512
G1 X5.591 Y-0.883 E15.25825
G1 X6.575 Y0.319 E15.30138
G1 X7.302 Y1.684 E15.34434
G1 X7.759 Y3.164 E15.38738
G1 X7.908 Y4.714 E15.43063
G1 X7.759 Y6.253 E15.47356
G1 X7.302 Y7.733 E15.51661
G1 X6.575 Y9.098 E15.55957
G1 X5.591 Y10.300 E15.60271
G1 X4.390 Y11.283 E15.64584
G1 X3.025 Y12.011 E15.68880
G1 X1.544 Y12.468 E15.73185
G1 X0.005 Y12.617 E15.77478
G1 X-1.544 Y12.468 E15.81803
G1 X-3.025 Y12.011 E15.86107
G1 X-4.390 Y11.283 E15.90403
G1 X-5.591 Y10.300 E15.94716
G1 X-6.575 Y9.098 E15.99030
G1 X-7.300 Y7.737 E16.03313
G1 X-7.748 Y6.253 E16.07621
G1 X-7.907 Y4.714 E16.11918
G1 X-7.748 Y3.164 E16.16245
G1 X-7.300 Y1.680 E16.20553
G1 X-6.575 Y0.319 E16.24836
G1 X-5.591 Y-0.883 E16.29149
G1 X-4.630 Y-1.669 E16.32600
G1 X-4.986 Y-2.223 F12000.000
G1 X-4.754 Y-2.413 E16.33433 F1800.000
G1 X-3.280 Y-3.199 E16.38074
G1 X-1.674 Y-3.684 E16.42733
G1 X0.021 Y-3.855 E16.47467
G1 X1.673 Y-3.684 E16.52080
G1 X3.280 Y-3.199 E16.56741 F1800.000
G1 X4.754 Y-2.413 E16.61382
G1 X6.057 Y-1.348 E16.66056
G1 X7.122 Y-0.046 E16.70730
G1 X7.909 Y1.431 E16.75378
G1 X8.404 Y3.035 E16.80041
G1 X8.566 Y4.714 E16.84727
G1 X8.404 Y6.382 E16.89381
G1 X7.909 Y7.986 E16.94045
G1 X7.122 Y9.463 E16.98693
G1 X6.057 Y10.765 E17.03367
G1 X4.754 Y11.831 E17.08041
G1 X3.277 Y12.618 E17.12689
G1 X1.673 Y13.113 E17.17353
G1 X0.006 Y13.274 E17.22007
G1 X-1.674 Y13.113 E17.26693
G1 X-3.277 Y12.618 E17.31356
G1 X-4.754 Y11.831 E17.36004
G1 X-6.057 Y10.765 E17.40678
G1 X-7.122 Y9.463 E17.45352
G1 X-7.908 Y7.988 E17.49993
G1 X-8.393 Y6.382 E17.54654
G1 X-8.565 Y4.714 E17.59311
G1 X-8.393 Y3.035 E17.64000
G1 X-7.908 Y1.429 E17.68661
G1 X-7.122 Y-0.046 E17.73302
G1 X-6.057 Y-1.348 E17.77976
G1 X-5.044 Y-2.176 E17.81608
G1 X-5.332 Y-2.645 F12000.000
G1 X-5.058 Y-2.869 E17.82262 F900.000
G1 X-3.489 Y-3.705 E17.85550
G1 X-1.781 Y-4.221 E17.88847
G1 X0.022 Y-4.403 E17.92198
G1 X1.781 Y-4.221 E17.95467
G1 X3.489 Y-3.705 E17.98765 F900.000
G1 X5.058 Y-2.869 E18.02053
G1 X6.444 Y-1.735 E18.05363
G1 X7.578 Y-0.349 E18.08674
G1 X8.414 Y1.221 E18.11963
G1 X8.941 Y2.928 E18.15266
G1 X9.113 Y4.714 E18.18585
G1 X8.941 Y6.490 E18.21882
G1 X8.414 Y8.197 E18.25185
G1 X7.578 Y9.767 E18.28474
G1 X6.444 Y11.153 E18.31785
G1 X5.058 Y12.287 E18.35095
G1 X3.488 Y13.123 E18.38384
G1 X1.781 Y13.650 E18.41687
G1 X0.006 Y13.822 E18.44984
G1 X-1.781 Y13.650 E18.48303
G1 X-3.488 Y13.123 E18.51606
G1 X-5.058 Y12.287 E18.54895
G1 X-6.444 Y11.153 E18.58206
G1 X-7.578 Y9.767 E18.61517
G1 X-8.414 Y8.197 E18.64804
G1 X-8.930 Y6.490 E18.68102
G1 X-9.113 Y4.714 E18.71402
