G28
;DOWN ALL THE WAY 
M340 P0 S1700
G4 P30000
M340 P0 S1200

;ALL THE WAY UP
M340 P0 S900
G4 P31000
M340 P0 S1500

;DOWN FOR THE PRINTER PAGE
M340 P0 S1700
G4 P4000
M340 P0 S1200


;printpage

;ALL THE WAY UP
M340 P0 S900
G4 P7000
M340 P0 S1500





;start
;Print id is
;88
; User Name:mmiscool
;          :Mike Molinari
;User Phone:(860) 123-0000
;
;
;
;
; generated by Slic3r 1.2.9 on 2017-07-11 at 02:43:55

; external perimeters extrusion width = 0.50mm
; perimeters extrusion width = 0.72mm
; infill extrusion width = 0.72mm
; solid infill extrusion width = 0.72mm
; top infill extrusion width = 0.72mm
; support material extrusion width = 0.50mm

M107
M104 S210 ; set temperature
M112
G28
M109 S210 ; wait for temperature to be reached
G21 ; set units to millimeters
G90 ; use absolute coordinates
M82 ; use absolute distances for extrusion
G92 E0
G1 Z0.500 F12000.000
G1 E-0.10000 F2400.00000
G92 E0
G1 X10.783 Y0.000 F12000.000
G1 E0.10000 F2400.00000
G1 X10.783 Y3.398 E0.31454 F1469.725
G1 X10.460 Y5.481 E0.44765
G1 X10.397 Y5.681 E0.46089
G1 X9.992 Y6.680 E0.52898
G1 X9.844 Y6.974 E0.54975
G1 X9.087 Y8.163 E0.63876
G1 X8.986 Y8.289 E0.64895
G1 X7.244 Y9.850 E0.79669
G1 X5.079 Y10.738 E0.94443
G1 X3.583 Y10.902 E1.03944
G1 X-2.408 Y10.902 E1.41776
G1 X-3.101 Y10.867 E1.46159
G1 X-4.844 Y10.675 E1.57231
G1 X-7.064 Y9.937 E1.72005
G1 X-8.910 Y8.498 E1.86780
G1 X-10.168 Y6.526 E2.01554
G1 X-10.676 Y4.476 E2.14887
G1 X-10.755 Y3.598 E2.20454
G1 X-10.783 Y2.982 E2.24350
G1 X-10.783 Y-1.003 E2.49511
G1 X-10.717 Y-3.766 E2.66962
G1 X-9.992 Y-6.680 E2.85926
G1 X-9.844 Y-6.974 E2.88003
G1 X-8.455 Y-8.857 E3.02777
G1 X-6.517 Y-10.166 E3.17551
G1 X-4.351 Y-10.743 E3.31703
G1 X-3.051 Y-10.870 E3.39953
G1 X-2.383 Y-10.902 E3.44173
G1 X3.608 Y-10.902 E3.82005
G1 X5.914 Y-10.505 E3.96779
G1 X7.696 Y-9.559 E4.09520 F1469.725
G1 X7.899 Y-9.409 E4.11112
G1 X9.520 Y-7.722 E4.25886
G1 X10.483 Y-5.590 E4.40660
G1 X10.702 Y-4.032 E4.50595
G1 X10.783 Y-0.075 E4.75587
G1 E4.65587 F2400.00000
G92 E0
G1 X3.583 Y4.009 F12000.000
G1 E0.10000 F2400.00000
G1 X3.890 Y3.398 E0.14322 F1469.725
G1 X1.586 Y4.009 E0.29373
G1 X3.890 Y-0.587 E0.61840
G1 X3.608 Y-4.009 E0.83523
G1 X-0.411 Y4.009 E1.40163
G1 X-2.408 Y4.009 E1.52774
G1 X1.611 Y-4.009 E2.09413
G1 X-0.386 Y-4.009 E2.22024
G1 X-3.890 Y2.982 E2.71405
G1 X-3.890 Y-1.003 E2.96566
G1 X-2.383 Y-4.009 E3.17802
G1 Z0.880 F12000.000
G1 E3.07802 F2400.00000
G92 E0
G1 X-2.914 Y-4.500 F12000.000
G1 X-2.914 Y-4.500 F12000.000
G1 X-2.914 Y-3.500 F12000.000
G1 X2.256 Y-2.264 F12000.000
G1 E0.10000 F2400.00000
G1 X2.873 Y-3.332 E0.12774 F734.075
G1 X-2.002 Y-3.332 E0.23739
G1 X-1.385 Y-2.264 E0.26513
G1 X2.256 Y-2.264 E0.34704
G1 X3.332 Y0.034 F12000.000
G1 X2.256 Y-1.828 E0.39542 F734.075
G1 X-1.385 Y-1.828 E0.47733
G1 X-2.828 Y0.672 E0.54227
G1 X-3.332 Y0.672 E0.55359
G1 X-3.332 Y1.108 E0.56339
G1 X-2.828 Y1.108 E0.57471
G1 X-1.544 Y3.332 E0.63248
G1 X2.416 Y3.332 E0.72156
G1 X3.332 Y1.745 E0.76277
G1 X3.332 Y0.034 E0.80125
G1 X3.750 Y3.750 F12000.000
G1 X3.750 Y-3.750 E0.96997 F734.075
G1 X-3.750 Y-3.750 E1.13868
G1 X-3.750 Y3.750 E1.30740
G1 X3.750 Y3.750 E1.47612
G1 Z1.250 F12000.000
G1 X-3.750 Y3.750 E1.64124 F733.891
G1 X-3.750 Y-3.750 E1.80635
G1 X3.750 Y-3.750 E1.97147
G1 X3.750 Y3.750 E2.13659
G1 X3.329 Y0.031 F12000.000
G1 X2.256 Y-1.828 E2.18385 F733.891
G1 X-1.385 Y-1.828 E2.26401
G1 X-2.828 Y0.672 E2.32757
G1 X-3.329 Y0.672 E2.33860
G1 X-3.329 Y1.108 E2.34819
G1 X-2.828 Y1.108 E2.35922
G1 X-1.546 Y3.329 E2.41570
G1 X2.417 Y3.329 E2.50294
G1 X3.329 Y1.749 E2.54312
G1 X3.329 Y0.031 E2.58094
G1 X2.256 Y-2.264 F12000.000
G1 X2.872 Y-3.329 E2.60804 F733.891
G1 X-2.000 Y-3.329 E2.71529
G1 X-1.385 Y-2.264 E2.74239
G1 X2.256 Y-2.264 E2.82255
M106 S255
G1 Z1.630 F12000.000
G1 E2.72255 F2400.00000
G92 E0
G1 X-2.914 Y-3.500 F12000.000
G1 X-3.743 Y-4.328 F12000.000
G1 X-4.157 Y-4.157 F12000.000
G1 X-4.328 Y-3.743 F12000.000
G1 X-3.826 Y-3.598 F12000.000
G1 E0.10000 F2400.00000
G1 X-3.684 Y-3.882 E0.10715 F1883.749
G1 X-3.215 Y-3.882 E0.11771
G1 X-3.826 Y-2.662 E0.14842
G1 X-3.826 Y-1.726 E0.16947
G1 X-2.746 Y-3.882 E0.22373
G1 X-2.276 Y-3.882 E0.23429
G1 X-3.826 Y-0.790 E0.31210
G1 X-3.826 Y0.146 E0.33316
G1 X-1.807 Y-3.882 E0.43453
G1 X-1.338 Y-3.882 E0.44508
G1 X-3.826 Y1.082 E0.57000
G1 X-3.826 Y2.018 E0.59106
G1 X-0.869 Y-3.882 E0.73953
G1 X-0.400 Y-3.882 E0.75008
G1 X-3.826 Y2.954 E0.92211
G1 X-3.811 Y3.860 E0.94249
G1 X0.069 Y-3.882 E1.13730
G1 X0.538 Y-3.882 E1.14786
G1 X-3.353 Y3.882 E1.34324
G1 X-2.884 Y3.882 E1.35379
G1 X1.008 Y-3.882 E1.54917
G1 X1.477 Y-3.882 E1.55973
G1 X-2.415 Y3.882 E1.75511
G1 X-1.946 Y3.882 E1.76566
G1 X1.946 Y-3.882 E1.96104
G1 X2.415 Y-3.882 E1.97160
G1 X-1.477 Y3.882 E2.16698
G1 X-1.008 Y3.882 E2.17753
G1 X2.884 Y-3.882 E2.37291
G1 X3.353 Y-3.882 E2.38346
G1 X-0.538 Y3.882 E2.57885
G1 X-0.069 Y3.882 E2.58940
G1 X3.811 Y-3.860 E2.78422
G1 X3.826 Y-2.954 E2.80459
G1 X0.400 Y3.882 E2.97662
G1 X0.869 Y3.882 E2.98717
G1 X3.826 Y-2.018 E3.13565
G1 X3.826 Y-1.082 E3.15670
G1 X1.338 Y3.882 E3.28163
G1 X1.807 Y3.882 E3.29218
G1 X3.826 Y-0.146 E3.39355
G1 X3.826 Y0.790 E3.41460
G1 X2.276 Y3.882 E3.49242
G1 X2.746 Y3.882 E3.50297
G1 X3.826 Y1.726 E3.55723
G1 X3.826 Y2.662 E3.57829
G1 X3.215 Y3.882 E3.60900
G1 X3.826 Y3.598 E3.62417
G1 X3.684 Y3.882 E3.63133
G1 Z2.000 F12000.000
G1 X3.684 Y3.883 F12000.000
G1 X3.827 Y3.597 E3.63836 F1727.961
G1 X3.194 Y3.883 E3.65364
G1 X3.827 Y2.621 E3.68472
G1 X3.827 Y1.644 F12000.000
G1 X2.704 Y3.883 E3.73986 F1727.961
G1 X2.215 Y3.883 E3.75064
G1 X3.827 Y0.667 E3.82983
G1 X3.827 Y-0.309 F12000.000
G1 X1.725 Y3.883 E3.93307 F1727.961
G1 X1.236 Y3.883 E3.94385
G1 X3.827 Y-1.286 E4.07115
G1 X3.827 Y-2.263 F12000.000
G1 X0.746 Y3.883 E4.22250 F1727.961
G1 X0.257 Y3.883 E4.23327
G1 X3.827 Y-3.240 E4.40868
G1 X3.659 Y-3.883 E4.42331
G1 X-0.233 Y3.883 E4.61455
G1 X-0.722 Y3.883 E4.62533
G1 X3.170 Y-3.883 E4.81657
G1 X2.680 Y-3.883 E4.82735
G1 X-1.212 Y3.883 E5.01859
G1 X-1.701 Y3.883 E5.02937
G1 X2.191 Y-3.883 E5.22061
G1 X1.701 Y-3.883 E5.23139
G1 X-2.191 Y3.883 E5.42264
G1 X-2.680 Y3.883 E5.43341
G1 X1.212 Y-3.883 E5.62466
G1 X0.722 Y-3.883 E5.63543
G1 X-3.170 Y3.883 E5.82668
G1 X-3.660 Y3.883 E5.83745
G1 X0.233 Y-3.883 E6.02870
G1 X-0.257 Y-3.883 E6.03948
G1 X-3.827 Y3.240 E6.21488
G1 X-3.827 Y2.263 F12000.000
G1 X-0.746 Y-3.883 E6.36623 F1727.961
G1 X-1.236 Y-3.883 E6.37701
G1 X-3.827 Y1.286 E6.50430
G1 X-3.827 Y0.309 F12000.000
G1 X-1.725 Y-3.883 E6.60754 F1727.961
G1 X-2.215 Y-3.883 E6.61832
G1 X-3.827 Y-0.667 E6.69751
G1 X-3.827 Y-1.644 F12000.000
G1 X-2.704 Y-3.883 E6.75265 F1727.961
G1 X-3.194 Y-3.883 E6.76343
G1 X-3.827 Y-2.621 E6.79451
G1 X-3.827 Y-3.597 F12000.000
G1 X-3.684 Y-3.883 E6.80154 F1727.961
M106 S249.9
G1 Z2.375 F12000.000
G1 X-3.684 Y-3.883 F12000.000
G1 X-3.826 Y-3.598 E6.80863 F3600.000
G1 X-3.826 Y-2.621 F12000.000
G1 X-3.194 Y-3.883 E6.84004 F3600.000
G1 X-2.705 Y-3.883 E6.85094
G1 X-3.826 Y-1.644 E6.90666
G1 X-3.826 Y-0.668 F12000.000
G1 X-2.215 Y-3.883 E6.98670 F3600.000
G1 X-1.726 Y-3.883 E6.99760
G1 X-3.826 Y0.309 E7.10196
G1 X-3.826 Y1.286 F12000.000
G1 X-1.236 Y-3.883 E7.23063 F3600.000
G1 X-0.746 Y-3.883 E7.24153
G1 X-3.826 Y2.263 E7.39451
G1 X-3.826 Y3.239 F12000.000
G1 X-0.257 Y-3.883 E7.57182 F3600.000
G1 X0.233 Y-3.883 E7.58271
G1 X-3.659 Y3.883 E7.77603
G1 X-3.170 Y3.883 E7.78693
G1 X0.722 Y-3.883 E7.98025
G1 X1.212 Y-3.883 E7.99114
G1 X-2.680 Y3.883 E8.18446
G1 X-2.191 Y3.883 E8.19536
G1 X1.701 Y-3.883 E8.38868
G1 X2.191 Y-3.883 E8.39957
G1 X-1.701 Y3.883 E8.59289
G1 X-1.212 Y3.883 E8.60379
G1 X2.680 Y-3.883 E8.79711
G1 X3.170 Y-3.883 E8.80800
G1 X-0.722 Y3.883 E9.00132
G1 X-0.233 Y3.883 E9.01222
G1 X3.659 Y-3.883 E9.20553
G1 X3.826 Y-3.239 E9.22033
G1 X0.257 Y3.883 E9.39763
G1 X0.746 Y3.883 E9.40853
G1 X3.826 Y-2.263 E9.56152
G1 X3.826 Y-1.286 F12000.000
G1 X1.236 Y3.883 E9.69019 F3600.000
G1 X1.726 Y3.883 E9.70108
G1 X3.826 Y-0.309 E9.80544
G1 X3.826 Y0.668 F12000.000
G1 X2.215 Y3.883 E9.88548 F3600.000
G1 X2.705 Y3.883 E9.89638
G1 X3.826 Y1.644 E9.95210
G1 X3.826 Y2.621 F12000.000
G1 X3.194 Y3.883 E9.98351 F3600.000
G1 X3.826 Y3.598 E9.99895
G1 X3.684 Y3.883 E10.00604
G1 Z3.075 F12000.000
G1 E9.90604 F2400.00000
G92 E0
G1 X3.743 Y4.328 F12000.000
G1 X3.743 Y4.328 F12000.000
G1 X2.914 Y3.500 F12000.000
G1 X0.592 Y0.592 F12000.000
G1 E0.10000 F2400.00000
M106 S255
G1 X-0.592 Y0.592 E0.13287 F900.000
G1 X-0.592 Y-0.592 E0.16575
G1 X0.592 Y-0.592 E0.19862
G1 X0.592 Y0.517 E0.22941
M106 S249.9
G1 X1.009 Y1.009 F12000.000
M106 S255
G1 X-1.009 Y1.009 E0.28548 F900.000
G1 X-1.009 Y-1.009 E0.34156
G1 X1.009 Y-1.009 E0.39764
G1 X1.009 Y0.934 E0.45164
M106 S249.9
G1 X1.427 Y1.427 F12000.000
M106 S255
G1 X-1.427 Y1.427 E0.53092 F900.000
G1 X-1.427 Y-1.427 E0.61020
G1 X1.427 Y-1.427 E0.68949
G1 X1.427 Y1.352 E0.76669
M106 S249.9
G1 X1.845 Y1.845 F12000.000
M106 S255
G1 X-1.845 Y1.845 E0.86917 F900.000
G1 X-1.845 Y-1.845 E0.97166
G1 X1.845 Y-1.845 E1.07415
G1 X1.845 Y1.770 E1.17456
M106 S249.9
G1 X2.250 Y2.250 F12000.000
M106 S255
G1 X-2.250 Y2.250 E1.29956 F900.000
G1 X-2.250 Y-2.250 E1.42456
G1 X2.250 Y-2.250 E1.54956
G1 X2.250 Y2.175 E1.67248
M106 S249.9
G1 X0.307 Y-0.034 F12000.000
M106 S255
G1 X0.034 Y-0.307 E1.68321 F3600.000
M106 S249.9
M106 S255
G1 Z3.375 F12000.000
G1 X0.396 Y0.396 F12000.000
G1 X-0.396 Y0.396 E1.70521 F600.000
G1 X-0.396 Y-0.396 E1.72721
G1 X0.396 Y-0.396 E1.74920
G1 X0.396 Y0.321 E1.76912
G1 X1.050 Y1.050 F12000.000
G1 X-1.050 Y1.050 E1.82748 F600.000
G1 X-1.050 Y-1.050 E1.88583
G1 X1.050 Y-1.050 E1.94419
G1 X1.050 Y0.975 E2.00047
G1 X1.705 Y1.705 F12000.000
G1 X-1.705 Y1.705 E2.09519 F600.000
G1 X-1.705 Y-1.705 E2.18990
G1 X1.705 Y-1.705 E2.28462
G1 X1.705 Y1.630 E2.37726
G1 X2.250 Y2.250 F12000.000
G1 X-2.250 Y2.250 E2.46046 F600.000
G1 X-2.250 Y-2.250 E2.54365
G1 X2.250 Y-2.250 E2.62685
G1 X2.250 Y2.175 E2.70866
G1 X1.817 Y2.000 F12000.000
G1 Z3.675 F12000.000
G1 X0.396 Y0.396 F12000.000
G1 X-0.396 Y0.396 E2.73066 F600.000
G1 X-0.396 Y-0.396 E2.75266
G1 X0.396 Y-0.396 E2.77465
G1 X0.396 Y0.321 E2.79457
G1 X1.050 Y1.050 F12000.000
G1 X-1.050 Y1.050 E2.85292 F600.000
G1 X-1.050 Y-1.050 E2.91128
G1 X1.050 Y-1.050 E2.96964
G1 X1.050 Y0.975 E3.02591
G1 X1.705 Y1.705 F12000.000
G1 X-1.705 Y1.705 E3.12063 F600.000
G1 X-1.705 Y-1.705 E3.21535
G1 X1.705 Y-1.705 E3.31007
G1 X1.705 Y1.630 E3.40271
G1 X2.250 Y2.250 F12000.000
G1 X-2.250 Y2.250 E3.48590 F600.000
G1 X-2.250 Y-2.250 E3.56910
G1 X2.250 Y-2.250 E3.65230
G1 X2.250 Y2.175 E3.73411
G1 X1.817 Y2.000 F12000.000
G1 Z3.975 F12000.000
G1 X0.396 Y0.396 F12000.000
G1 X-0.396 Y0.396 E3.75611 F600.000
G1 X-0.396 Y-0.396 E3.77810
G1 X0.396 Y-0.396 E3.80010
G1 X0.396 Y0.321 E3.82001
G1 X1.050 Y1.050 F12000.000
G1 X-1.050 Y1.050 E3.87837 F600.000
G1 X-1.050 Y-1.050 E3.93673
G1 X1.050 Y-1.050 E3.99509
G1 X1.050 Y0.975 E4.05136
G1 X1.705 Y1.705 F12000.000
G1 X-1.705 Y1.705 E4.14608 F600.000
G1 X-1.705 Y-1.705 E4.24080
G1 X1.705 Y-1.705 E4.33552
G1 X1.705 Y1.630 E4.42816
G1 X2.250 Y2.250 F12000.000
G1 X-2.250 Y2.250 E4.51135 F600.000
G1 X-2.250 Y-2.250 E4.59455
G1 X2.250 Y-2.250 E4.67775
G1 X2.250 Y2.175 E4.75956
G1 X1.817 Y2.000 F12000.000
G1 Z4.275 F12000.000
G1 X0.396 Y0.396 F12000.000
G1 X-0.396 Y0.396 E4.78155 F600.000
G1 X-0.396 Y-0.396 E4.80355
G1 X0.396 Y-0.396 E4.82555
G1 X0.396 Y0.321 E4.84546
G1 X1.050 Y1.050 F12000.000
G1 X-1.050 Y1.050 E4.90382 F600.000
G1 X-1.050 Y-1.050 E4.96218
G1 X1.050 Y-1.050 E5.02054
G1 X1.050 Y0.975 E5.07681
G1 X1.705 Y1.705 F12000.000
G1 X-1.705 Y1.705 E5.17153 F600.000
G1 X-1.705 Y-1.705 E5.26625
G1 X1.705 Y-1.705 E5.36097
G1 X1.705 Y1.630 E5.45360
G1 X2.250 Y2.250 F12000.000
G1 X-2.250 Y2.250 E5.53680 F600.000
G1 X-2.250 Y-2.250 E5.62000
G1 X2.250 Y-2.250 E5.70320
G1 X2.250 Y2.175 E5.78501
G1 X1.817 Y2.000 F12000.000
G1 Z4.575 F12000.000
G1 X0.396 Y0.396 F12000.000
G1 X-0.396 Y0.396 E5.80700 F600.000
G1 X-0.396 Y-0.396 E5.82900
G1 X0.396 Y-0.396 E5.85100
G1 X0.396 Y0.321 E5.87091
G1 X1.050 Y1.050 F12000.000
G1 X-1.050 Y1.050 E5.92927 F600.000
G1 X-1.050 Y-1.050 E5.98763
G1 X1.050 Y-1.050 E6.04598
G1 X1.050 Y0.975 E6.10226
G1 X1.705 Y1.705 F12000.000
G1 X-1.705 Y1.705 E6.19698 F600.000
G1 X-1.705 Y-1.705 E6.29170
G1 X1.705 Y-1.705 E6.38642
G1 X1.705 Y1.630 E6.47905
G1 X2.250 Y2.250 F12000.000
G1 X-2.250 Y2.250 E6.56225 F600.000
G1 X-2.250 Y-2.250 E6.64545
G1 X2.250 Y-2.250 E6.72864
G1 X2.250 Y2.175 E6.81045
G1 X1.817 Y2.000 F12000.000
G1 Z4.875 F12000.000
G1 X0.396 Y0.396 F12000.000
G1 X-0.396 Y0.396 E6.83245 F600.000
G1 X-0.396 Y-0.396 E6.85445
G1 X0.396 Y-0.396 E6.87644
G1 X0.396 Y0.321 E6.89636
G1 X1.050 Y1.050 F12000.000
G1 X-1.050 Y1.050 E6.95472 F600.000
G1 X-1.050 Y-1.050 E7.01307
G1 X1.050 Y-1.050 E7.07143
G1 X1.050 Y0.975 E7.12771
G1 X1.705 Y1.705 F12000.000
G1 X-1.705 Y1.705 E7.22243 F600.000
G1 X-1.705 Y-1.705 E7.31715
G1 X1.705 Y-1.705 E7.41186
G1 X1.705 Y1.630 E7.50450
G1 X2.250 Y2.250 F12000.000
G1 X-2.250 Y2.250 E7.58770 F600.000
G1 X-2.250 Y-2.250 E7.67089
G1 X2.250 Y-2.250 E7.75409
G1 X2.250 Y2.175 E7.83590
G1 X1.817 Y2.000 F12000.000
G1 Z5.175 F12000.000
G1 X0.396 Y0.396 F12000.000
G1 X-0.396 Y0.396 E7.85790 F600.000
G1 X-0.396 Y-0.396 E7.87990
G1 X0.396 Y-0.396 E7.90189
G1 X0.396 Y0.321 E7.92181
G1 X1.050 Y1.050 F12000.000
G1 X-1.050 Y1.050 E7.98016 F600.000
G1 X-1.050 Y-1.050 E8.03852
G1 X1.050 Y-1.050 E8.09688
G1 X1.050 Y0.975 E8.15316
G1 X1.705 Y1.705 F12000.000
G1 X-1.705 Y1.705 E8.24787 F600.000
G1 X-1.705 Y-1.705 E8.34259
G1 X1.705 Y-1.705 E8.43731
G1 X1.705 Y1.630 E8.52995
G1 X2.250 Y2.250 F12000.000
G1 X-2.250 Y2.250 E8.61315 F600.000
G1 X-2.250 Y-2.250 E8.69634
G1 X2.250 Y-2.250 E8.77954
G1 X2.250 Y2.175 E8.86135
G1 X1.817 Y2.000 F12000.000
G1 Z5.475 F12000.000
G1 X0.396 Y0.396 F12000.000
G1 X-0.396 Y0.396 E8.88335 F600.000
G1 X-0.396 Y-0.396 E8.90534
G1 X0.396 Y-0.396 E8.92734
G1 X0.396 Y0.321 E8.94725
G1 X1.050 Y1.050 F12000.000
G1 X-1.050 Y1.050 E9.00561 F600.000
G1 X-1.050 Y-1.050 E9.06397
G1 X1.050 Y-1.050 E9.12233
G1 X1.050 Y0.975 E9.17860
G1 X1.705 Y1.705 F12000.000
G1 X-1.705 Y1.705 E9.27332 F600.000
G1 X-1.705 Y-1.705 E9.36804
G1 X1.705 Y-1.705 E9.46276
G1 X1.705 Y1.630 E9.55540
G1 X2.250 Y2.250 F12000.000
G1 X-2.250 Y2.250 E9.63859 F600.000
G1 X-2.250 Y-2.250 E9.72179
G1 X2.250 Y-2.250 E9.80499
G1 X2.250 Y2.175 E9.88680
G1 X1.817 Y2.000 F12000.000
G1 Z5.775 F12000.000
G1 X0.396 Y0.396 F12000.000
G1 X-0.396 Y0.396 E9.90880 F600.000
G1 X-0.396 Y-0.396 E9.93079
G1 X0.396 Y-0.396 E9.95279
G1 X0.396 Y0.321 E9.97270
G1 X1.050 Y1.050 F12000.000
G1 X-1.050 Y1.050 E10.03106 F600.000
G1 X-1.050 Y-1.050 E10.08942
G1 X1.050 Y-1.050 E10.14778
G1 X1.050 Y0.975 E10.20405
G1 X1.705 Y1.705 F12000.000
G1 X-1.705 Y1.705 E10.29877 F600.000
G1 X-1.705 Y-1.705 E10.39349
G1 X1.705 Y-1.705 E10.48821
G1 X1.705 Y1.630 E10.58084
G1 X2.250 Y2.250 F12000.000
G1 X-2.250 Y2.250 E10.66404 F600.000
G1 X-2.250 Y-2.250 E10.74724
G1 X2.250 Y-2.250 E10.83044
G1 X2.250 Y2.175 E10.91225
G1 X1.817 Y2.000 F12000.000
G1 Z6.075 F12000.000
G1 X0.396 Y0.396 F12000.000
G1 X-0.396 Y0.396 E10.93424 F600.000
G1 X-0.396 Y-0.396 E10.95624
G1 X0.396 Y-0.396 E10.97824
G1 X0.396 Y0.321 E10.99815
G1 X1.050 Y1.050 F12000.000
G1 X-1.050 Y1.050 E11.05651 F600.000
G1 X-1.050 Y-1.050 E11.11487
G1 X1.050 Y-1.050 E11.17323
G1 X1.050 Y0.975 E11.22950
G1 X1.705 Y1.705 F12000.000
G1 X-1.705 Y1.705 E11.32422 F600.000
G1 X-1.705 Y-1.705 E11.41894
G1 X1.705 Y-1.705 E11.51366
G1 X1.705 Y1.630 E11.60629
G1 X2.250 Y2.250 F12000.000
G1 X-2.250 Y2.250 E11.68949 F600.000
G1 X-2.250 Y-2.250 E11.77269
G1 X2.250 Y-2.250 E11.85588
G1 X2.250 Y2.175 E11.93769
G1 X1.817 Y2.000 F12000.000
G1 Z6.375 F12000.000
G1 X0.396 Y0.396 F12000.000
G1 X-0.396 Y0.396 E11.95969 F600.000
G1 X-0.396 Y-0.396 E11.98169
G1 X0.396 Y-0.396 E12.00369
G1 X0.396 Y0.321 E12.02360
G1 X1.050 Y1.050 F12000.000
G1 X-1.050 Y1.050 E12.08196 F600.000
G1 X-1.050 Y-1.050 E12.14032
G1 X1.050 Y-1.050 E12.19867
G1 X1.050 Y0.975 E12.25495
G1 X1.705 Y1.705 F12000.000
G1 X-1.705 Y1.705 E12.34967 F600.000
G1 X-1.705 Y-1.705 E12.44439
G1 X1.705 Y-1.705 E12.53910
G1 X1.705 Y1.630 E12.63174
G1 X2.250 Y2.250 F12000.000
G1 X-2.250 Y2.250 E12.71494 F600.000
G1 X-2.250 Y-2.250 E12.79813
G1 X2.250 Y-2.250 E12.88133
G1 X2.250 Y2.175 E12.96314
G1 X1.817 Y2.000 F12000.000
G1 Z6.675 F12000.000
G1 X0.396 Y0.396 F12000.000
G1 X-0.396 Y0.396 E12.98514 F600.000
G1 X-0.396 Y-0.396 E13.00714
G1 X0.396 Y-0.396 E13.02913
G1 X0.396 Y0.321 E13.04905
G1 X1.050 Y1.050 F12000.000
G1 X-1.050 Y1.050 E13.10741 F600.000
G1 X-1.050 Y-1.050 E13.16576
G1 X1.050 Y-1.050 E13.22412
G1 X1.050 Y0.975 E13.28040
G1 X1.705 Y1.705 F12000.000
G1 X-1.705 Y1.705 E13.37512 F600.000
G1 X-1.705 Y-1.705 E13.46983
G1 X1.705 Y-1.705 E13.56455
G1 X1.705 Y1.630 E13.65719
G1 X2.250 Y2.250 F12000.000
G1 X-2.250 Y2.250 E13.74039 F600.000
G1 X-2.250 Y-2.250 E13.82358
G1 X2.250 Y-2.250 E13.90678
G1 X2.250 Y2.175 E13.98859
G1 X1.817 Y2.000 F12000.000
G1 Z6.975 F12000.000
G1 X0.396 Y0.396 F12000.000
G1 X-0.396 Y0.396 E14.01059 F600.000
G1 X-0.396 Y-0.396 E14.03258
G1 X0.396 Y-0.396 E14.05458
G1 X0.396 Y0.321 E14.07450
G1 X1.050 Y1.050 F12000.000
G1 X-1.050 Y1.050 E14.13285 F600.000
G1 X-1.050 Y-1.050 E14.19121
G1 X1.050 Y-1.050 E14.24957
G1 X1.050 Y0.975 E14.30584
G1 X1.705 Y1.705 F12000.000
G1 X-1.705 Y1.705 E14.40056 F600.000
G1 X-1.705 Y-1.705 E14.49528
G1 X1.705 Y-1.705 E14.59000
G1 X1.705 Y1.630 E14.68264
G1 X2.250 Y2.250 F12000.000
G1 X-2.250 Y2.250 E14.76583 F600.000
G1 X-2.250 Y-2.250 E14.84903
G1 X2.250 Y-2.250 E14.93223
G1 X2.250 Y2.175 E15.01404
G1 X1.817 Y2.000 F12000.000
G1 Z7.275 F12000.000
G1 X0.396 Y0.396 F12000.000
G1 X-0.396 Y0.396 E15.03604 F600.000
G1 X-0.396 Y-0.396 E15.05803
G1 X0.396 Y-0.396 E15.08003
G1 X0.396 Y0.321 E15.09994
G1 X1.050 Y1.050 F12000.000
G1 X-1.050 Y1.050 E15.15830 F600.000
G1 X-1.050 Y-1.050 E15.21666
G1 X1.050 Y-1.050 E15.27502
G1 X1.050 Y0.975 E15.33129
G1 X1.705 Y1.705 F12000.000
G1 X-1.705 Y1.705 E15.42601 F600.000
G1 X-1.705 Y-1.705 E15.52073
G1 X1.705 Y-1.705 E15.61545
G1 X1.705 Y1.630 E15.70808
G1 X2.250 Y2.250 F12000.000
G1 X-2.250 Y2.250 E15.79128 F600.000
G1 X-2.250 Y-2.250 E15.87448
G1 X2.250 Y-2.250 E15.95768
G1 X2.250 Y2.175 E16.03949
G1 X1.817 Y2.000 F12000.000
G1 Z7.575 F12000.000
G1 E15.93949 F2400.00000
G92 E0
G1 X0.396 Y0.396 F12000.000
G1 E0.10000 F2400.00000
G1 X-0.396 Y0.396 E0.12200 F600.000
G1 X-0.396 Y-0.396 E0.14399
G1 X0.396 Y-0.396 E0.16599
G1 X0.396 Y0.321 E0.18590
G1 X1.050 Y1.050 F12000.000
G1 X-1.050 Y1.050 E0.24426 F600.000
G1 X-1.050 Y-1.050 E0.30262
G1 X1.050 Y-1.050 E0.36098
G1 X1.050 Y0.975 E0.41725
G1 X1.705 Y1.705 F12000.000
G1 X-1.705 Y1.705 E0.51197 F600.000
G1 X-1.705 Y-1.705 E0.60669
G1 X1.705 Y-1.705 E0.70141
G1 X1.705 Y1.630 E0.79405
G1 X2.250 Y2.250 F12000.000
G1 X-2.250 Y2.250 E0.87724 F600.000
G1 X-2.250 Y-2.250 E0.96044
G1 X2.250 Y-2.250 E1.04364
G1 X2.250 Y2.175 E1.12545
G1 X1.817 Y2.000 F12000.000
G1 E1.02545 F2400.00000
G92 E0
M107

; filament used = 37.3mm (0.3cm3)

; avoid_crossing_perimeters = 1
; bed_shape = 0x0,200x0,200x200,0x200
; bed_temperature = 0
; before_layer_gcode = 
; bridge_acceleration = 0
; bridge_fan_speed = 100
; brim_width = 0
; complete_objects = 0
; cooling = 1
; default_acceleration = 0
; disable_fan_first_layers = 3
; duplicate_distance = 6
; end_gcode = 
; extruder_clearance_height = 20
; extruder_clearance_radius = 20
; extruder_offset = 0x0
; extrusion_axis = E
; extrusion_multiplier = 1
; fan_always_on = 0
; fan_below_layer_time = 60
; filament_colour = #FFFFFF
; filament_diameter = 3
; first_layer_acceleration = 0
; first_layer_bed_temperature = 0
; first_layer_extrusion_width = 200%
; first_layer_speed = 30
; first_layer_temperature = 210
; gcode_arcs = 0
; gcode_comments = 0
; gcode_flavor = reprap
; infill_acceleration = 0
; infill_first = 0
; layer_gcode = 
; max_fan_speed = 100
; max_print_speed = 80
; max_volumetric_speed = 0
; min_fan_speed = 35
; min_print_speed = 10
; min_skirt_length = 0
; notes = 
; nozzle_diameter = 0.5
; only_retract_when_crossing_perimeters = 1
; ooze_prevention = 0
; output_filename_format = [input_filename_base].gcode
; perimeter_acceleration = 0
; post_process = 
; pressure_advance = 0
; resolution = 0
; retract_before_travel = 2
; retract_layer_change = 0
; retract_length = 0.1
; retract_length_toolchange = 10
; retract_lift = 0
; retract_restart_extra = 0
; retract_restart_extra_toolchange = 0
; retract_speed = 40
; skirt_distance = 6
; skirt_height = 1
; skirts = 1
; slowdown_below_layer_time = 5
; spiral_vase = 0
; standby_temperature_delta = -5
; start_gcode = M112\nG28
; temperature = 210
; threads = 2
; toolchange_gcode = 
; travel_speed = 200
; use_firmware_retraction = 0
; use_relative_e_distances = 0
; use_volumetric_e = 0
; vibration_limit = 0
; wipe = 0
; z_offset = 0
; dont_support_bridges = 1
; extrusion_width = 0
; first_layer_height = 0.5
; infill_only_where_needed = 0
; interface_shells = 0
; layer_height = 0.3
; raft_layers = 6
; seam_position = aligned
; support_material = 1
; support_material_angle = 0
; support_material_contact_distance = 0.2
; support_material_enforce_layers = 0
; support_material_extruder = 1
; support_material_extrusion_width = 0
; support_material_interface_extruder = 1
; support_material_interface_layers = 3
; support_material_interface_spacing = 0
; support_material_interface_speed = 100%
; support_material_pattern = pillars
; support_material_spacing = 2.5
; support_material_speed = 60
; support_material_threshold = 0
; xy_size_compensation = 0
; bottom_solid_layers = 5
; bridge_flow_ratio = 1
; bridge_speed = 60
; external_fill_pattern = rectilinear
; external_perimeter_extrusion_width = 0
; external_perimeter_speed = 50%
; external_perimeters_first = 0
; extra_perimeters = 1
; fill_angle = 45
; fill_density = 20%
; fill_pattern = honeycomb
; gap_fill_speed = 20
; infill_every_layers = 10
; infill_extruder = 1
; infill_extrusion_width = 0
; infill_overlap = 15%
; infill_speed = 50
; overhangs = 1
; perimeter_extruder = 1
; perimeter_extrusion_width = 0
; perimeter_speed = 30
; perimeters = 5
; small_perimeter_speed = 15
; solid_infill_below_area = 70
; solid_infill_every_layers = 0
; solid_infill_extruder = 1
; solid_infill_extrusion_width = 0
; solid_infill_speed = 20
; thin_walls = 1
; top_infill_extrusion_width = 0
; top_solid_infill_speed = 15
; top_solid_layers = 5
;DOWN ALL THE WAY 
M340 P0 S1700
G4 P22000
M340 P0 S1200






