G28
;DOWN ALL THE WAY 
G1 X55
G1 Z55
G4 P30000


;ALL THE WAY UP
G1 Z100
G1 X-55
G1 Z63
G4 P31000


;DOWN FOR THE PRINTER PAGE
G1 Z100
G1 X55
G1 Z55
G4 P5000
G28

;printpage

;ALL THE WAY UP
G1 Z100
G1 X-55
G1 Z63
G4 P31000
G28
















;start
;Print id is
;189
; User Name:mmiscool
;          :Mike Molinari
;User Phone:(860) 123-0000
; File Name:tiny cube.stl
;
;
;
; generated by Slic3r 1.2.9 on 2017-07-28 at 04:36:10

; external perimeters extrusion width = 0.50mm
; perimeters extrusion width = 0.58mm
; infill extrusion width = 0.58mm
; solid infill extrusion width = 0.58mm
; top infill extrusion width = 0.58mm
; support material extrusion width = 0.50mm

M107
M104 S205 ; set temperature

M109 S205 ; wait for temperature to be reached
G21 ; set units to millimeters
G90 ; use absolute coordinates
M82 ; use absolute distances for extrusion
G92 E0
G1 Z0.400 F12000.000
G1 E-0.50000 F2400.00000
G92 E0
G1 X10.580 Y-0.000 F12000.000
G1 E0.50000 F2400.00000
G1 X10.580 Y3.445 E0.56962 F1556.803
G1 X10.366 Y5.129 E0.60392
G1 X10.326 Y5.281 E0.60709
G1 X9.832 Y6.600 E0.63555
G1 X9.685 Y6.894 E0.64219
G1 X8.505 Y8.556 E0.68338
G1 X8.429 Y8.634 E0.68559
G1 X6.560 Y9.991 E0.73224
G1 X3.607 Y10.676 E0.79350
G1 X-2.783 Y10.676 E0.92263
G1 X-3.384 Y10.649 E0.93477
G1 X-4.260 Y10.570 E0.95255
G1 X-4.817 Y10.498 E0.96391
G1 X-7.007 Y9.765 E1.01056
G1 X-8.818 Y8.333 E1.05722
G1 X-10.038 Y6.372 E1.10388
G1 X-10.514 Y4.257 E1.14769
G1 X-10.568 Y3.331 E1.16644
G1 X-10.580 Y-3.441 E1.30328
G1 X-10.376 Y-5.085 E1.33675
G1 X-10.337 Y-5.241 E1.34000
G1 X-9.832 Y-6.600 E1.36929
G1 X-9.685 Y-6.894 E1.37594
G1 X-8.444 Y-8.617 E1.41884
G1 X-8.366 Y-8.696 E1.42108
G1 X-6.481 Y-10.029 E1.46774
G1 X-3.605 Y-10.676 E1.52729
G1 X2.785 Y-10.676 E1.65643
G1 X3.387 Y-10.649 E1.66859
G1 X4.261 Y-10.570 E1.68633 F1556.803
G1 X4.817 Y-10.498 E1.69766
G1 X7.007 Y-9.765 E1.74432
G1 X8.818 Y-8.333 E1.79097
G1 X10.037 Y-6.373 E1.83763
G1 X10.514 Y-4.255 E1.88148
G1 X10.580 Y-2.930 E1.90829
G1 X10.580 Y-0.075 E1.96598
G1 E1.46598 F2400.00000
G92 E0
G1 X3.607 Y3.962 F12000.000
G1 E0.50000 F2400.00000
G1 X3.866 Y3.445 E0.51167 F1556.803
G1 X2.010 Y3.962 E0.55060
G1 X3.866 Y0.258 E0.63431
G1 X3.866 Y-2.930 E0.69873
G1 X0.412 Y3.962 E0.85449
G1 X-1.186 Y3.962 E0.88677
G1 X2.785 Y-3.962 E1.06586
G1 X1.188 Y-3.962 E1.09814
G1 X-2.783 Y3.962 E1.27722
G1 X-3.866 Y2.934 E1.30738
G1 X-0.410 Y-3.962 E1.46324
G1 X-2.008 Y-3.962 E1.49552
G1 X-3.866 Y-0.254 E1.57932
G1 X-3.866 Y-3.441 E1.64374
G1 X-3.605 Y-3.962 E1.65549
G1 Z0.780 F12000.000
G1 X2.216 Y-2.256 F12000.000
G1 X2.837 Y-3.332 E1.66946 F732.764
G1 X-2.009 Y-3.332 E1.72396
G1 X-1.388 Y-2.256 E1.73793
G1 X2.216 Y-2.256 E1.77846
G1 X3.332 Y0.090 F12000.000
G1 X2.216 Y-1.842 E1.80355 F732.764
G1 X-1.388 Y-1.842 E1.84409
G1 X-2.831 Y0.658 E1.87656
G1 X-3.332 Y0.658 E1.88219
G1 X-3.332 Y1.072 E1.88685
G1 X-2.831 Y1.072 E1.89247
G1 X-1.527 Y3.332 E1.92182
G1 X2.355 Y3.332 E1.96548
G1 X3.332 Y1.640 E1.98745
G1 X3.332 Y0.090 E2.00489
G1 X3.750 Y3.750 F12000.000
G1 X3.750 Y-3.750 E2.08925 F732.764
G1 X-3.750 Y-3.750 E2.17360
G1 X-3.750 Y3.750 E2.25796
G1 X3.750 Y3.750 E2.34232
G1 Z1.150 F12000.000
G1 X-3.750 Y3.750 E2.42488 F732.580
G1 X-3.750 Y-3.750 E2.50744
G1 X3.750 Y-3.750 E2.59000
G1 X3.750 Y3.750 E2.67256
G1 X3.329 Y0.086 F12000.000
G1 X2.216 Y-1.842 E2.69707 F732.580
G1 X-1.388 Y-1.842 E2.73674
G1 X-2.831 Y0.658 E2.76852
G1 X-3.329 Y0.658 E2.77400
G1 X-3.329 Y1.072 E2.77856
G1 X-2.831 Y1.072 E2.78404
G1 X-1.528 Y3.329 E2.81274
G1 X2.356 Y3.329 E2.85549
G1 X3.329 Y1.644 E2.87692
G1 X3.329 Y0.086 E2.89407
G1 X2.216 Y-2.256 F12000.000
G1 X2.836 Y-3.329 E2.90771 F732.580
G1 X-2.007 Y-3.329 E2.96102
G1 X-1.388 Y-2.256 E2.97466
G1 X2.216 Y-2.256 E3.01434
M106 S255
G1 Z1.520 F12000.000
G1 E2.51434 F2400.00000
G92 E0
G1 X3.500 Y-2.914 F12000.000
G1 X3.500 Y-2.914 F12000.000
G1 X3.827 Y-2.263 F12000.000
G1 E0.50000 F2400.00000
G1 X0.746 Y3.883 E0.57567 F1727.961
G1 X0.257 Y3.883 E0.58106
G1 X3.827 Y-3.240 E0.66877
G1 X3.659 Y-3.883 E0.67608
G1 X-0.233 Y3.883 E0.77170
G1 X-0.722 Y3.883 E0.77709
G1 X3.170 Y-3.883 E0.87271
G1 X2.680 Y-3.883 E0.87810
G1 X-1.212 Y3.883 E0.97372
G1 X-1.701 Y3.883 E0.97911
G1 X2.191 Y-3.883 E1.07473
G1 X1.701 Y-3.883 E1.08012
G1 X-2.191 Y3.883 E1.17574
G1 X-2.680 Y3.883 E1.18113
G1 X1.212 Y-3.883 E1.27676
G1 X0.722 Y-3.883 E1.28214
G1 X-3.170 Y3.883 E1.37777
G1 X-3.660 Y3.883 E1.38315
G1 X0.233 Y-3.883 E1.47878
G1 X-0.257 Y-3.883 E1.48417
G1 X-3.827 Y3.240 E1.57187
G1 E1.07187 F2400.00000
G92 E0
G1 X-3.827 Y2.263 F12000.000
G1 E0.50000 F2400.00000
G1 X-0.746 Y-3.883 E0.57567 F1727.961
G1 X-1.236 Y-3.883 E0.58106
G1 X-3.827 Y1.286 E0.64471
G1 E0.14471 F2400.00000
G92 E0
G1 X-3.827 Y0.309 F12000.000
G1 E0.50000 F2400.00000
G1 X-1.725 Y-3.883 E0.55162 F1727.961
G1 X-2.215 Y-3.883 E0.55701
G1 X-3.827 Y-0.667 E0.59661
G1 E0.09661 F2400.00000
G92 E0
G1 X-3.827 Y-1.644 F12000.000
G1 E0.50000 F2400.00000
G1 X-2.704 Y-3.883 E0.52757 F1727.961
G1 X-3.194 Y-3.883 E0.53296
G1 X-3.827 Y-2.621 E0.54850
G1 E0.04850 F2400.00000
G92 E0
G1 X-3.827 Y-3.597 F12000.000
G1 E0.50000 F2400.00000
G1 X-3.684 Y-3.883 E0.50352 F1727.961
G1 E0.00352 F2400.00000
G92 E0
G1 X3.827 Y-1.286 F12000.000
G1 E0.50000 F2400.00000
G1 X1.236 Y3.883 E0.56365 F1727.961
G1 X1.725 Y3.883 E0.56904
G1 X3.827 Y-0.309 E0.62066
G1 E0.12066 F2400.00000
G92 E0
G1 X3.827 Y0.667 F12000.000
G1 E0.50000 F2400.00000
G1 X2.215 Y3.883 E0.53960 F1727.961
G1 X2.704 Y3.883 E0.54498
G1 X3.827 Y1.644 E0.57255
G1 E0.07255 F2400.00000
G92 E0
G1 X3.827 Y2.621 F12000.000
G1 E0.50000 F2400.00000
G1 X3.194 Y3.883 E0.51554 F1727.961
G1 X3.827 Y3.597 E0.52318
G1 X3.684 Y3.883 E0.52670
G1 Z1.900 F12000.000
G1 X3.684 Y3.882 F12000.000
G1 X3.826 Y3.598 E0.53028 F1883.749
G1 X3.215 Y3.882 E0.53786
G1 X3.826 Y2.662 E0.55322
G1 X3.826 Y1.726 E0.56374
G1 X2.746 Y3.882 E0.59088
G1 X2.276 Y3.882 E0.59615
G1 X3.826 Y0.790 E0.63506
G1 X3.826 Y-0.146 E0.64559
G1 X1.807 Y3.882 E0.69627
G1 X1.338 Y3.882 E0.70155
G1 X3.826 Y-1.082 E0.76401
G1 X3.826 Y-2.018 E0.77454
G1 X0.869 Y3.882 E0.84877
G1 X0.400 Y3.882 E0.85405
G1 X3.826 Y-2.954 E0.94006
G1 X3.811 Y-3.860 E0.95025
G1 X-0.069 Y3.882 E1.04766
G1 X-0.538 Y3.882 E1.05294
G1 X3.353 Y-3.882 E1.15063
G1 X2.884 Y-3.882 E1.15591
G1 X-1.008 Y3.882 E1.25360
G1 X-1.477 Y3.882 E1.25887
G1 X2.415 Y-3.882 E1.35656
G1 X1.946 Y-3.882 E1.36184
G1 X-1.946 Y3.882 E1.45953
G1 X-2.415 Y3.882 E1.46481
G1 X1.477 Y-3.882 E1.56250
G1 X1.008 Y-3.882 E1.56777
G1 X-2.884 Y3.882 E1.66547
G1 X-3.353 Y3.882 E1.67074
G1 X0.538 Y-3.882 E1.76843
G1 X0.069 Y-3.882 E1.77371
G1 X-3.811 Y3.860 E1.87112
G1 X-3.826 Y2.954 E1.88131
G1 X-0.400 Y-3.882 E1.96732
G1 X-0.869 Y-3.882 E1.97260
G1 X-3.826 Y2.018 E2.04683
G1 X-3.826 Y1.082 E2.05736
G1 X-1.338 Y-3.882 E2.11982
G1 X-1.807 Y-3.882 E2.12510
G1 X-3.826 Y0.146 E2.17578
G1 X-3.826 Y-0.790 E2.18631
G1 X-2.276 Y-3.882 E2.22522
G1 X-2.746 Y-3.882 E2.23049
G1 X-3.826 Y-1.726 E2.25762
G1 X-3.826 Y-2.662 E2.26815
G1 X-3.215 Y-3.882 E2.28351
G1 X-3.684 Y-3.882 E2.28878
G1 X-3.826 Y-3.598 E2.29236
M106 S249.9
G1 Z2.275 F12000.000
G1 X-3.826 Y-3.598 F12000.000
G1 X-3.684 Y-3.883 E2.29591 F3600.000
G1 E1.79591 F2400.00000
G92 E0
G1 X-3.826 Y-2.621 F12000.000
G1 E0.50000 F2400.00000
G1 X-3.194 Y-3.883 E0.51570 F3600.000
G1 X-2.705 Y-3.883 E0.52115
G1 X-3.826 Y-1.644 E0.54901
G1 E0.04901 F2400.00000
G92 E0
G1 X-3.826 Y-0.668 F12000.000
G1 E0.50000 F2400.00000
G1 X-2.215 Y-3.883 E0.54002 F3600.000
G1 X-1.726 Y-3.883 E0.54547
G1 X-3.826 Y0.309 E0.59765
G1 E0.09765 F2400.00000
G92 E0
G1 X-3.826 Y1.286 F12000.000
G1 E0.50000 F2400.00000
G1 X-1.236 Y-3.883 E0.56434 F3600.000
G1 X-0.746 Y-3.883 E0.56978
G1 X-3.826 Y2.263 E0.64628
G1 E0.14628 F2400.00000
G92 E0
G1 X-3.826 Y3.239 F12000.000
G1 E0.50000 F2400.00000
G1 X-0.257 Y-3.883 E0.58865 F3600.000
G1 X0.233 Y-3.883 E0.59410
G1 X-3.659 Y3.883 E0.69076
G1 X-3.170 Y3.883 E0.69621
G1 X0.722 Y-3.883 E0.79287
G1 X1.212 Y-3.883 E0.79831
G1 X-2.680 Y3.883 E0.89497
G1 X-2.191 Y3.883 E0.90042
G1 X1.701 Y-3.883 E0.99708
G1 X2.191 Y-3.883 E1.00253
G1 X-1.701 Y3.883 E1.09919
G1 X-1.212 Y3.883 E1.10464
G1 X2.680 Y-3.883 E1.20130
G1 X3.170 Y-3.883 E1.20674
G1 X-0.722 Y3.883 E1.30340
G1 X-0.233 Y3.883 E1.30885
G1 X3.659 Y-3.883 E1.40551
G1 X3.826 Y-3.239 E1.41291
G1 X0.257 Y3.883 E1.50156
G1 X0.746 Y3.883 E1.50701
G1 X3.826 Y-2.263 E1.58350
G1 E1.08350 F2400.00000
G92 E0
G1 X3.826 Y-1.286 F12000.000
G1 E0.50000 F2400.00000
G1 X1.236 Y3.883 E0.56434 F3600.000
G1 X1.726 Y3.883 E0.56978
G1 X3.826 Y-0.309 E0.62196
G1 E0.12196 F2400.00000
G92 E0
G1 X3.826 Y0.668 F12000.000
G1 E0.50000 F2400.00000
G1 X2.215 Y3.883 E0.54002 F3600.000
G1 X2.705 Y3.883 E0.54547
G1 X3.826 Y1.644 E0.57333
G1 E0.07333 F2400.00000
G92 E0
G1 X3.826 Y2.621 F12000.000
G1 E0.50000 F2400.00000
G1 X3.194 Y3.883 E0.51570 F3600.000
G1 X3.826 Y3.598 E0.52342
G1 X3.684 Y3.883 E0.52697
G1 Z2.975 F12000.000
G1 E0.02697 F2400.00000
G92 E0
G1 X3.743 Y4.328 F12000.000
G1 X3.743 Y4.328 F12000.000
G1 X2.914 Y3.500 F12000.000
G1 X0.592 Y0.592 F12000.000
G1 E0.50000 F2400.00000
M106 S255
G1 X-0.592 Y0.592 E0.51644 F900.000
G1 X-0.592 Y-0.592 E0.53287
G1 X0.592 Y-0.592 E0.54931
G1 X0.592 Y0.517 E0.56470
M106 S249.9
G1 X1.009 Y1.009 F12000.000
M106 S255
G1 X-1.009 Y1.009 E0.59274 F900.000
G1 X-1.009 Y-1.009 E0.62078
G1 X1.009 Y-1.009 E0.64882
G1 X1.009 Y0.934 E0.67582
M106 S249.9
G1 X1.427 Y1.427 F12000.000
M106 S255
G1 X-1.427 Y1.427 E0.71546 F900.000
G1 X-1.427 Y-1.427 E0.75510
G1 X1.427 Y-1.427 E0.79474
G1 X1.427 Y1.352 E0.83334
M106 S249.9
G1 X1.845 Y1.845 F12000.000
M106 S255
G1 X-1.845 Y1.845 E0.88459 F900.000
G1 X-1.845 Y-1.845 E0.93583
G1 X1.845 Y-1.845 E0.98708
G1 X1.845 Y1.770 E1.03728
M106 S249.9
G1 X2.250 Y2.250 F12000.000
M106 S255
G1 X-2.250 Y2.250 E1.09978 F900.000
G1 X-2.250 Y-2.250 E1.16228
G1 X2.250 Y-2.250 E1.22478
G1 X2.250 Y2.175 E1.28624
M106 S249.9
G1 X0.307 Y-0.034 F12000.000
M106 S255
G1 X0.034 Y-0.307 E1.29161 F3600.000
M106 S249.9
M106 S255
G1 Z3.375 F12000.000
G1 X0.325 Y0.325 F12000.000
G1 X-0.325 Y0.325 E1.30063 F618.991
G1 X-0.325 Y-0.325 E1.30965
G1 X0.325 Y-0.325 E1.31868
G1 X0.325 Y0.250 E1.32666
G1 X0.816 Y0.816 F12000.000
G1 X-0.816 Y0.816 E1.34932 F618.991
G1 X-0.816 Y-0.816 E1.37198
G1 X0.816 Y-0.816 E1.39464
G1 X0.816 Y0.741 E1.41626
G1 X1.307 Y1.307 F12000.000
G1 X-1.307 Y1.307 E1.45255 F618.991
G1 X-1.307 Y-1.307 E1.48885
G1 X1.307 Y-1.307 E1.52514
G1 X1.307 Y1.232 E1.56039
G1 X1.797 Y1.797 F12000.000
G1 X-1.797 Y1.797 E1.61032 F618.991
G1 X-1.797 Y-1.797 E1.66025
G1 X1.797 Y-1.797 E1.71018
G1 X1.797 Y1.722 E1.75907
G1 X2.250 Y2.250 F12000.000
G1 X-2.250 Y2.250 E1.81181 F618.991
G1 X-2.250 Y-2.250 E1.86454
G1 X2.250 Y-2.250 E1.91727
G1 X2.250 Y2.175 E1.96912
G1 X1.817 Y2.000 F12000.000
G1 Z3.775 F12000.000
G1 X0.325 Y0.325 F12000.000
G1 X-0.325 Y0.325 E1.97815 F618.991
G1 X-0.325 Y-0.325 E1.98717
G1 X0.325 Y-0.325 E1.99620
G1 X0.325 Y0.250 E2.00418
G1 X0.816 Y0.816 F12000.000
G1 X-0.816 Y0.816 E2.02684 F618.991
G1 X-0.816 Y-0.816 E2.04950
G1 X0.816 Y-0.816 E2.07216
G1 X0.816 Y0.741 E2.09377
G1 X1.307 Y1.307 F12000.000
G1 X-1.307 Y1.307 E2.13007 F618.991
G1 X-1.307 Y-1.307 E2.16636
G1 X1.307 Y-1.307 E2.20266
G1 X1.307 Y1.232 E2.23791
G1 X1.797 Y1.797 F12000.000
G1 X-1.797 Y1.797 E2.28784 F618.991
G1 X-1.797 Y-1.797 E2.33777
G1 X1.797 Y-1.797 E2.38770
G1 X1.797 Y1.722 E2.43659
G1 X2.250 Y2.250 F12000.000
G1 X-2.250 Y2.250 E2.48932 F618.991
G1 X-2.250 Y-2.250 E2.54206
G1 X2.250 Y-2.250 E2.59479
G1 X2.250 Y2.175 E2.64664
G1 X1.817 Y2.000 F12000.000
G1 Z4.175 F12000.000
G1 X0.325 Y0.325 F12000.000
G1 X-0.325 Y0.325 E2.65567 F618.991
G1 X-0.325 Y-0.325 E2.66469
G1 X0.325 Y-0.325 E2.67371
G1 X0.325 Y0.250 E2.68170
G1 X0.816 Y0.816 F12000.000
G1 X-0.816 Y0.816 E2.70436 F618.991
G1 X-0.816 Y-0.816 E2.72701
G1 X0.816 Y-0.816 E2.74967
G1 X0.816 Y0.741 E2.77129
G1 X1.307 Y1.307 F12000.000
G1 X-1.307 Y1.307 E2.80759 F618.991
G1 X-1.307 Y-1.307 E2.84388
G1 X1.307 Y-1.307 E2.88018
G1 X1.307 Y1.232 E2.91543
G1 X1.797 Y1.797 F12000.000
G1 X-1.797 Y1.797 E2.96536 F618.991
G1 X-1.797 Y-1.797 E3.01529
G1 X1.797 Y-1.797 E3.06522
G1 X1.797 Y1.722 E3.11411
G1 X2.250 Y2.250 F12000.000
G1 X-2.250 Y2.250 E3.16684 F618.991
G1 X-2.250 Y-2.250 E3.21957
G1 X2.250 Y-2.250 E3.27230
G1 X2.250 Y2.175 E3.32416
G1 X1.817 Y2.000 F12000.000
G1 Z4.575 F12000.000
G1 X0.325 Y0.325 F12000.000
G1 X-0.325 Y0.325 E3.33318 F618.991
G1 X-0.325 Y-0.325 E3.34221
G1 X0.325 Y-0.325 E3.35123
G1 X0.325 Y0.250 E3.35921
G1 X0.816 Y0.816 F12000.000
G1 X-0.816 Y0.816 E3.38187 F618.991
G1 X-0.816 Y-0.816 E3.40453
G1 X0.816 Y-0.816 E3.42719
G1 X0.816 Y0.741 E3.44881
G1 X1.307 Y1.307 F12000.000
G1 X-1.307 Y1.307 E3.48510 F618.991
G1 X-1.307 Y-1.307 E3.52140
G1 X1.307 Y-1.307 E3.55769
G1 X1.307 Y1.232 E3.59295
G1 X1.797 Y1.797 F12000.000
G1 X-1.797 Y1.797 E3.64288 F618.991
G1 X-1.797 Y-1.797 E3.69281
G1 X1.797 Y-1.797 E3.74274
G1 X1.797 Y1.722 E3.79162
G1 X2.250 Y2.250 F12000.000
G1 X-2.250 Y2.250 E3.84436 F618.991
G1 X-2.250 Y-2.250 E3.89709
G1 X2.250 Y-2.250 E3.94982
G1 X2.250 Y2.175 E4.00168
G1 X1.817 Y2.000 F12000.000
G1 Z4.975 F12000.000
G1 X0.325 Y0.325 F12000.000
G1 X-0.325 Y0.325 E4.01070 F618.991
G1 X-0.325 Y-0.325 E4.01972
G1 X0.325 Y-0.325 E4.02875
G1 X0.325 Y0.250 E4.03673
G1 X0.816 Y0.816 F12000.000
G1 X-0.816 Y0.816 E4.05939 F618.991
G1 X-0.816 Y-0.816 E4.08205
G1 X0.816 Y-0.816 E4.10471
G1 X0.816 Y0.741 E4.12633
G1 X1.307 Y1.307 F12000.000
G1 X-1.307 Y1.307 E4.16262 F618.991
G1 X-1.307 Y-1.307 E4.19892
G1 X1.307 Y-1.307 E4.23521
G1 X1.307 Y1.232 E4.27046
G1 X1.797 Y1.797 F12000.000
G1 X-1.797 Y1.797 E4.32039 F618.991
G1 X-1.797 Y-1.797 E4.37032
G1 X1.797 Y-1.797 E4.42025
G1 X1.797 Y1.722 E4.46914
G1 X2.250 Y2.250 F12000.000
G1 X-2.250 Y2.250 E4.52187 F618.991
G1 X-2.250 Y-2.250 E4.57461
G1 X2.250 Y-2.250 E4.62734
G1 X2.250 Y2.175 E4.67919
G1 X1.817 Y2.000 F12000.000
G1 Z5.375 F12000.000
G1 X0.325 Y0.325 F12000.000
G1 X-0.325 Y0.325 E4.68822 F618.991
G1 X-0.325 Y-0.325 E4.69724
G1 X0.325 Y-0.325 E4.70627
G1 X0.325 Y0.250 E4.71425
G1 X0.816 Y0.816 F12000.000
G1 X-0.816 Y0.816 E4.73691 F618.991
G1 X-0.816 Y-0.816 E4.75957
G1 X0.816 Y-0.816 E4.78223
G1 X0.816 Y0.741 E4.80384
G1 X1.307 Y1.307 F12000.000
G1 X-1.307 Y1.307 E4.84014 F618.991
G1 X-1.307 Y-1.307 E4.87643
G1 X1.307 Y-1.307 E4.91273
G1 X1.307 Y1.232 E4.94798
G1 X1.797 Y1.797 F12000.000
G1 X-1.797 Y1.797 E4.99791 F618.991
G1 X-1.797 Y-1.797 E5.04784
G1 X1.797 Y-1.797 E5.09777
G1 X1.797 Y1.722 E5.14666
G1 X2.250 Y2.250 F12000.000
G1 X-2.250 Y2.250 E5.19939 F618.991
G1 X-2.250 Y-2.250 E5.25212
G1 X2.250 Y-2.250 E5.30486
G1 X2.250 Y2.175 E5.35671
G1 X1.817 Y2.000 F12000.000
G1 Z5.775 F12000.000
G1 X0.325 Y0.325 F12000.000
G1 X-0.325 Y0.325 E5.36573 F618.991
G1 X-0.325 Y-0.325 E5.37476
G1 X0.325 Y-0.325 E5.38378
G1 X0.325 Y0.250 E5.39176
G1 X0.816 Y0.816 F12000.000
G1 X-0.816 Y0.816 E5.41442 F618.991
G1 X-0.816 Y-0.816 E5.43708
G1 X0.816 Y-0.816 E5.45974
G1 X0.816 Y0.741 E5.48136
G1 X1.307 Y1.307 F12000.000
G1 X-1.307 Y1.307 E5.51766 F618.991
G1 X-1.307 Y-1.307 E5.55395
G1 X1.307 Y-1.307 E5.59024
G1 X1.307 Y1.232 E5.62550
G1 X1.797 Y1.797 F12000.000
G1 X-1.797 Y1.797 E5.67543 F618.991
G1 X-1.797 Y-1.797 E5.72536
G1 X1.797 Y-1.797 E5.77529
G1 X1.797 Y1.722 E5.82418
G1 X2.250 Y2.250 F12000.000
G1 X-2.250 Y2.250 E5.87691 F618.991
G1 X-2.250 Y-2.250 E5.92964
G1 X2.250 Y-2.250 E5.98237
G1 X2.250 Y2.175 E6.03423
G1 X1.817 Y2.000 F12000.000
G1 Z6.175 F12000.000
G1 X0.325 Y0.325 F12000.000
G1 X-0.325 Y0.325 E6.04325 F618.991
G1 X-0.325 Y-0.325 E6.05228
G1 X0.325 Y-0.325 E6.06130
G1 X0.325 Y0.250 E6.06928
G1 X0.816 Y0.816 F12000.000
G1 X-0.816 Y0.816 E6.09194 F618.991
G1 X-0.816 Y-0.816 E6.11460
G1 X0.816 Y-0.816 E6.13726
G1 X0.816 Y0.741 E6.15888
G1 X1.307 Y1.307 F12000.000
G1 X-1.307 Y1.307 E6.19517 F618.991
G1 X-1.307 Y-1.307 E6.23147
G1 X1.307 Y-1.307 E6.26776
G1 X1.307 Y1.232 E6.30302
G1 X1.797 Y1.797 F12000.000
G1 X-1.797 Y1.797 E6.35295 F618.991
G1 X-1.797 Y-1.797 E6.40288
G1 X1.797 Y-1.797 E6.45281
G1 X1.797 Y1.722 E6.50169
G1 X2.250 Y2.250 F12000.000
G1 X-2.250 Y2.250 E6.55443 F618.991
G1 X-2.250 Y-2.250 E6.60716
G1 X2.250 Y-2.250 E6.65989
G1 X2.250 Y2.175 E6.71174
G1 X1.817 Y2.000 F12000.000
G1 Z6.575 F12000.000
G1 X0.325 Y0.325 F12000.000
G1 X-0.325 Y0.325 E6.72077 F618.991
G1 X-0.325 Y-0.325 E6.72979
G1 X0.325 Y-0.325 E6.73882
G1 X0.325 Y0.250 E6.74680
G1 X0.816 Y0.816 F12000.000
G1 X-0.816 Y0.816 E6.76946 F618.991
G1 X-0.816 Y-0.816 E6.79212
G1 X0.816 Y-0.816 E6.81478
G1 X0.816 Y0.741 E6.83640
G1 X1.307 Y1.307 F12000.000
G1 X-1.307 Y1.307 E6.87269 F618.991
G1 X-1.307 Y-1.307 E6.90898
G1 X1.307 Y-1.307 E6.94528
G1 X1.307 Y1.232 E6.98053
G1 X1.797 Y1.797 F12000.000
G1 X-1.797 Y1.797 E7.03046 F618.991
G1 X-1.797 Y-1.797 E7.08039
G1 X1.797 Y-1.797 E7.13032
G1 X1.797 Y1.722 E7.17921
G1 X2.250 Y2.250 F12000.000
G1 X-2.250 Y2.250 E7.23194 F618.991
G1 X-2.250 Y-2.250 E7.28468
G1 X2.250 Y-2.250 E7.33741
G1 X2.250 Y2.175 E7.38926
G1 X1.817 Y2.000 F12000.000
G1 Z6.975 F12000.000
G1 X0.325 Y0.325 F12000.000
G1 X-0.325 Y0.325 E7.39829 F618.991
G1 X-0.325 Y-0.325 E7.40731
G1 X0.325 Y-0.325 E7.41633
G1 X0.325 Y0.250 E7.42432
G1 X0.816 Y0.816 F12000.000
G1 X-0.816 Y0.816 E7.44698 F618.991
G1 X-0.816 Y-0.816 E7.46964
G1 X0.816 Y-0.816 E7.49229
G1 X0.816 Y0.741 E7.51391
G1 X1.307 Y1.307 F12000.000
G1 X-1.307 Y1.307 E7.55021 F618.991
G1 X-1.307 Y-1.307 E7.58650
G1 X1.307 Y-1.307 E7.62280
G1 X1.307 Y1.232 E7.65805
G1 X1.797 Y1.797 F12000.000
G1 X-1.797 Y1.797 E7.70798 F618.991
G1 X-1.797 Y-1.797 E7.75791
G1 X1.797 Y-1.797 E7.80784
G1 X1.797 Y1.722 E7.85673
G1 X2.250 Y2.250 F12000.000
G1 X-2.250 Y2.250 E7.90946 F618.991
G1 X-2.250 Y-2.250 E7.96219
G1 X2.250 Y-2.250 E8.01493
G1 X2.250 Y2.175 E8.06678
G1 X1.817 Y2.000 F12000.000
G1 Z7.375 F12000.000
G1 E7.56678 F2400.00000
G92 E0
G1 X0.325 Y0.325 F12000.000
G1 E0.50000 F2400.00000
G1 X-0.325 Y0.325 E0.50902 F618.991
G1 X-0.325 Y-0.325 E0.51805
G1 X0.325 Y-0.325 E0.52707
G1 X0.325 Y0.250 E0.53505
G1 E0.03505 F2400.00000
G92 E0
G1 X0.816 Y0.816 F12000.000
G1 E0.50000 F2400.00000
G1 X-0.816 Y0.816 E0.52266 F618.991
G1 X-0.816 Y-0.816 E0.54532
G1 X0.816 Y-0.816 E0.56798
G1 X0.816 Y0.741 E0.58960
G1 E0.08960 F2400.00000
G92 E0
G1 X1.307 Y1.307 F12000.000
G1 E0.50000 F2400.00000
G1 X-1.307 Y1.307 E0.53629 F618.991
G1 X-1.307 Y-1.307 E0.57259
G1 X1.307 Y-1.307 E0.60888
G1 X1.307 Y1.232 E0.64414
G1 E0.14414 F2400.00000
G92 E0
G1 X1.797 Y1.797 F12000.000
G1 E0.50000 F2400.00000
G1 X-1.797 Y1.797 E0.54993 F618.991
G1 X-1.797 Y-1.797 E0.59986
G1 X1.797 Y-1.797 E0.64979
G1 X1.797 Y1.722 E0.69868
G1 E0.19868 F2400.00000
G92 E0
G1 X2.250 Y2.250 F12000.000
G1 E0.50000 F2400.00000
G1 X-2.250 Y2.250 E0.55273 F618.991
G1 X-2.250 Y-2.250 E0.60546
G1 X2.250 Y-2.250 E0.65820
G1 X2.250 Y2.175 E0.71005
G1 X1.817 Y2.000 F12000.000
G1 E0.21005 F2400.00000
G92 E0
M107
G28
; filament used = 17.2mm (0.1cm3)

; avoid_crossing_perimeters = 1
; bed_shape = 0x0,50x0,50x50,0x50
; bed_temperature = 0
; before_layer_gcode = 
; bridge_acceleration = 0
; bridge_fan_speed = 100
; brim_width = 0
; complete_objects = 0
; cooling = 1
; default_acceleration = 0
; disable_fan_first_layers = 3
; duplicate_distance = 6
; end_gcode = G28
; extruder_clearance_height = 20
; extruder_clearance_radius = 20
; extruder_offset = 0x0
; extrusion_axis = E
; extrusion_multiplier = 0.5
; fan_always_on = 0
; fan_below_layer_time = 60
; filament_colour = #FFFFFF
; filament_diameter = 3
; first_layer_acceleration = 0
; first_layer_bed_temperature = 0
; first_layer_extrusion_width = 200%
; first_layer_speed = 30
; first_layer_temperature = 205
; gcode_arcs = 0
; gcode_comments = 0
; gcode_flavor = reprap
; infill_acceleration = 0
; infill_first = 0
; layer_gcode = 
; max_fan_speed = 100
; max_print_speed = 80
; max_volumetric_speed = 0
; min_fan_speed = 35
; min_print_speed = 10
; min_skirt_length = 0
; notes = 
; nozzle_diameter = 0.5
; only_retract_when_crossing_perimeters = 1
; ooze_prevention = 0
; output_filename_format = [input_filename_base].gcode
; perimeter_acceleration = 0
; post_process = 
; pressure_advance = 0
; resolution = 0
; retract_before_travel = 0.55
; retract_layer_change = 0
; retract_length = 0.5
; retract_length_toolchange = 10
; retract_lift = 0
; retract_restart_extra = 0
; retract_restart_extra_toolchange = 0
; retract_speed = 40
; skirt_distance = 6
; skirt_height = 1
; skirts = 1
; slowdown_below_layer_time = 5
; spiral_vase = 0
; standby_temperature_delta = -5
; start_gcode = 
; temperature = 205
; threads = 2
; toolchange_gcode = 
; travel_speed = 200
; use_firmware_retraction = 0
; use_relative_e_distances = 0
; use_volumetric_e = 0
; vibration_limit = 0
; wipe = 0
; z_offset = 0
; dont_support_bridges = 1
; extrusion_width = 0
; first_layer_height = 100%
; infill_only_where_needed = 0
; interface_shells = 0
; layer_height = 0.4
; raft_layers = 6
; seam_position = aligned
; support_material = 1
; support_material_angle = 0
; support_material_contact_distance = 0.2
; support_material_enforce_layers = 0
; support_material_extruder = 1
; support_material_extrusion_width = 0
; support_material_interface_extruder = 1
; support_material_interface_layers = 3
; support_material_interface_spacing = 0
; support_material_interface_speed = 100%
; support_material_pattern = pillars
; support_material_spacing = 2.5
; support_material_speed = 60
; support_material_threshold = 0
; xy_size_compensation = 0
; bottom_solid_layers = 5
; bridge_flow_ratio = 1
; bridge_speed = 60
; external_fill_pattern = rectilinear
; external_perimeter_extrusion_width = 0
; external_perimeter_speed = 50%
; external_perimeters_first = 0
; extra_perimeters = 1
; fill_angle = 45
; fill_density = 20%
; fill_pattern = honeycomb
; gap_fill_speed = 20
; infill_every_layers = 10
; infill_extruder = 1
; infill_extrusion_width = 0
; infill_overlap = 15%
; infill_speed = 30
; overhangs = 1
; perimeter_extruder = 1
; perimeter_extrusion_width = 0
; perimeter_speed = 30
; perimeters = 5
; small_perimeter_speed = 15
; solid_infill_below_area = 70
; solid_infill_every_layers = 0
; solid_infill_extruder = 1
; solid_infill_extrusion_width = 0
; solid_infill_speed = 20
; thin_walls = 1
; top_infill_extrusion_width = 0
; top_solid_infill_speed = 15
; top_solid_layers = 5
;DOWN ALL THE WAY 
G28
M400
G1 X55
M400
G1 Z55
M400
G4 P30000
















